(.../pcb-gcode-3.6.0.4/pcb-gcode.ulp)
(Copyright 2005 - 2012 by John Johnson)
(See readme.txt for licensing terms.)
(This file generated from the board:)
(.../Battery tester/baterry tester.brd)
(Current profile is .../pcb-gcode-3.6.0.4/profiles/generic.pp  )
(This file generated 2/4/2019 12:52 PM)
(Settings from pcb-machine.h)
(  Tool Size)
(0.3000 )
(Z Axis Settings)
(  High     Up        Down     Drill)
(12.7000 	2.4000 	-0.1000 	-1.7000 )
(spindle on time = 3.0000)
(milling depth = -0.2540)
(text depth = -0.1270)
(tool change at 12.7000 15.2400 10.0000 )
(feed rate xy = F100.00 )
(feed rate z  = F100.00 )
(Settings from pcb-defaults.h)
(isolate min = 0.0254)
(isolate max = 0.3000)
(isolate step = 0.0700)
(Generated top outlines, top drill, )
(Unit of measure: mm)
( Tool|       Size       |  Min Sub |  Max Sub |   Count )
( T01  3.556mm 0.1400in 0.0000in 0.0000in )
( T02  0.900mm 0.0354in 0.0000in 0.0000in )
( T03  1.000mm 0.0394in 0.0000in 0.0000in )
( T04  1.016mm 0.0400in 0.0000in 0.0000in )
( T05  1.200mm 0.0472in 0.0000in 0.0000in )
( T06  1.300mm 0.0512in 0.0000in 0.0000in )
( T07  1.778mm 0.0700in 0.0000in 0.0000in )
( T08  2.800mm 0.1102in 0.0000in 0.0000in )
(Metric Mode)
G21
(Absolute Coordinates)
G90
M05
G00 Z10.0000 
G00 X12.7000 Y15.2400 
M06 T01  ; 3.5560 
G01 Z0.0000 F100.00 
M06 T01  ; 3.5560 
G00 Z2.4000 
M03
G04 P3.000000
G00 Z2.400000
G00 X112.7640 Y7.0930 
G01 Z-1.7000 F100.00 
G01 Z2.400000
(R2.4000  P1.000000)
(G00 Z2.400000)
G00 X122.8640 Y7.0930 
G01 Z-1.700000
G01 Z2.400000
M05
G00 Z10.0000 
M06 T02  ; 0.9000 
G01 Z0.0000 F100.00 
M06 T02  ; 0.9000 
G00 Z2.4000 
M03
G04 P3.000000
G00 Z2.400000
G00 X3.8100 Y10.2870 
G01 Z-1.7000 F100.00 
G01 Z2.400000
(R2.4000  P1.000000)
M05
G00 Z10.0000 
M06 T03  ; 1.0000 
G01 Z0.0000 F100.00 
M06 T03  ; 1.0000 
G00 Z2.4000 
M03
G04 P3.000000
G00 Z2.400000
G00 X3.8100 Y33.1470 
G01 Z-1.7000 F100.00 
G01 Z2.400000
(R2.4000  P1.000000)
(G00 Z2.400000)
G00 X3.8100 Y35.6870 
G01 Z-1.700000
G01 Z2.400000
(G00 Z2.400000)
G00 X3.8100 Y38.2270 
G01 Z-1.700000
G01 Z2.400000
(G00 Z2.400000)
G00 X3.8100 Y40.7670 
G01 Z-1.700000
G01 Z2.400000
(G00 Z2.400000)
G00 X3.8100 Y43.3070 
G01 Z-1.700000
G01 Z2.400000
(G00 Z2.400000)
G00 X3.8100 Y45.8470 
G01 Z-1.700000
G01 Z2.400000
(G00 Z2.400000)
G00 X3.8100 Y12.8270 
G01 Z-1.700000
G01 Z2.400000
(G00 Z2.400000)
G00 X3.8100 Y15.3670 
G01 Z-1.700000
G01 Z2.400000
(G00 Z2.400000)
G00 X3.8100 Y17.9070 
G01 Z-1.700000
G01 Z2.400000
(G00 Z2.400000)
G00 X3.8100 Y20.4470 
G01 Z-1.700000
G01 Z2.400000
(G00 Z2.400000)
G00 X3.8100 Y22.9870 
G01 Z-1.700000
G01 Z2.400000
(G00 Z2.400000)
G00 X3.8100 Y25.5270 
G01 Z-1.700000
G01 Z2.400000
(G00 Z2.400000)
G00 X3.8100 Y28.0670 
G01 Z-1.700000
G01 Z2.400000
(G00 Z2.400000)
G00 X3.8100 Y30.6070 
G01 Z-1.700000
G01 Z2.400000
(G00 Z2.400000)
G00 X112.6740 Y21.7860 
G01 Z-1.700000
G01 Z2.400000
(G00 Z2.400000)
G00 X115.2140 Y21.7920 
G01 Z-1.700000
G01 Z2.400000
(G00 Z2.400000)
G00 X117.7650 Y21.8600 
G01 Z-1.700000
G01 Z2.400000
(G00 Z2.400000)
G00 X120.3080 Y21.8430 
G01 Z-1.700000
G01 Z2.400000
(G00 Z2.400000)
G00 X122.8620 Y21.8430 
G01 Z-1.700000
G01 Z2.400000
(G00 Z2.400000)
G00 X19.0500 Y33.1470 
G01 Z-1.700000
G01 Z2.400000
(G00 Z2.400000)
G00 X19.0500 Y35.6870 
G01 Z-1.700000
G01 Z2.400000
(G00 Z2.400000)
G00 X19.0500 Y38.2270 
G01 Z-1.700000
G01 Z2.400000
(G00 Z2.400000)
G00 X19.0500 Y40.7670 
G01 Z-1.700000
G01 Z2.400000
(G00 Z2.400000)
G00 X19.0500 Y43.3070 
G01 Z-1.700000
G01 Z2.400000
(G00 Z2.400000)
G00 X19.0500 Y45.8470 
G01 Z-1.700000
G01 Z2.400000
(G00 Z2.400000)
G00 X19.0500 Y10.2870 
G01 Z-1.700000
G01 Z2.400000
(G00 Z2.400000)
G00 X19.0500 Y12.8270 
G01 Z-1.700000
G01 Z2.400000
(G00 Z2.400000)
G00 X19.0500 Y15.3670 
G01 Z-1.700000
G01 Z2.400000
(G00 Z2.400000)
G00 X19.0500 Y17.9070 
G01 Z-1.700000
G01 Z2.400000
(G00 Z2.400000)
G00 X19.0500 Y20.4470 
G01 Z-1.700000
G01 Z2.400000
(G00 Z2.400000)
G00 X19.0500 Y22.9870 
G01 Z-1.700000
G01 Z2.400000
(G00 Z2.400000)
G00 X19.0500 Y25.5270 
G01 Z-1.700000
G01 Z2.400000
(G00 Z2.400000)
G00 X19.0500 Y28.0670 
G01 Z-1.700000
G01 Z2.400000
(G00 Z2.400000)
G00 X19.0500 Y30.6070 
G01 Z-1.700000
G01 Z2.400000
M05
G00 Z10.0000 
M06 T04  ; 1.0160 
G01 Z0.0000 F100.00 
M06 T04  ; 1.0160 
G00 Z2.4000 
M03
G04 P3.000000
G00 Z2.400000
G00 X35.1830 Y13.7100 
G01 Z-1.7000 F100.00 
G01 Z2.400000
(R2.4000  P1.000000)
(G00 Z2.400000)
G00 X37.7230 Y13.7100 
G01 Z-1.700000
G01 Z2.400000
(G00 Z2.400000)
G00 X40.2630 Y13.7100 
G01 Z-1.700000
G01 Z2.400000
(G00 Z2.400000)
G00 X42.8030 Y13.7100 
G01 Z-1.700000
G01 Z2.400000
(G00 Z2.400000)
G00 X45.3430 Y13.7100 
G01 Z-1.700000
G01 Z2.400000
(G00 Z2.400000)
G00 X47.8830 Y13.7100 
G01 Z-1.700000
G01 Z2.400000
(G00 Z2.400000)
G00 X50.4230 Y13.7100 
G01 Z-1.700000
G01 Z2.400000
(G00 Z2.400000)
G00 X52.9630 Y13.7100 
G01 Z-1.700000
G01 Z2.400000
(G00 Z2.400000)
G00 X55.5030 Y13.7100 
G01 Z-1.700000
G01 Z2.400000
(G00 Z2.400000)
G00 X58.0430 Y13.7100 
G01 Z-1.700000
G01 Z2.400000
(G00 Z2.400000)
G00 X60.5790 Y53.2130 
G01 Z-1.700000
G01 Z2.400000
(G00 Z2.400000)
G00 X60.5830 Y13.7100 
G01 Z-1.700000
G01 Z2.400000
(G00 Z2.400000)
G00 X63.1230 Y13.7100 
G01 Z-1.700000
G01 Z2.400000
(G00 Z2.400000)
G00 X65.6630 Y13.7100 
G01 Z-1.700000
G01 Z2.400000
(G00 Z2.400000)
G00 X68.2030 Y13.7100 
G01 Z-1.700000
G01 Z2.400000
(G00 Z2.400000)
G00 X70.7390 Y50.6730 
G01 Z-1.700000
G01 Z2.400000
(G00 Z2.400000)
G00 X70.7390 Y55.7530 
G01 Z-1.700000
G01 Z2.400000
(G00 Z2.400000)
G00 X70.7430 Y13.7100 
G01 Z-1.700000
G01 Z2.400000
(G00 Z2.400000)
G00 X73.2830 Y13.7100 
G01 Z-1.700000
G01 Z2.400000
M05
G00 Z10.0000 
M06 T05  ; 1.2000 
G01 Z0.0000 F100.00 
M06 T05  ; 1.2000 
G00 Z2.4000 
M03
G04 P3.000000
G00 Z2.400000
G00 X110.2360 Y33.2740 
G01 Z-1.7000 F100.00 
G01 Z2.400000
(R2.4000  P1.000000)
(G00 Z2.400000)
G00 X110.2360 Y51.8160 
G01 Z-1.700000
G01 Z2.400000
(G00 Z2.400000)
G00 X112.7760 Y33.2740 
G01 Z-1.700000
G01 Z2.400000
(G00 Z2.400000)
G00 X112.7760 Y51.8160 
G01 Z-1.700000
G01 Z2.400000
(G00 Z2.400000)
G00 X120.9040 Y33.2740 
G01 Z-1.700000
G01 Z2.400000
(G00 Z2.400000)
G00 X120.9040 Y51.8160 
G01 Z-1.700000
G01 Z2.400000
(G00 Z2.400000)
G00 X123.4440 Y33.2740 
G01 Z-1.700000
G01 Z2.400000
(G00 Z2.400000)
G00 X123.4440 Y51.8160 
G01 Z-1.700000
G01 Z2.400000
M05
G00 Z10.0000 
M06 T06  ; 1.3000 
G01 Z0.0000 F100.00 
M06 T06  ; 1.3000 
G00 Z2.4000 
M03
G04 P3.000000
G00 Z2.400000
G00 X7.3500 Y55.5000 
G01 Z-1.7000 F100.00 
G01 Z2.400000
(R2.4000  P1.000000)
(G00 Z2.400000)
G00 X7.3500 Y60.5000 
G01 Z-1.700000
G01 Z2.400000
M05
G00 Z10.0000 
M06 T07  ; 1.7780 
G01 Z0.0000 F100.00 
M06 T07  ; 1.7780 
G00 Z2.4000 
M03
G04 P3.000000
G00 Z2.400000
G00 X3.8100 Y48.3870 
G01 Z-1.7000 F100.00 
G01 Z2.400000
(R2.4000  P1.000000)
(G00 Z2.400000)
G00 X3.8100 Y7.7470 
G01 Z-1.700000
G01 Z2.400000
(G00 Z2.400000)
G00 X19.0500 Y48.3870 
G01 Z-1.700000
G01 Z2.400000
(G00 Z2.400000)
G00 X19.0500 Y7.7470 
G01 Z-1.700000
G01 Z2.400000
M05
G00 Z10.0000 
M06 T08  ; 2.8000 
G01 Z0.0000 F100.00 
M06 T08  ; 2.8000 
G00 Z2.4000 
M03
G04 P3.000000
G00 Z2.400000
G00 X104.6830 Y44.7100 
G01 Z-1.7000 F100.00 
G01 Z2.400000
(R2.4000  P1.000000)
(G00 Z2.400000)
G00 X104.6830 Y13.7100 
G01 Z-1.700000
G01 Z2.400000
(G00 Z2.400000)
G00 X29.6830 Y44.7100 
G01 Z-1.700000
G01 Z2.400000
(G00 Z2.400000)
G00 X29.6830 Y13.7100 
G01 Z-1.700000
G01 Z2.400000
T01 
G00 Z12.7000 
M05
M02
