(.../pcb-gcode-3.6.0.4/pcb-gcode.ulp)
(Copyright 2005 - 2012 by John Johnson)
(See readme.txt for licensing terms.)
(This file generated from the board:)
(.../Battery tester/baterry tester.brd)
(Current profile is .../pcb-gcode-3.6.0.4/profiles/generic.pp  )
(This file generated 2/4/2019 12:17 PM)
(Settings from pcb-machine.h)
(  Tool Size)
(0.3000 )
(Z Axis Settings)
(  High     Up        Down     Drill)
(12.7000 	2.4000 	-0.1000 	-1.7000 )
(spindle on time = 3.0000)
(milling depth = -0.2540)
(text depth = -0.1270)
(tool change at 12.7000 15.2400 10.0000 )
(feed rate xy = F100.00 )
(feed rate z  = F100.00 )
(Settings from pcb-defaults.h)
(isolate min = 0.0254)
(isolate max = 0.3000)
(isolate step = 0.0700)
(Generated top outlines, top drill, )
(Unit of measure: mm)
(Metric Mode)
G21
(Absolute Coordinates)
G90
G00 X0.0000 Y0.0000 
M03
G04 P3.000000
G00 Z2.4000 
G00 X108.2305 Y1.5564 
G01 Z-0.1000 F100.00 
G01 X107.5564 Y2.2305 F100.00 
G01 X107.5564 Y12.4436 
G01 X117.4436 Y12.4436 
G01 X117.4436 Y1.5564 
G01 X108.2305 Y1.5564 
G00 Z2.4000 
G00 X115.9394 Y6.9370 
G01 Z-0.1000 F100.00 
G01 X115.9394 Y7.2490 F100.00 
G01 X115.9088 Y7.5595 
G01 X115.8480 Y7.8655 
G01 X115.7574 Y8.1640 
G01 X115.6380 Y8.4523 
G01 X115.4909 Y8.7275 
G01 X115.3176 Y8.9869 
G01 X115.1197 Y9.2280 
G01 X114.8990 Y9.4487 
G01 X114.6579 Y9.6466 
G01 X114.3985 Y9.8199 
G01 X114.1233 Y9.9670 
G01 X113.8351 Y10.0864 
G01 X113.5365 Y10.1769 
G01 X113.2305 Y10.2378 
G01 X112.9200 Y10.2684 
G01 X112.6080 Y10.2684 
G01 X112.2975 Y10.2378 
G01 X111.9915 Y10.1769 
G01 X111.6929 Y10.0864 
G01 X111.4047 Y9.9670 
G01 X111.1295 Y9.8199 
G01 X110.8701 Y9.6466 
G01 X110.6290 Y9.4487 
G01 X110.4083 Y9.2280 
G01 X110.2104 Y8.9869 
G01 X110.0371 Y8.7275 
G01 X109.8900 Y8.4523 
G01 X109.7706 Y8.1640 
G01 X109.6800 Y7.8655 
G01 X109.6192 Y7.5595 
G01 X109.5886 Y7.2490 
G01 X109.5886 Y6.9370 
G01 X109.6192 Y6.6265 
G01 X109.6800 Y6.3205 
G01 X109.7706 Y6.0219 
G01 X109.8900 Y5.7337 
G01 X110.0371 Y5.4585 
G01 X110.2104 Y5.1991 
G01 X110.4083 Y4.9580 
G01 X110.6290 Y4.7373 
G01 X110.8701 Y4.5394 
G01 X111.1295 Y4.3661 
G01 X111.4047 Y4.2190 
G01 X111.6929 Y4.0996 
G01 X111.9915 Y4.0090 
G01 X112.2975 Y3.9482 
G01 X112.6080 Y3.9176 
G01 X112.9200 Y3.9176 
G01 X113.2305 Y3.9482 
G01 X113.5365 Y4.0090 
G01 X113.8351 Y4.0996 
G01 X114.1233 Y4.2190 
G01 X114.3985 Y4.3661 
G01 X114.6579 Y4.5394 
G01 X114.8990 Y4.7373 
G01 X115.1197 Y4.9580 
G01 X115.3176 Y5.1991 
G01 X115.4909 Y5.4585 
G01 X115.6380 Y5.7337 
G01 X115.7574 Y6.0219 
G01 X115.8480 Y6.3205 
G01 X115.9088 Y6.6265 
G01 X115.9394 Y6.9370 
G00 Z2.4000 
G00 X127.4436 Y12.4436 
G01 Z-0.1000 F100.00 
G01 X127.4436 Y2.2305 F100.00 
G01 X126.7695 Y1.5564 
G01 X118.5564 Y1.5564 
G01 X118.5564 Y12.4436 
G01 X127.4436 Y12.4436 
G00 Z2.4000 
G00 X126.0394 Y6.9370 
G01 Z-0.1000 F100.00 
G01 X126.0394 Y7.2490 F100.00 
G01 X126.0088 Y7.5595 
G01 X125.9480 Y7.8655 
G01 X125.8574 Y8.1640 
G01 X125.7380 Y8.4523 
G01 X125.5909 Y8.7275 
G01 X125.4176 Y8.9869 
G01 X125.2197 Y9.2280 
G01 X124.9990 Y9.4487 
G01 X124.7579 Y9.6466 
G01 X124.4985 Y9.8199 
G01 X124.2233 Y9.9670 
G01 X123.9351 Y10.0864 
G01 X123.6365 Y10.1769 
G01 X123.3305 Y10.2378 
G01 X123.0200 Y10.2684 
G01 X122.7080 Y10.2684 
G01 X122.3975 Y10.2378 
G01 X122.0915 Y10.1769 
G01 X121.7929 Y10.0864 
G01 X121.5047 Y9.9670 
G01 X121.2295 Y9.8199 
G01 X120.9701 Y9.6466 
G01 X120.7290 Y9.4487 
G01 X120.5083 Y9.2280 
G01 X120.3104 Y8.9869 
G01 X120.1371 Y8.7275 
G01 X119.9900 Y8.4523 
G01 X119.8706 Y8.1640 
G01 X119.7800 Y7.8655 
G01 X119.7192 Y7.5595 
G01 X119.6886 Y7.2490 
G01 X119.6886 Y6.9370 
G01 X119.7192 Y6.6265 
G01 X119.7800 Y6.3205 
G01 X119.8706 Y6.0219 
G01 X119.9900 Y5.7337 
G01 X120.1371 Y5.4585 
G01 X120.3104 Y5.1991 
G01 X120.5083 Y4.9580 
G01 X120.7290 Y4.7373 
G01 X120.9701 Y4.5394 
G01 X121.2295 Y4.3661 
G01 X121.5047 Y4.2190 
G01 X121.7929 Y4.0996 
G01 X122.0915 Y4.0090 
G01 X122.3975 Y3.9482 
G01 X122.7080 Y3.9176 
G01 X123.0200 Y3.9176 
G01 X123.3305 Y3.9482 
G01 X123.6365 Y4.0090 
G01 X123.9351 Y4.0996 
G01 X124.2233 Y4.2190 
G01 X124.4985 Y4.3661 
G01 X124.7579 Y4.5394 
G01 X124.9990 Y4.7373 
G01 X125.2197 Y4.9580 
G01 X125.4176 Y5.1991 
G01 X125.5909 Y5.4585 
G01 X125.7380 Y5.7337 
G01 X125.8574 Y6.0219 
G01 X125.9480 Y6.3205 
G01 X126.0088 Y6.6265 
G01 X126.0394 Y6.9370 
G00 Z2.4000 
G00 X107.6584 Y0.5548 
G01 Z-0.1000 F100.00 
G01 X107.7852 Y0.4815 F100.00 
G01 X107.9267 Y0.4436 
G01 X127.0733 Y0.4436 
G01 X127.2148 Y0.4815 
G01 X127.3416 Y0.5548 
G01 X127.4452 Y0.6584 
G01 X128.4452 Y1.6584 
G01 X128.5185 Y1.7852 
G01 X128.5564 Y1.9267 
G01 X128.5564 Y13.0732 
G01 X128.5185 Y13.2148 
G01 X128.4452 Y13.3416 
G01 X128.3416 Y13.4452 
G01 X128.2148 Y13.5185 
G01 X128.0733 Y13.5564 
G01 X106.9267 Y13.5564 
G01 X106.7852 Y13.5185 
G01 X106.6584 Y13.4452 
G01 X106.5548 Y13.3416 
G01 X106.4815 Y13.2148 
G01 X106.4436 Y13.0732 
G01 X106.4436 Y1.9267 
G01 X106.4815 Y1.7852 
G01 X106.5548 Y1.6584 
G01 X106.6584 Y1.5548 
G01 X107.6584 Y0.5548 
G00 Z2.4000 
G00 X122.4817 Y48.7196 
G01 Z-0.1000 F100.00 
G01 X122.6283 Y48.7196 F100.00 
G01 X122.7698 Y48.7575 
G01 X122.8966 Y48.8308 
G01 X123.7856 Y49.7198 
G01 X123.8892 Y49.8234 
G01 X123.9625 Y49.9502 
G01 X124.0004 Y50.0917 
G01 X124.0004 Y50.6406 
G01 X124.4789 Y50.6406 
G01 X124.5434 Y50.6673 
G01 X124.5927 Y50.7166 
G01 X124.6194 Y50.7811 
G01 X124.6194 Y52.8509 
G01 X124.5927 Y52.9154 
G01 X124.5434 Y52.9647 
G01 X124.4789 Y52.9914 
G01 X122.4091 Y52.9914 
G01 X122.3446 Y52.9647 
G01 X122.2953 Y52.9154 
G01 X122.2686 Y52.8509 
G01 X122.2686 Y50.7811 
G01 X122.2953 Y50.7166 
G01 X122.3446 Y50.6673 
G01 X122.4091 Y50.6406 
G01 X122.8876 Y50.6406 
G01 X122.8876 Y50.3955 
G01 X122.3245 Y49.8324 
G01 X82.5971 Y49.8324 
G01 X77.0104 Y55.4191 
G01 X77.0104 Y57.6091 
G01 X76.9725 Y57.7506 
G01 X76.8992 Y57.8774 
G01 X73.7290 Y61.0476 
G01 X73.6254 Y61.1512 
G01 X73.4986 Y61.2245 
G01 X73.3571 Y61.2624 
G01 X57.8808 Y61.2624 
G01 X57.7392 Y61.2245 
G01 X57.6124 Y61.1512 
G01 X49.4757 Y53.0146 
G01 X31.9208 Y53.0146 
G01 X27.5195 Y57.4159 
G01 X27.1898 Y57.7456 
G01 X27.0862 Y57.8492 
G01 X26.9593 Y57.9225 
G01 X26.8178 Y57.9604 
G01 X14.3307 Y57.9604 
G01 X14.1892 Y57.9225 
G01 X14.0624 Y57.8492 
G01 X13.9588 Y57.7456 
G01 X12.2695 Y56.0564 
G01 X9.3326 Y56.0564 
G01 X9.3089 Y56.1029 
G01 X9.2025 Y56.2494 
G01 X9.0744 Y56.3775 
G01 X8.9279 Y56.4839 
G01 X8.7666 Y56.5661 
G01 X8.5944 Y56.6221 
G01 X8.4155 Y56.6504 
G01 X6.2845 Y56.6504 
G01 X6.1056 Y56.6221 
G01 X5.9334 Y56.5661 
G01 X5.7721 Y56.4839 
G01 X5.6256 Y56.3775 
G01 X5.4975 Y56.2494 
G01 X5.3911 Y56.1029 
G01 X5.3089 Y55.9416 
G01 X5.2529 Y55.7694 
G01 X5.2246 Y55.5905 
G01 X5.2246 Y55.4095 
G01 X5.2529 Y55.2306 
G01 X5.3089 Y55.0584 
G01 X5.3911 Y54.8971 
G01 X5.4975 Y54.7506 
G01 X5.6256 Y54.6225 
G01 X5.7721 Y54.5161 
G01 X5.9334 Y54.4339 
G01 X6.1056 Y54.3779 
G01 X6.2845 Y54.3496 
G01 X8.4155 Y54.3496 
G01 X8.5944 Y54.3779 
G01 X8.7666 Y54.4339 
G01 X8.9279 Y54.5161 
G01 X9.0744 Y54.6225 
G01 X9.2025 Y54.7506 
G01 X9.3089 Y54.8971 
G01 X9.3326 Y54.9436 
G01 X12.5732 Y54.9436 
G01 X12.7148 Y54.9815 
G01 X12.8416 Y55.0548 
G01 X14.6345 Y56.8476 
G01 X26.5141 Y56.8476 
G01 X26.7326 Y56.6290 
G01 X31.2452 Y52.1165 
G01 X31.3487 Y52.0129 
G01 X31.4756 Y51.9397 
G01 X31.6171 Y51.9018 
G01 X49.7794 Y51.9018 
G01 X49.9209 Y51.9397 
G01 X50.0478 Y52.0129 
G01 X50.1514 Y52.1165 
G01 X58.1845 Y60.1496 
G01 X73.0533 Y60.1496 
G01 X75.8976 Y57.3053 
G01 X75.8976 Y55.1154 
G01 X75.9355 Y54.9739 
G01 X76.0088 Y54.8470 
G01 X76.1124 Y54.7434 
G01 X82.0250 Y48.8308 
G01 X82.1519 Y48.7575 
G01 X82.2934 Y48.7196 
G01 X82.4399 Y48.7196 
G01 X122.4817 Y48.7196 
G00 Z2.4000 
G00 X28.6785 Y9.0564 
G01 Z-0.1000 F100.00 
G01 X25.4484 Y12.2865 F100.00 
G01 X25.4484 Y15.5943 
G01 X25.4105 Y15.7358 
G01 X25.3372 Y15.8627 
G01 X21.7654 Y19.4345 
G01 X21.7654 Y19.6313 
G01 X21.7275 Y19.7728 
G01 X21.6542 Y19.8996 
G01 X20.7652 Y20.7886 
G01 X20.6616 Y20.8922 
G01 X20.5348 Y20.9655 
G01 X20.3933 Y21.0034 
G01 X19.9611 Y21.0034 
G01 X19.8619 Y21.1404 
G01 X19.7434 Y21.2589 
G01 X19.6079 Y21.3574 
G01 X19.4586 Y21.4334 
G01 X19.2992 Y21.4852 
G01 X19.1338 Y21.5114 
G01 X18.9662 Y21.5114 
G01 X18.8008 Y21.4852 
G01 X18.6414 Y21.4334 
G01 X18.4921 Y21.3574 
G01 X18.3566 Y21.2589 
G01 X18.2381 Y21.1404 
G01 X18.1396 Y21.0049 
G01 X18.0636 Y20.8556 
G01 X18.0118 Y20.6962 
G01 X17.9856 Y20.5308 
G01 X17.9856 Y20.3632 
G01 X18.0118 Y20.1977 
G01 X18.0636 Y20.0384 
G01 X18.1396 Y19.8891 
G01 X18.2381 Y19.7536 
G01 X18.3566 Y19.6351 
G01 X18.4921 Y19.5366 
G01 X18.6414 Y19.4606 
G01 X18.8008 Y19.4088 
G01 X18.9662 Y19.3826 
G01 X19.1338 Y19.3826 
G01 X19.2992 Y19.4088 
G01 X19.4586 Y19.4606 
G01 X19.6079 Y19.5366 
G01 X19.7434 Y19.6351 
G01 X19.8619 Y19.7536 
G01 X19.9604 Y19.8891 
G01 X20.0895 Y19.8906 
G01 X20.6526 Y19.3275 
G01 X20.6526 Y19.1308 
G01 X20.6905 Y18.9893 
G01 X20.7638 Y18.8624 
G01 X20.8674 Y18.7589 
G01 X24.3356 Y15.2906 
G01 X24.3356 Y11.9827 
G01 X24.3735 Y11.8412 
G01 X24.4468 Y11.7144 
G01 X24.5504 Y11.6108 
G01 X28.1064 Y8.0548 
G01 X28.2332 Y7.9815 
G01 X28.3747 Y7.9436 
G01 X56.9422 Y7.9436 
G01 X57.0837 Y7.9815 
G01 X57.2106 Y8.0548 
G01 X60.9246 Y11.7688 
G01 X61.0282 Y11.8724 
G01 X61.1015 Y11.9993 
G01 X61.1394 Y12.1408 
G01 X61.1394 Y12.7419 
G01 X61.1675 Y12.7562 
G01 X61.3095 Y12.8594 
G01 X61.4336 Y12.9835 
G01 X61.5368 Y13.1255 
G01 X61.6165 Y13.2819 
G01 X61.6707 Y13.4489 
G01 X61.6982 Y13.6222 
G01 X61.6982 Y13.7978 
G01 X61.6707 Y13.9711 
G01 X61.6165 Y14.1381 
G01 X61.5368 Y14.2945 
G01 X61.4336 Y14.4365 
G01 X61.3095 Y14.5606 
G01 X61.1675 Y14.6638 
G01 X61.0111 Y14.7435 
G01 X60.8441 Y14.7977 
G01 X60.6708 Y14.8252 
G01 X60.4952 Y14.8252 
G01 X60.3219 Y14.7977 
G01 X60.1549 Y14.7435 
G01 X59.9985 Y14.6638 
G01 X59.8565 Y14.5606 
G01 X59.7324 Y14.4365 
G01 X59.6292 Y14.2945 
G01 X59.5495 Y14.1381 
G01 X59.4953 Y13.9711 
G01 X59.4678 Y13.7978 
G01 X59.4678 Y13.6222 
G01 X59.4953 Y13.4489 
G01 X59.5495 Y13.2819 
G01 X59.6292 Y13.1255 
G01 X59.7324 Y12.9835 
G01 X59.8565 Y12.8594 
G01 X59.9985 Y12.7562 
G01 X60.0266 Y12.7419 
G01 X60.0266 Y12.4445 
G01 X56.6385 Y9.0564 
G01 X28.6785 Y9.0564 
G00 Z2.4000 
G00 X63.4646 Y10.7348 
G01 Z-0.1000 F100.00 
G01 X63.5682 Y10.8384 F100.00 
G01 X63.6415 Y10.9652 
G01 X63.6794 Y11.1067 
G01 X63.6794 Y12.7419 
G01 X63.7075 Y12.7562 
G01 X63.8495 Y12.8594 
G01 X63.9736 Y12.9835 
G01 X64.0768 Y13.1255 
G01 X64.1565 Y13.2819 
G01 X64.2107 Y13.4489 
G01 X64.2382 Y13.6222 
G01 X64.2382 Y13.7978 
G01 X64.2107 Y13.9711 
G01 X64.1565 Y14.1381 
G01 X64.0768 Y14.2945 
G01 X63.9736 Y14.4365 
G01 X63.8495 Y14.5606 
G01 X63.7075 Y14.6638 
G01 X63.5511 Y14.7435 
G01 X63.3841 Y14.7977 
G01 X63.2108 Y14.8252 
G01 X63.0352 Y14.8252 
G01 X62.8619 Y14.7977 
G01 X62.6949 Y14.7435 
G01 X62.5385 Y14.6638 
G01 X62.3965 Y14.5606 
G01 X62.2724 Y14.4365 
G01 X62.1692 Y14.2945 
G01 X62.0895 Y14.1381 
G01 X62.0353 Y13.9711 
G01 X62.0078 Y13.7978 
G01 X62.0078 Y13.6222 
G01 X62.0353 Y13.4489 
G01 X62.0895 Y13.2819 
G01 X62.1692 Y13.1255 
G01 X62.2724 Y12.9835 
G01 X62.3965 Y12.8594 
G01 X62.5385 Y12.7562 
G01 X62.5666 Y12.7419 
G01 X62.5666 Y11.4105 
G01 X58.6885 Y7.5324 
G01 X27.2815 Y7.5324 
G01 X23.7974 Y11.0165 
G01 X23.7974 Y14.4243 
G01 X23.7595 Y14.5658 
G01 X23.6862 Y14.6926 
G01 X20.1302 Y18.2486 
G01 X20.0266 Y18.3522 
G01 X20.0140 Y18.3595 
G01 X19.9604 Y18.4649 
G01 X19.8619 Y18.6004 
G01 X19.7434 Y18.7189 
G01 X19.6079 Y18.8174 
G01 X19.4586 Y18.8934 
G01 X19.2992 Y18.9452 
G01 X19.1338 Y18.9714 
G01 X18.9662 Y18.9714 
G01 X18.8008 Y18.9452 
G01 X18.6414 Y18.8934 
G01 X18.4921 Y18.8174 
G01 X18.3566 Y18.7189 
G01 X18.2381 Y18.6004 
G01 X18.1396 Y18.4649 
G01 X18.0636 Y18.3156 
G01 X18.0118 Y18.1562 
G01 X17.9856 Y17.9908 
G01 X17.9856 Y17.8232 
G01 X18.0118 Y17.6578 
G01 X18.0636 Y17.4984 
G01 X18.1396 Y17.3491 
G01 X18.2381 Y17.2136 
G01 X18.3566 Y17.0951 
G01 X18.4921 Y16.9966 
G01 X18.6414 Y16.9206 
G01 X18.8008 Y16.8688 
G01 X18.9662 Y16.8426 
G01 X19.1338 Y16.8426 
G01 X19.2992 Y16.8688 
G01 X19.4586 Y16.9206 
G01 X19.6079 Y16.9966 
G01 X19.7241 Y17.0811 
G01 X22.6846 Y14.1205 
G01 X22.6846 Y10.7127 
G01 X22.7225 Y10.5712 
G01 X22.7958 Y10.4444 
G01 X22.8994 Y10.3408 
G01 X26.7094 Y6.5308 
G01 X26.8362 Y6.4575 
G01 X26.9777 Y6.4196 
G01 X58.9923 Y6.4196 
G01 X59.1338 Y6.4575 
G01 X59.2606 Y6.5308 
G01 X59.3642 Y6.6344 
G01 X63.4646 Y10.7348 
G00 Z2.4000 
G00 X73.8905 Y9.5734 
G01 Z-0.1000 F100.00 
G01 X71.2994 Y12.1645 F100.00 
G01 X71.2994 Y12.7419 
G01 X71.3275 Y12.7562 
G01 X71.4695 Y12.8594 
G01 X71.5936 Y12.9835 
G01 X71.6968 Y13.1255 
G01 X71.7765 Y13.2819 
G01 X71.8307 Y13.4489 
G01 X71.8582 Y13.6222 
G01 X71.8582 Y13.7978 
G01 X71.8307 Y13.9711 
G01 X71.7765 Y14.1381 
G01 X71.6968 Y14.2945 
G01 X71.5936 Y14.4365 
G01 X71.4695 Y14.5606 
G01 X71.3275 Y14.6638 
G01 X71.1711 Y14.7435 
G01 X71.0041 Y14.7977 
G01 X70.8308 Y14.8252 
G01 X70.6552 Y14.8252 
G01 X70.4819 Y14.7977 
G01 X70.3149 Y14.7435 
G01 X70.1585 Y14.6638 
G01 X70.0165 Y14.5606 
G01 X69.8924 Y14.4365 
G01 X69.7892 Y14.2945 
G01 X69.7095 Y14.1381 
G01 X69.6553 Y13.9711 
G01 X69.6278 Y13.7978 
G01 X69.6278 Y13.6222 
G01 X69.6553 Y13.4489 
G01 X69.7095 Y13.2819 
G01 X69.7892 Y13.1255 
G01 X69.8924 Y12.9835 
G01 X70.0165 Y12.8594 
G01 X70.1585 Y12.7562 
G01 X70.1866 Y12.7419 
G01 X70.1866 Y11.8607 
G01 X70.2245 Y11.7192 
G01 X70.2978 Y11.5924 
G01 X73.3184 Y8.5718 
G01 X73.4452 Y8.4985 
G01 X73.5867 Y8.4606 
G01 X92.7833 Y8.4606 
G01 X92.9248 Y8.4985 
G01 X93.0516 Y8.5718 
G01 X93.1552 Y8.6754 
G01 X107.7835 Y23.3036 
G01 X115.5345 Y23.3036 
G01 X116.8441 Y21.9941 
G01 X116.8356 Y21.9515 
G01 X116.8356 Y21.7685 
G01 X116.8713 Y21.5889 
G01 X116.9414 Y21.4198 
G01 X117.0431 Y21.2675 
G01 X117.1725 Y21.1381 
G01 X117.2086 Y21.1140 
G01 X117.2086 Y20.3287 
G01 X117.2045 Y20.2777 
G01 X117.2086 Y20.2557 
G01 X117.2086 Y20.2333 
G01 X117.2218 Y20.1839 
G01 X117.2311 Y20.1336 
G01 X117.2407 Y20.1134 
G01 X117.2465 Y20.0918 
G01 X117.2721 Y20.0475 
G01 X117.2941 Y20.0013 
G01 X117.3086 Y19.9843 
G01 X117.3198 Y19.9650 
G01 X117.3559 Y19.9288 
G01 X117.3891 Y19.8899 
G01 X117.4076 Y19.8772 
G01 X117.4234 Y19.8614 
G01 X117.4677 Y19.8358 
G01 X117.5098 Y19.8068 
G01 X117.5309 Y19.7993 
G01 X117.5502 Y19.7881 
G01 X117.5978 Y19.7754 
G01 X120.0384 Y17.3348 
G01 X120.1652 Y17.2615 
G01 X120.3067 Y17.2236 
G01 X124.5333 Y17.2236 
G01 X124.6748 Y17.2615 
G01 X124.8016 Y17.3348 
G01 X124.9052 Y17.4384 
G01 X127.6992 Y20.2324 
G01 X127.7725 Y20.3592 
G01 X127.8104 Y20.5007 
G01 X127.8104 Y41.3561 
G01 X127.7725 Y41.4976 
G01 X127.6992 Y41.6245 
G01 X127.5956 Y41.7281 
G01 X126.9446 Y42.3791 
G01 X121.3571 Y47.9666 
G01 X121.2535 Y48.0702 
G01 X121.1266 Y48.1435 
G01 X120.9851 Y48.1814 
G01 X81.6375 Y48.1814 
G01 X75.2324 Y54.5865 
G01 X75.2324 Y57.1494 
G01 X75.1945 Y57.2909 
G01 X75.1212 Y57.4178 
G01 X73.0154 Y59.5236 
G01 X72.9118 Y59.6272 
G01 X72.7849 Y59.7005 
G01 X72.6434 Y59.7384 
G01 X58.5864 Y59.7384 
G01 X58.4449 Y59.7005 
G01 X58.3180 Y59.6272 
G01 X50.0544 Y51.3636 
G01 X31.3422 Y51.3636 
G01 X26.6111 Y56.0946 
G01 X26.5075 Y56.1982 
G01 X26.3806 Y56.2715 
G01 X26.2391 Y56.3094 
G01 X16.1669 Y56.3094 
G01 X16.0254 Y56.2715 
G01 X15.8985 Y56.1982 
G01 X10.9368 Y51.2366 
G01 X2.6009 Y51.2366 
G01 X2.4594 Y51.1986 
G01 X2.3325 Y51.1254 
G01 X1.0788 Y49.8716 
G01 X1.0055 Y49.7448 
G01 X0.9676 Y49.6033 
G01 X0.9676 Y39.2967 
G01 X1.0055 Y39.1552 
G01 X1.0788 Y39.0284 
G01 X2.3254 Y37.7818 
G01 X2.4522 Y37.7085 
G01 X2.5937 Y37.6706 
G01 X2.8989 Y37.6706 
G01 X2.9981 Y37.5336 
G01 X3.1166 Y37.4151 
G01 X3.2521 Y37.3166 
G01 X3.4014 Y37.2406 
G01 X3.5608 Y37.1888 
G01 X3.7262 Y37.1626 
G01 X3.8938 Y37.1626 
G01 X4.0592 Y37.1888 
G01 X4.2186 Y37.2406 
G01 X4.3679 Y37.3166 
G01 X4.5034 Y37.4151 
G01 X4.6219 Y37.5336 
G01 X4.7204 Y37.6691 
G01 X13.4083 Y37.6706 
G01 X13.5498 Y37.7085 
G01 X13.6766 Y37.7818 
G01 X16.7012 Y40.8064 
G01 X16.7745 Y40.9332 
G01 X16.8124 Y41.0747 
G01 X16.8124 Y48.5954 
G01 X18.3336 Y50.1166 
G01 X20.2165 Y50.1166 
G01 X21.7956 Y48.5375 
G01 X21.7956 Y40.6374 
G01 X21.8335 Y40.4959 
G01 X21.9068 Y40.3690 
G01 X31.3206 Y30.9552 
G01 X31.3206 Y25.8347 
G01 X31.3585 Y25.6932 
G01 X31.4318 Y25.5664 
G01 X31.5354 Y25.4628 
G01 X37.1666 Y19.8315 
G01 X37.1666 Y14.6781 
G01 X37.1385 Y14.6638 
G01 X36.9965 Y14.5606 
G01 X36.8724 Y14.4365 
G01 X36.7692 Y14.2945 
G01 X36.6895 Y14.1381 
G01 X36.6353 Y13.9711 
G01 X36.6078 Y13.7978 
G01 X36.6078 Y13.6222 
G01 X36.6353 Y13.4489 
G01 X36.6895 Y13.2819 
G01 X36.7692 Y13.1255 
G01 X36.8724 Y12.9835 
G01 X36.9965 Y12.8594 
G01 X37.1385 Y12.7562 
G01 X37.2949 Y12.6765 
G01 X37.4619 Y12.6223 
G01 X37.6352 Y12.5948 
G01 X37.8108 Y12.5948 
G01 X37.9841 Y12.6223 
G01 X38.1511 Y12.6765 
G01 X38.3075 Y12.7562 
G01 X38.4495 Y12.8594 
G01 X38.5736 Y12.9835 
G01 X38.6768 Y13.1255 
G01 X38.7565 Y13.2819 
G01 X38.8107 Y13.4489 
G01 X38.8382 Y13.6222 
G01 X38.8382 Y13.7978 
G01 X38.8107 Y13.9711 
G01 X38.7565 Y14.1381 
G01 X38.6768 Y14.2945 
G01 X38.5736 Y14.4365 
G01 X38.4495 Y14.5606 
G01 X38.3075 Y14.6638 
G01 X38.2794 Y14.6781 
G01 X38.2794 Y20.1352 
G01 X38.2415 Y20.2768 
G01 X38.1682 Y20.4036 
G01 X32.4334 Y26.1385 
G01 X32.4334 Y31.2589 
G01 X32.3955 Y31.4004 
G01 X32.3222 Y31.5273 
G01 X22.9084 Y40.9411 
G01 X22.9084 Y48.8413 
G01 X22.8705 Y48.9828 
G01 X22.7972 Y49.1096 
G01 X20.7886 Y51.1182 
G01 X20.6618 Y51.1915 
G01 X20.5203 Y51.2294 
G01 X18.0299 Y51.2294 
G01 X17.8883 Y51.1915 
G01 X17.7615 Y51.1182 
G01 X15.8108 Y49.1675 
G01 X15.7375 Y49.0407 
G01 X15.6996 Y48.8991 
G01 X15.6996 Y41.3785 
G01 X13.1045 Y38.7834 
G01 X4.7211 Y38.7834 
G01 X4.6219 Y38.9204 
G01 X4.5034 Y39.0389 
G01 X4.3679 Y39.1374 
G01 X4.2186 Y39.2134 
G01 X4.0592 Y39.2652 
G01 X3.8938 Y39.2914 
G01 X3.7262 Y39.2914 
G01 X3.5608 Y39.2652 
G01 X3.4014 Y39.2134 
G01 X3.2521 Y39.1374 
G01 X3.1166 Y39.0389 
G01 X2.9981 Y38.9204 
G01 X2.8996 Y38.7849 
G01 X2.0804 Y39.6005 
G01 X2.0804 Y49.2995 
G01 X2.9046 Y50.1238 
G01 X11.2405 Y50.1238 
G01 X11.3820 Y50.1617 
G01 X11.5089 Y50.2349 
G01 X11.6125 Y50.3385 
G01 X16.4706 Y55.1966 
G01 X25.9354 Y55.1966 
G01 X30.7701 Y50.3619 
G01 X30.8970 Y50.2887 
G01 X31.0385 Y50.2508 
G01 X50.3581 Y50.2508 
G01 X50.4996 Y50.2887 
G01 X50.6265 Y50.3619 
G01 X50.7301 Y50.4655 
G01 X58.8901 Y58.6256 
G01 X72.3397 Y58.6256 
G01 X74.1196 Y56.8457 
G01 X74.1196 Y54.2827 
G01 X74.1575 Y54.1412 
G01 X74.2308 Y54.0144 
G01 X74.3344 Y53.9108 
G01 X80.9618 Y47.2834 
G01 X81.0654 Y47.1798 
G01 X81.1922 Y47.1065 
G01 X81.3337 Y47.0686 
G01 X120.6814 Y47.0686 
G01 X126.1578 Y41.5922 
G01 X126.6976 Y41.0524 
G01 X126.6976 Y20.8045 
G01 X124.2295 Y18.3364 
G01 X120.6105 Y18.3364 
G01 X118.3214 Y20.6255 
G01 X118.3214 Y21.1140 
G01 X118.3575 Y21.1381 
G01 X118.4869 Y21.2675 
G01 X118.5886 Y21.4198 
G01 X118.6587 Y21.5889 
G01 X118.6944 Y21.7685 
G01 X118.6944 Y21.9515 
G01 X118.6587 Y22.1311 
G01 X118.5886 Y22.3002 
G01 X118.4869 Y22.4525 
G01 X118.3575 Y22.5819 
G01 X118.2052 Y22.6836 
G01 X118.0361 Y22.7537 
G01 X117.8565 Y22.7894 
G01 X117.6735 Y22.7894 
G01 X117.6309 Y22.7809 
G01 X116.1066 Y24.3052 
G01 X115.9798 Y24.3785 
G01 X115.8383 Y24.4164 
G01 X107.4797 Y24.4164 
G01 X107.3382 Y24.3785 
G01 X107.2114 Y24.3052 
G01 X107.1078 Y24.2016 
G01 X92.4795 Y9.5734 
G01 X73.8905 Y9.5734 
G00 Z2.4000 
G00 X93.1305 Y12.7644 
G01 Z-0.1000 F100.00 
G01 X75.0155 Y12.7644 F100.00 
G01 X74.3610 Y13.4189 
G01 X74.3707 Y13.4489 
G01 X74.3982 Y13.6222 
G01 X74.3982 Y13.7978 
G01 X74.3707 Y13.9711 
G01 X74.3165 Y14.1381 
G01 X74.2368 Y14.2945 
G01 X74.1336 Y14.4365 
G01 X74.0095 Y14.5606 
G01 X73.8675 Y14.6638 
G01 X73.8394 Y14.6781 
G01 X73.8394 Y15.4363 
G01 X73.8015 Y15.5778 
G01 X73.7282 Y15.7046 
G01 X73.6246 Y15.8082 
G01 X72.3506 Y17.0822 
G01 X72.2238 Y17.1555 
G01 X72.0823 Y17.1934 
G01 X46.6467 Y17.1934 
G01 X46.5052 Y17.1555 
G01 X46.3784 Y17.0822 
G01 X44.8978 Y15.6016 
G01 X44.8245 Y15.4748 
G01 X44.7866 Y15.3333 
G01 X44.7866 Y14.6781 
G01 X44.7585 Y14.6638 
G01 X44.6165 Y14.5606 
G01 X44.4924 Y14.4365 
G01 X44.3892 Y14.2945 
G01 X44.3095 Y14.1381 
G01 X44.2553 Y13.9711 
G01 X44.2278 Y13.7978 
G01 X44.2278 Y13.6222 
G01 X44.2553 Y13.4489 
G01 X44.3095 Y13.2819 
G01 X44.3892 Y13.1255 
G01 X44.4924 Y12.9835 
G01 X44.6165 Y12.8594 
G01 X44.7585 Y12.7562 
G01 X44.9149 Y12.6765 
G01 X45.0819 Y12.6223 
G01 X45.2552 Y12.5948 
G01 X45.4308 Y12.5948 
G01 X45.6041 Y12.6223 
G01 X45.7711 Y12.6765 
G01 X45.9275 Y12.7562 
G01 X46.0695 Y12.8594 
G01 X46.1936 Y12.9835 
G01 X46.2968 Y13.1255 
G01 X46.3765 Y13.2819 
G01 X46.4307 Y13.4489 
G01 X46.4582 Y13.6222 
G01 X46.4582 Y13.7978 
G01 X46.4307 Y13.9711 
G01 X46.3765 Y14.1381 
G01 X46.2968 Y14.2945 
G01 X46.1936 Y14.4365 
G01 X46.0695 Y14.5606 
G01 X45.9275 Y14.6638 
G01 X45.8994 Y14.6781 
G01 X45.8994 Y15.0295 
G01 X46.9505 Y16.0806 
G01 X71.7785 Y16.0806 
G01 X72.7266 Y15.1325 
G01 X72.7266 Y14.6781 
G01 X72.6985 Y14.6638 
G01 X72.5565 Y14.5606 
G01 X72.4324 Y14.4365 
G01 X72.3292 Y14.2945 
G01 X72.2495 Y14.1381 
G01 X72.1953 Y13.9711 
G01 X72.1678 Y13.7978 
G01 X72.1678 Y13.6222 
G01 X72.1953 Y13.4489 
G01 X72.2495 Y13.2819 
G01 X72.3292 Y13.1255 
G01 X72.4324 Y12.9835 
G01 X72.5565 Y12.8594 
G01 X72.6985 Y12.7562 
G01 X72.8549 Y12.6765 
G01 X73.0219 Y12.6223 
G01 X73.1952 Y12.5948 
G01 X73.3708 Y12.5948 
G01 X73.5441 Y12.6223 
G01 X73.5741 Y12.6320 
G01 X74.3398 Y11.8664 
G01 X74.4434 Y11.7628 
G01 X74.5702 Y11.6895 
G01 X74.7117 Y11.6516 
G01 X93.4343 Y11.6516 
G01 X93.5758 Y11.6895 
G01 X93.7026 Y11.7628 
G01 X93.8062 Y11.8664 
G01 X103.0846 Y21.1448 
G01 X103.1882 Y21.2484 
G01 X103.2615 Y21.3752 
G01 X103.2994 Y21.5167 
G01 X103.2994 Y35.2576 
G01 X107.4655 Y35.2576 
G01 X109.1102 Y33.6129 
G01 X109.0895 Y33.5492 
G01 X109.0606 Y33.3665 
G01 X109.0606 Y33.1815 
G01 X109.0895 Y32.9988 
G01 X109.1467 Y32.8228 
G01 X109.2307 Y32.6580 
G01 X109.3395 Y32.5083 
G01 X109.4703 Y32.3775 
G01 X109.6200 Y32.2687 
G01 X109.6796 Y32.2383 
G01 X109.6796 Y31.6907 
G01 X109.7175 Y31.5492 
G01 X109.7908 Y31.4224 
G01 X109.8944 Y31.3188 
G01 X111.6584 Y29.5548 
G01 X111.7852 Y29.4815 
G01 X111.9267 Y29.4436 
G01 X115.7695 Y29.4436 
G01 X118.4436 Y26.7695 
G01 X118.4436 Y23.0777 
G01 X118.4815 Y22.9362 
G01 X118.5548 Y22.8094 
G01 X118.6584 Y22.7058 
G01 X119.3786 Y21.9855 
G01 X119.3786 Y21.0541 
G01 X119.4053 Y20.9896 
G01 X119.4546 Y20.9403 
G01 X119.5191 Y20.9136 
G01 X121.0969 Y20.9136 
G01 X121.1614 Y20.9403 
G01 X121.2107 Y20.9896 
G01 X121.2374 Y21.0541 
G01 X121.2374 Y22.6319 
G01 X121.2107 Y22.6964 
G01 X121.1614 Y22.7457 
G01 X121.0969 Y22.7724 
G01 X120.1655 Y22.7724 
G01 X119.5564 Y23.3815 
G01 X119.5564 Y27.0733 
G01 X119.5185 Y27.2148 
G01 X119.4452 Y27.3416 
G01 X116.4452 Y30.3416 
G01 X116.3416 Y30.4452 
G01 X116.2148 Y30.5185 
G01 X116.0733 Y30.5564 
G01 X112.2305 Y30.5564 
G01 X110.7924 Y31.9945 
G01 X110.7924 Y32.2383 
G01 X110.8520 Y32.2687 
G01 X111.0017 Y32.3775 
G01 X111.1325 Y32.5083 
G01 X111.2413 Y32.6580 
G01 X111.3253 Y32.8228 
G01 X111.3825 Y32.9988 
G01 X111.4114 Y33.1815 
G01 X111.4114 Y33.3665 
G01 X111.3825 Y33.5492 
G01 X111.3253 Y33.7252 
G01 X111.2413 Y33.8900 
G01 X111.1325 Y34.0397 
G01 X111.0017 Y34.1705 
G01 X110.8520 Y34.2793 
G01 X110.6872 Y34.3633 
G01 X110.5112 Y34.4205 
G01 X110.3285 Y34.4494 
G01 X110.1435 Y34.4494 
G01 X109.9608 Y34.4205 
G01 X109.8971 Y34.3998 
G01 X108.0376 Y36.2592 
G01 X107.9108 Y36.3325 
G01 X107.7692 Y36.3704 
G01 X102.8465 Y36.3704 
G01 X99.5052 Y39.7116 
G01 X99.4016 Y39.8152 
G01 X99.2748 Y39.8885 
G01 X99.1333 Y39.9264 
G01 X84.7418 Y39.9264 
G01 X73.5500 Y51.1182 
G01 X73.4231 Y51.1915 
G01 X73.2816 Y51.2294 
G01 X71.5083 Y51.2294 
G01 X71.2954 Y51.4423 
G01 X71.2954 Y54.9837 
G01 X71.6764 Y55.3647 
G01 X71.6764 Y56.1413 
G01 X71.1273 Y56.6904 
G01 X70.3507 Y56.6904 
G01 X69.9697 Y56.3094 
G01 X59.9977 Y56.3094 
G01 X59.8562 Y56.2715 
G01 X59.7294 Y56.1982 
G01 X51.5855 Y48.0544 
G01 X30.1920 Y48.0544 
G01 X25.5808 Y52.6656 
G01 X25.4772 Y52.7692 
G01 X25.3503 Y52.8425 
G01 X25.2088 Y52.8804 
G01 X17.4512 Y52.8804 
G01 X17.3097 Y52.8425 
G01 X17.1828 Y52.7692 
G01 X17.0792 Y52.6656 
G01 X14.2634 Y49.8498 
G01 X14.1598 Y49.7462 
G01 X14.0865 Y49.6193 
G01 X14.0486 Y49.4778 
G01 X14.0486 Y44.8075 
G01 X13.1045 Y43.8634 
G01 X4.7211 Y43.8634 
G01 X4.6219 Y44.0004 
G01 X4.5034 Y44.1189 
G01 X4.3679 Y44.2174 
G01 X4.2186 Y44.2934 
G01 X4.0592 Y44.3452 
G01 X3.8938 Y44.3714 
G01 X3.7262 Y44.3714 
G01 X3.5608 Y44.3452 
G01 X3.4014 Y44.2934 
G01 X3.2521 Y44.2174 
G01 X3.1166 Y44.1189 
G01 X2.9981 Y44.0004 
G01 X2.8996 Y43.8649 
G01 X2.8236 Y43.7156 
G01 X2.7718 Y43.5562 
G01 X2.7456 Y43.3908 
G01 X2.7456 Y43.2232 
G01 X2.7718 Y43.0577 
G01 X2.8236 Y42.8984 
G01 X2.8996 Y42.7491 
G01 X2.9981 Y42.6136 
G01 X3.1166 Y42.4951 
G01 X3.2521 Y42.3966 
G01 X3.4014 Y42.3206 
G01 X3.5608 Y42.2688 
G01 X3.7262 Y42.2426 
G01 X3.8938 Y42.2426 
G01 X4.0592 Y42.2688 
G01 X4.2186 Y42.3206 
G01 X4.3679 Y42.3966 
G01 X4.5034 Y42.4951 
G01 X4.6219 Y42.6136 
G01 X4.7204 Y42.7491 
G01 X13.4083 Y42.7506 
G01 X13.5498 Y42.7885 
G01 X13.6766 Y42.8618 
G01 X15.0502 Y44.2354 
G01 X15.1235 Y44.3622 
G01 X15.1614 Y44.5037 
G01 X15.1614 Y49.1741 
G01 X17.7549 Y51.7676 
G01 X24.9051 Y51.7676 
G01 X29.6199 Y47.0528 
G01 X29.7468 Y46.9795 
G01 X29.8883 Y46.9416 
G01 X51.8893 Y46.9416 
G01 X52.0308 Y46.9795 
G01 X52.1576 Y47.0528 
G01 X60.3015 Y55.1966 
G01 X69.9697 Y55.1966 
G01 X70.1826 Y54.9837 
G01 X70.1826 Y51.4423 
G01 X69.8016 Y51.0613 
G01 X69.8016 Y50.2847 
G01 X70.3507 Y49.7356 
G01 X71.1273 Y49.7356 
G01 X71.5083 Y50.1166 
G01 X72.9779 Y50.1166 
G01 X84.0661 Y39.0284 
G01 X84.1697 Y38.9248 
G01 X84.2966 Y38.8515 
G01 X84.4381 Y38.8136 
G01 X98.8295 Y38.8136 
G01 X102.1866 Y35.4565 
G01 X102.1866 Y21.8205 
G01 X93.1305 Y12.7644 
G00 Z2.4000 
G00 X6.2845 Y59.3496 
G01 Z-0.1000 F100.00 
G01 X8.4155 Y59.3496 F100.00 
G01 X8.5944 Y59.3779 
G01 X8.7666 Y59.4339 
G01 X8.7750 Y59.4382 
G01 X9.7304 Y58.4828 
G01 X9.8572 Y58.4095 
G01 X9.9987 Y58.3716 
G01 X27.1453 Y58.3716 
G01 X31.8764 Y53.6405 
G01 X31.9800 Y53.5369 
G01 X32.1069 Y53.4637 
G01 X32.2484 Y53.4258 
G01 X49.1482 Y53.4258 
G01 X49.2897 Y53.4637 
G01 X49.4165 Y53.5369 
G01 X49.5201 Y53.6405 
G01 X57.5532 Y61.6736 
G01 X73.6846 Y61.6736 
G01 X77.4216 Y57.9366 
G01 X77.4216 Y55.7467 
G01 X77.4595 Y55.6052 
G01 X77.5328 Y55.4783 
G01 X77.6364 Y55.3747 
G01 X81.6637 Y51.3474 
G01 X81.7673 Y51.2438 
G01 X81.8942 Y51.1705 
G01 X82.0357 Y51.1326 
G01 X108.9123 Y51.1326 
G01 X109.0538 Y51.1705 
G01 X109.1806 Y51.2438 
G01 X109.1965 Y51.2596 
G01 X109.2003 Y51.2596 
G01 X109.2307 Y51.2000 
G01 X109.3395 Y51.0503 
G01 X109.4703 Y50.9195 
G01 X109.6200 Y50.8107 
G01 X109.7848 Y50.7267 
G01 X109.9608 Y50.6695 
G01 X110.1435 Y50.6406 
G01 X110.3285 Y50.6406 
G01 X110.5112 Y50.6695 
G01 X110.6872 Y50.7267 
G01 X110.8520 Y50.8107 
G01 X111.0017 Y50.9195 
G01 X111.1325 Y51.0503 
G01 X111.2413 Y51.2000 
G01 X111.3253 Y51.3648 
G01 X111.3825 Y51.5408 
G01 X111.4114 Y51.7235 
G01 X111.4114 Y51.9085 
G01 X111.3825 Y52.0912 
G01 X111.3253 Y52.2672 
G01 X111.2413 Y52.4320 
G01 X111.1325 Y52.5817 
G01 X111.0017 Y52.7125 
G01 X110.8520 Y52.8213 
G01 X110.6872 Y52.9053 
G01 X110.5112 Y52.9625 
G01 X110.3285 Y52.9914 
G01 X110.1435 Y52.9914 
G01 X109.9608 Y52.9625 
G01 X109.7848 Y52.9053 
G01 X109.6200 Y52.8213 
G01 X109.4703 Y52.7125 
G01 X109.3395 Y52.5817 
G01 X109.2307 Y52.4320 
G01 X109.2003 Y52.3724 
G01 X108.8927 Y52.3724 
G01 X108.7512 Y52.3345 
G01 X108.6244 Y52.2612 
G01 X108.6085 Y52.2454 
G01 X82.3394 Y52.2454 
G01 X78.5344 Y56.0504 
G01 X78.5344 Y58.2403 
G01 X78.4965 Y58.3818 
G01 X78.4232 Y58.5087 
G01 X78.3196 Y58.6123 
G01 X74.3603 Y62.5716 
G01 X74.2567 Y62.6752 
G01 X74.1298 Y62.7485 
G01 X73.9883 Y62.7864 
G01 X57.2495 Y62.7864 
G01 X57.1080 Y62.7485 
G01 X56.9811 Y62.6752 
G01 X56.8775 Y62.5716 
G01 X48.8444 Y54.5386 
G01 X32.5521 Y54.5386 
G01 X27.8210 Y59.2696 
G01 X27.7174 Y59.3732 
G01 X27.5906 Y59.4465 
G01 X27.4491 Y59.4844 
G01 X10.3025 Y59.4844 
G01 X9.4620 Y60.3249 
G01 X9.4754 Y60.4095 
G01 X9.4754 Y60.5905 
G01 X9.4471 Y60.7694 
G01 X9.3911 Y60.9416 
G01 X9.3089 Y61.1029 
G01 X9.2025 Y61.2494 
G01 X9.0744 Y61.3775 
G01 X8.9279 Y61.4839 
G01 X8.7666 Y61.5661 
G01 X8.5944 Y61.6221 
G01 X8.4155 Y61.6504 
G01 X6.2845 Y61.6504 
G01 X6.1056 Y61.6221 
G01 X5.9334 Y61.5661 
G01 X5.7721 Y61.4839 
G01 X5.6256 Y61.3775 
G01 X5.4975 Y61.2494 
G01 X5.3911 Y61.1029 
G01 X5.3089 Y60.9416 
G01 X5.2529 Y60.7694 
G01 X5.2246 Y60.5905 
G01 X5.2246 Y60.4095 
G01 X5.2529 Y60.2306 
G01 X5.3089 Y60.0584 
G01 X5.3911 Y59.8971 
G01 X5.4975 Y59.7506 
G01 X5.6256 Y59.6225 
G01 X5.7721 Y59.5161 
G01 X5.9334 Y59.4339 
G01 X6.1056 Y59.3779 
G01 X6.2845 Y59.3496 
G00 Z2.4000 
G00 X113.6034 Y21.6945 
G01 Z-0.1000 F100.00 
G01 X113.6034 Y21.8775 F100.00 
G01 X113.5677 Y22.0571 
G01 X113.4976 Y22.2262 
G01 X113.3959 Y22.3785 
G01 X113.2665 Y22.5079 
G01 X113.1142 Y22.6096 
G01 X112.9451 Y22.6797 
G01 X112.7655 Y22.7154 
G01 X112.5825 Y22.7154 
G01 X112.4029 Y22.6797 
G01 X112.2338 Y22.6096 
G01 X112.0815 Y22.5079 
G01 X111.9521 Y22.3785 
G01 X111.8504 Y22.2262 
G01 X111.7803 Y22.0571 
G01 X111.7446 Y21.8775 
G01 X111.7446 Y21.6945 
G01 X111.7803 Y21.5149 
G01 X111.8504 Y21.3458 
G01 X111.9521 Y21.1935 
G01 X112.0815 Y21.0641 
G01 X112.2338 Y20.9624 
G01 X112.4029 Y20.8923 
G01 X112.5825 Y20.8566 
G01 X112.7655 Y20.8566 
G01 X112.9451 Y20.8923 
G01 X113.1142 Y20.9624 
G01 X113.2665 Y21.0641 
G01 X113.3959 Y21.1935 
G01 X113.4976 Y21.3458 
G01 X113.5677 Y21.5149 
G01 X113.6034 Y21.6945 
G00 Z2.4000 
G00 X116.1434 Y21.7005 
G01 Z-0.1000 F100.00 
G01 X116.1434 Y21.8835 F100.00 
G01 X116.1077 Y22.0631 
G01 X116.0376 Y22.2322 
G01 X115.9359 Y22.3845 
G01 X115.8065 Y22.5139 
G01 X115.6542 Y22.6156 
G01 X115.4851 Y22.6857 
G01 X115.3055 Y22.7214 
G01 X115.1225 Y22.7214 
G01 X114.9429 Y22.6857 
G01 X114.7738 Y22.6156 
G01 X114.6215 Y22.5139 
G01 X114.4921 Y22.3845 
G01 X114.3904 Y22.2322 
G01 X114.3203 Y22.0631 
G01 X114.2846 Y21.8835 
G01 X114.2846 Y21.7005 
G01 X114.3203 Y21.5209 
G01 X114.3904 Y21.3518 
G01 X114.4921 Y21.1995 
G01 X114.6215 Y21.0701 
G01 X114.6576 Y21.0460 
G01 X114.6576 Y19.4445 
G01 X112.2795 Y17.0664 
G01 X103.0732 Y17.0664 
G01 X102.9317 Y17.0285 
G01 X102.8048 Y16.9552 
G01 X102.7012 Y16.8516 
G01 X93.7720 Y7.9224 
G01 X66.8557 Y7.9224 
G01 X66.7142 Y7.8845 
G01 X66.5874 Y7.8112 
G01 X66.4838 Y7.7076 
G01 X61.4915 Y2.7154 
G01 X4.9295 Y2.7154 
G01 X2.0804 Y5.5645 
G01 X2.0804 Y24.1535 
G01 X2.8975 Y24.9706 
G01 X2.9981 Y24.8336 
G01 X3.1166 Y24.7151 
G01 X3.2521 Y24.6166 
G01 X3.4014 Y24.5406 
G01 X3.5608 Y24.4888 
G01 X3.7262 Y24.4626 
G01 X3.8938 Y24.4626 
G01 X4.0592 Y24.4888 
G01 X4.2186 Y24.5406 
G01 X4.3679 Y24.6166 
G01 X4.5034 Y24.7151 
G01 X4.6219 Y24.8336 
G01 X4.7204 Y24.9691 
G01 X4.7964 Y25.1184 
G01 X4.8482 Y25.2778 
G01 X4.8744 Y25.4432 
G01 X4.8744 Y25.6108 
G01 X4.8482 Y25.7762 
G01 X4.7964 Y25.9356 
G01 X4.7204 Y26.0849 
G01 X4.6219 Y26.2204 
G01 X4.5034 Y26.3389 
G01 X4.3679 Y26.4374 
G01 X4.2186 Y26.5134 
G01 X4.0592 Y26.5652 
G01 X3.8938 Y26.5914 
G01 X3.7262 Y26.5914 
G01 X3.5608 Y26.5652 
G01 X3.4014 Y26.5134 
G01 X3.2521 Y26.4374 
G01 X3.1166 Y26.3389 
G01 X2.9981 Y26.2204 
G01 X2.8996 Y26.0849 
G01 X2.5937 Y26.0834 
G01 X2.4522 Y26.0455 
G01 X2.3254 Y25.9722 
G01 X2.2218 Y25.8686 
G01 X1.0788 Y24.7256 
G01 X1.0055 Y24.5988 
G01 X0.9676 Y24.4573 
G01 X0.9676 Y5.2607 
G01 X1.0055 Y5.1192 
G01 X1.0788 Y4.9924 
G01 X4.2538 Y1.8174 
G01 X4.3574 Y1.7138 
G01 X4.4842 Y1.6405 
G01 X4.6257 Y1.6026 
G01 X61.7953 Y1.6026 
G01 X61.9368 Y1.6405 
G01 X62.0636 Y1.7138 
G01 X67.1595 Y6.8096 
G01 X94.0757 Y6.8096 
G01 X94.2172 Y6.8475 
G01 X94.3441 Y6.9208 
G01 X103.3769 Y15.9536 
G01 X112.5833 Y15.9536 
G01 X112.7248 Y15.9915 
G01 X112.8516 Y16.0648 
G01 X115.6592 Y18.8724 
G01 X115.7325 Y18.9992 
G01 X115.7704 Y19.1407 
G01 X115.7704 Y21.0460 
G01 X115.8065 Y21.0701 
G01 X115.9359 Y21.1995 
G01 X116.0376 Y21.3518 
G01 X116.1077 Y21.5209 
G01 X116.1434 Y21.7005 
G00 Z2.4000 
G00 X123.6509 Y22.7724 
G01 Z-0.1000 F100.00 
G01 X122.0731 Y22.7724 F100.00 
G01 X122.0086 Y22.7457 
G01 X121.9593 Y22.6964 
G01 X121.9326 Y22.6319 
G01 X121.9326 Y21.0541 
G01 X121.9593 Y20.9896 
G01 X122.0086 Y20.9403 
G01 X122.0731 Y20.9136 
G01 X123.6509 Y20.9136 
G01 X123.7154 Y20.9403 
G01 X123.7647 Y20.9896 
G01 X123.7914 Y21.0541 
G01 X123.7914 Y22.6319 
G01 X123.7647 Y22.6964 
G01 X123.7154 Y22.7457 
G01 X123.6509 Y22.7724 
G00 Z2.4000 
G00 X119.8691 Y32.0986 
G01 Z-0.1000 F100.00 
G01 X121.9389 Y32.0986 F100.00 
G01 X122.0034 Y32.1253 
G01 X122.0527 Y32.1746 
G01 X122.0794 Y32.2391 
G01 X122.0794 Y34.3089 
G01 X122.0527 Y34.3734 
G01 X122.0034 Y34.4227 
G01 X121.9389 Y34.4494 
G01 X119.8691 Y34.4494 
G01 X119.8046 Y34.4227 
G01 X119.7553 Y34.3734 
G01 X119.7286 Y34.3089 
G01 X119.7286 Y32.2391 
G01 X119.7553 Y32.1746 
G01 X119.8046 Y32.1253 
G01 X119.8691 Y32.0986 
G00 Z2.4000 
G00 X122.4091 Y32.0986 
G01 Z-0.1000 F100.00 
G01 X124.4789 Y32.0986 F100.00 
G01 X124.5434 Y32.1253 
G01 X124.5927 Y32.1746 
G01 X124.6194 Y32.2391 
G01 X124.6194 Y34.3089 
G01 X124.5927 Y34.3734 
G01 X124.5434 Y34.4227 
G01 X124.4789 Y34.4494 
G01 X124.0004 Y34.4494 
G01 X124.0004 Y35.3792 
G01 X123.9625 Y35.5208 
G01 X123.8892 Y35.6476 
G01 X123.7856 Y35.7512 
G01 X120.9916 Y38.5452 
G01 X120.8648 Y38.6185 
G01 X120.7233 Y38.6564 
G01 X117.6895 Y38.6564 
G01 X115.0565 Y41.2894 
G01 X115.0565 Y41.3323 
G01 X115.0185 Y41.4738 
G01 X114.9453 Y41.6006 
G01 X114.8417 Y41.7042 
G01 X114.7148 Y41.7775 
G01 X114.5733 Y41.8154 
G01 X85.4635 Y41.8154 
G01 X73.5814 Y53.6975 
G01 X73.5814 Y56.5483 
G01 X73.5435 Y56.6898 
G01 X73.4702 Y56.8166 
G01 X73.3666 Y56.9202 
G01 X72.2872 Y57.9996 
G01 X72.1836 Y58.1032 
G01 X72.0568 Y58.1765 
G01 X71.9153 Y58.2144 
G01 X59.2921 Y58.2144 
G01 X59.1506 Y58.1765 
G01 X59.0237 Y58.1032 
G01 X50.6259 Y49.7054 
G01 X30.7707 Y49.7054 
G01 X26.1594 Y54.3166 
G01 X26.0559 Y54.4202 
G01 X25.9290 Y54.4935 
G01 X25.7875 Y54.5314 
G01 X16.6185 Y54.5314 
G01 X16.4770 Y54.4935 
G01 X16.3501 Y54.4202 
G01 X8.5873 Y46.6574 
G01 X4.5049 Y46.6574 
G01 X4.3679 Y46.7574 
G01 X4.2186 Y46.8334 
G01 X4.0592 Y46.8852 
G01 X3.8938 Y46.9114 
G01 X3.7262 Y46.9114 
G01 X3.5608 Y46.8852 
G01 X3.4014 Y46.8334 
G01 X3.2521 Y46.7574 
G01 X3.1166 Y46.6589 
G01 X2.9981 Y46.5404 
G01 X2.8996 Y46.4049 
G01 X2.8236 Y46.2556 
G01 X2.7718 Y46.0962 
G01 X2.7456 Y45.9308 
G01 X2.7456 Y45.7632 
G01 X2.7718 Y45.5978 
G01 X2.8236 Y45.4384 
G01 X2.8996 Y45.2891 
G01 X2.9981 Y45.1536 
G01 X3.1166 Y45.0351 
G01 X3.2521 Y44.9366 
G01 X3.4014 Y44.8606 
G01 X3.5608 Y44.8088 
G01 X3.7262 Y44.7826 
G01 X3.8938 Y44.7826 
G01 X4.0592 Y44.8088 
G01 X4.2186 Y44.8606 
G01 X4.3679 Y44.9366 
G01 X4.5034 Y45.0351 
G01 X4.6219 Y45.1536 
G01 X4.7204 Y45.2891 
G01 X4.7964 Y45.4384 
G01 X4.8309 Y45.5446 
G01 X8.8910 Y45.5446 
G01 X9.0325 Y45.5825 
G01 X9.1594 Y45.6558 
G01 X9.2630 Y45.7594 
G01 X16.9222 Y53.4186 
G01 X25.4838 Y53.4186 
G01 X30.0950 Y48.8074 
G01 X30.1986 Y48.7038 
G01 X30.3255 Y48.6305 
G01 X30.4670 Y48.5926 
G01 X50.9296 Y48.5926 
G01 X51.0711 Y48.6305 
G01 X51.1980 Y48.7038 
G01 X59.5958 Y57.1016 
G01 X71.6115 Y57.1016 
G01 X72.4686 Y56.2445 
G01 X72.4686 Y53.3937 
G01 X72.5065 Y53.2522 
G01 X72.5798 Y53.1254 
G01 X72.6834 Y53.0218 
G01 X84.7878 Y40.9174 
G01 X84.8914 Y40.8138 
G01 X85.0182 Y40.7405 
G01 X85.1597 Y40.7026 
G01 X114.0695 Y40.7026 
G01 X117.0138 Y37.7584 
G01 X117.1174 Y37.6548 
G01 X117.2442 Y37.5815 
G01 X117.3857 Y37.5436 
G01 X120.4195 Y37.5436 
G01 X122.8876 Y35.0755 
G01 X122.8876 Y34.4494 
G01 X122.4091 Y34.4494 
G01 X122.3446 Y34.4227 
G01 X122.2953 Y34.3734 
G01 X122.2686 Y34.3089 
G01 X122.2686 Y32.2391 
G01 X122.2953 Y32.1746 
G01 X122.3446 Y32.1253 
G01 X122.4091 Y32.0986 
G00 Z2.4000 
G00 X119.8691 Y50.6406 
G01 Z-0.1000 F100.00 
G01 X121.9389 Y50.6406 F100.00 
G01 X122.0034 Y50.6673 
G01 X122.0527 Y50.7166 
G01 X122.0794 Y50.7811 
G01 X122.0794 Y52.8509 
G01 X122.0527 Y52.9154 
G01 X122.0034 Y52.9647 
G01 X121.9389 Y52.9914 
G01 X119.8691 Y52.9914 
G01 X119.8046 Y52.9647 
G01 X119.7553 Y52.9154 
G01 X119.7286 Y52.8509 
G01 X119.7286 Y50.7811 
G01 X119.7553 Y50.7166 
G01 X119.8046 Y50.6673 
G01 X119.8691 Y50.6406 
G00 Z2.4000 
G00 X113.9514 Y33.1815 
G01 Z-0.1000 F100.00 
G01 X113.9514 Y33.3665 F100.00 
G01 X113.9225 Y33.5492 
G01 X113.8653 Y33.7252 
G01 X113.7813 Y33.8900 
G01 X113.6725 Y34.0397 
G01 X113.5417 Y34.1705 
G01 X113.3920 Y34.2793 
G01 X113.2272 Y34.3633 
G01 X113.0512 Y34.4205 
G01 X112.8685 Y34.4494 
G01 X112.6835 Y34.4494 
G01 X112.5008 Y34.4205 
G01 X112.3248 Y34.3633 
G01 X112.1600 Y34.2793 
G01 X112.0103 Y34.1705 
G01 X111.8795 Y34.0397 
G01 X111.7707 Y33.8900 
G01 X111.6867 Y33.7252 
G01 X111.6295 Y33.5492 
G01 X111.6006 Y33.3665 
G01 X111.6006 Y33.1815 
G01 X111.6295 Y32.9988 
G01 X111.6867 Y32.8228 
G01 X111.7707 Y32.6580 
G01 X111.8795 Y32.5083 
G01 X112.0103 Y32.3775 
G01 X112.1600 Y32.2687 
G01 X112.3248 Y32.1847 
G01 X112.5008 Y32.1275 
G01 X112.6835 Y32.0986 
G01 X112.8685 Y32.0986 
G01 X113.0512 Y32.1275 
G01 X113.2272 Y32.1847 
G01 X113.3920 Y32.2687 
G01 X113.5417 Y32.3775 
G01 X113.6725 Y32.5083 
G01 X113.7813 Y32.6580 
G01 X113.8653 Y32.8228 
G01 X113.9225 Y32.9988 
G01 X113.9514 Y33.1815 
G00 Z2.4000 
G00 X113.9514 Y51.7235 
G01 Z-0.1000 F100.00 
G01 X113.9514 Y51.9085 F100.00 
G01 X113.9225 Y52.0912 
G01 X113.8653 Y52.2672 
G01 X113.7813 Y52.4320 
G01 X113.6725 Y52.5817 
G01 X113.5417 Y52.7125 
G01 X113.3920 Y52.8213 
G01 X113.2272 Y52.9053 
G01 X113.0512 Y52.9625 
G01 X112.8685 Y52.9914 
G01 X112.6835 Y52.9914 
G01 X112.5008 Y52.9625 
G01 X112.3248 Y52.9053 
G01 X112.1600 Y52.8213 
G01 X112.0103 Y52.7125 
G01 X111.8795 Y52.5817 
G01 X111.7707 Y52.4320 
G01 X111.6867 Y52.2672 
G01 X111.6295 Y52.0912 
G01 X111.6006 Y51.9085 
G01 X111.6006 Y51.7235 
G01 X111.6295 Y51.5408 
G01 X111.6867 Y51.3648 
G01 X111.7707 Y51.2000 
G01 X111.8795 Y51.0503 
G01 X112.0103 Y50.9195 
G01 X112.1600 Y50.8107 
G01 X112.3248 Y50.7267 
G01 X112.5008 Y50.6695 
G01 X112.6835 Y50.6406 
G01 X112.8685 Y50.6406 
G01 X113.0512 Y50.6695 
G01 X113.2272 Y50.7267 
G01 X113.3920 Y50.8107 
G01 X113.5417 Y50.9195 
G01 X113.6725 Y51.0503 
G01 X113.7813 Y51.2000 
G01 X113.8653 Y51.3648 
G01 X113.9225 Y51.5408 
G01 X113.9514 Y51.7235 
G00 Z2.4000 
G00 X61.5164 Y52.8247 
G01 Z-0.1000 F100.00 
G01 X61.5164 Y53.6013 F100.00 
G01 X60.9673 Y54.1504 
G01 X60.1907 Y54.1504 
G01 X59.6416 Y53.6013 
G01 X59.6416 Y53.0625 
G01 X51.7125 Y45.1334 
G01 X38.0267 Y45.1334 
G01 X37.8852 Y45.0955 
G01 X37.7584 Y45.0222 
G01 X33.9484 Y41.2122 
G01 X33.8448 Y41.1086 
G01 X33.7715 Y40.9818 
G01 X33.7336 Y40.8403 
G01 X33.7336 Y26.3427 
G01 X33.7715 Y26.2012 
G01 X33.8448 Y26.0744 
G01 X39.7066 Y20.2125 
G01 X39.7066 Y14.6781 
G01 X39.6785 Y14.6638 
G01 X39.5365 Y14.5606 
G01 X39.4124 Y14.4365 
G01 X39.3092 Y14.2945 
G01 X39.2295 Y14.1381 
G01 X39.1753 Y13.9711 
G01 X39.1478 Y13.7978 
G01 X39.1478 Y13.6222 
G01 X39.1753 Y13.4489 
G01 X39.2295 Y13.2819 
G01 X39.3092 Y13.1255 
G01 X39.4124 Y12.9835 
G01 X39.5365 Y12.8594 
G01 X39.6785 Y12.7562 
G01 X39.8349 Y12.6765 
G01 X40.0019 Y12.6223 
G01 X40.1752 Y12.5948 
G01 X40.3508 Y12.5948 
G01 X40.5241 Y12.6223 
G01 X40.6911 Y12.6765 
G01 X40.8475 Y12.7562 
G01 X40.9895 Y12.8594 
G01 X41.1136 Y12.9835 
G01 X41.2168 Y13.1255 
G01 X41.2965 Y13.2819 
G01 X41.3507 Y13.4489 
G01 X41.3782 Y13.6222 
G01 X41.3782 Y13.7978 
G01 X41.3507 Y13.9711 
G01 X41.2965 Y14.1381 
G01 X41.2168 Y14.2945 
G01 X41.1136 Y14.4365 
G01 X40.9895 Y14.5606 
G01 X40.8475 Y14.6638 
G01 X40.8194 Y14.6781 
G01 X40.8194 Y20.5162 
G01 X40.7815 Y20.6578 
G01 X40.7082 Y20.7846 
G01 X40.6046 Y20.8882 
G01 X34.8464 Y26.6465 
G01 X34.8464 Y40.5365 
G01 X38.3305 Y44.0206 
G01 X52.0162 Y44.0206 
G01 X52.1578 Y44.0585 
G01 X52.2846 Y44.1318 
G01 X52.3882 Y44.2354 
G01 X60.4285 Y52.2756 
G01 X60.9673 Y52.2756 
G01 X61.5164 Y52.8247 
G00 Z2.4000 
G00 X59.1582 Y13.6222 
G01 Z-0.1000 F100.00 
G01 X59.1582 Y13.7978 F100.00 
G01 X59.1307 Y13.9711 
G01 X59.0765 Y14.1381 
G01 X58.9968 Y14.2945 
G01 X58.8936 Y14.4365 
G01 X58.7695 Y14.5606 
G01 X58.6275 Y14.6638 
G01 X58.4711 Y14.7435 
G01 X58.3041 Y14.7977 
G01 X58.1308 Y14.8252 
G01 X57.9552 Y14.8252 
G01 X57.7819 Y14.7977 
G01 X57.6149 Y14.7435 
G01 X57.4585 Y14.6638 
G01 X57.3165 Y14.5606 
G01 X57.1924 Y14.4365 
G01 X57.0892 Y14.2945 
G01 X57.0095 Y14.1381 
G01 X56.9553 Y13.9711 
G01 X56.9278 Y13.7978 
G01 X56.9278 Y13.6222 
G01 X56.9553 Y13.4489 
G01 X57.0095 Y13.2819 
G01 X57.0892 Y13.1255 
G01 X57.1924 Y12.9835 
G01 X57.3165 Y12.8594 
G01 X57.4585 Y12.7562 
G01 X57.6149 Y12.6765 
G01 X57.7819 Y12.6223 
G01 X57.9552 Y12.5948 
G01 X58.1308 Y12.5948 
G01 X58.3041 Y12.6223 
G01 X58.4711 Y12.6765 
G01 X58.6275 Y12.7562 
G01 X58.7695 Y12.8594 
G01 X58.8936 Y12.9835 
G01 X58.9968 Y13.1255 
G01 X59.0765 Y13.2819 
G01 X59.1307 Y13.4489 
G01 X59.1582 Y13.6222 
G00 Z2.4000 
G00 X56.6182 Y13.6222 
G01 Z-0.1000 F100.00 
G01 X56.6182 Y13.7978 F100.00 
G01 X56.5907 Y13.9711 
G01 X56.5365 Y14.1381 
G01 X56.4568 Y14.2945 
G01 X56.3536 Y14.4365 
G01 X56.2295 Y14.5606 
G01 X56.0875 Y14.6638 
G01 X55.9311 Y14.7435 
G01 X55.7641 Y14.7977 
G01 X55.5908 Y14.8252 
G01 X55.4152 Y14.8252 
G01 X55.2419 Y14.7977 
G01 X55.0749 Y14.7435 
G01 X54.9185 Y14.6638 
G01 X54.7765 Y14.5606 
G01 X54.6524 Y14.4365 
G01 X54.5492 Y14.2945 
G01 X54.4695 Y14.1381 
G01 X54.4153 Y13.9711 
G01 X54.3878 Y13.7978 
G01 X54.3878 Y13.6222 
G01 X54.4153 Y13.4489 
G01 X54.4695 Y13.2819 
G01 X54.5492 Y13.1255 
G01 X54.6524 Y12.9835 
G01 X54.7765 Y12.8594 
G01 X54.9185 Y12.7562 
G01 X55.0749 Y12.6765 
G01 X55.2419 Y12.6223 
G01 X55.4152 Y12.5948 
G01 X55.5908 Y12.5948 
G01 X55.7641 Y12.6223 
G01 X55.9311 Y12.6765 
G01 X56.0875 Y12.7562 
G01 X56.2295 Y12.8594 
G01 X56.3536 Y12.9835 
G01 X56.4568 Y13.1255 
G01 X56.5365 Y13.2819 
G01 X56.5907 Y13.4489 
G01 X56.6182 Y13.6222 
G00 Z2.4000 
G00 X54.0782 Y13.6222 
G01 Z-0.1000 F100.00 
G01 X54.0782 Y13.7978 F100.00 
G01 X54.0507 Y13.9711 
G01 X53.9965 Y14.1381 
G01 X53.9168 Y14.2945 
G01 X53.8136 Y14.4365 
G01 X53.6895 Y14.5606 
G01 X53.5475 Y14.6638 
G01 X53.3911 Y14.7435 
G01 X53.2241 Y14.7977 
G01 X53.0508 Y14.8252 
G01 X52.8752 Y14.8252 
G01 X52.7019 Y14.7977 
G01 X52.5349 Y14.7435 
G01 X52.3785 Y14.6638 
G01 X52.2365 Y14.5606 
G01 X52.1124 Y14.4365 
G01 X52.0092 Y14.2945 
G01 X51.9295 Y14.1381 
G01 X51.8753 Y13.9711 
G01 X51.8478 Y13.7978 
G01 X51.8478 Y13.6222 
G01 X51.8753 Y13.4489 
G01 X51.9295 Y13.2819 
G01 X52.0092 Y13.1255 
G01 X52.1124 Y12.9835 
G01 X52.2365 Y12.8594 
G01 X52.3785 Y12.7562 
G01 X52.5349 Y12.6765 
G01 X52.7019 Y12.6223 
G01 X52.8752 Y12.5948 
G01 X53.0508 Y12.5948 
G01 X53.2241 Y12.6223 
G01 X53.3911 Y12.6765 
G01 X53.5475 Y12.7562 
G01 X53.6895 Y12.8594 
G01 X53.8136 Y12.9835 
G01 X53.9168 Y13.1255 
G01 X53.9965 Y13.2819 
G01 X54.0507 Y13.4489 
G01 X54.0782 Y13.6222 
G00 Z2.4000 
G00 X51.5382 Y13.6222 
G01 Z-0.1000 F100.00 
G01 X51.5382 Y13.7978 F100.00 
G01 X51.5107 Y13.9711 
G01 X51.4565 Y14.1381 
G01 X51.3768 Y14.2945 
G01 X51.2736 Y14.4365 
G01 X51.1495 Y14.5606 
G01 X51.0075 Y14.6638 
G01 X50.8511 Y14.7435 
G01 X50.6841 Y14.7977 
G01 X50.5108 Y14.8252 
G01 X50.3352 Y14.8252 
G01 X50.1619 Y14.7977 
G01 X49.9949 Y14.7435 
G01 X49.8385 Y14.6638 
G01 X49.6965 Y14.5606 
G01 X49.5724 Y14.4365 
G01 X49.4692 Y14.2945 
G01 X49.3895 Y14.1381 
G01 X49.3353 Y13.9711 
G01 X49.3078 Y13.7978 
G01 X49.3078 Y13.6222 
G01 X49.3353 Y13.4489 
G01 X49.3895 Y13.2819 
G01 X49.4692 Y13.1255 
G01 X49.5724 Y12.9835 
G01 X49.6965 Y12.8594 
G01 X49.8385 Y12.7562 
G01 X49.9949 Y12.6765 
G01 X50.1619 Y12.6223 
G01 X50.3352 Y12.5948 
G01 X50.5108 Y12.5948 
G01 X50.6841 Y12.6223 
G01 X50.8511 Y12.6765 
G01 X51.0075 Y12.7562 
G01 X51.1495 Y12.8594 
G01 X51.2736 Y12.9835 
G01 X51.3768 Y13.1255 
G01 X51.4565 Y13.2819 
G01 X51.5107 Y13.4489 
G01 X51.5382 Y13.6222 
G00 Z2.4000 
G00 X48.9982 Y13.6222 
G01 Z-0.1000 F100.00 
G01 X48.9982 Y13.7978 F100.00 
G01 X48.9707 Y13.9711 
G01 X48.9165 Y14.1381 
G01 X48.8368 Y14.2945 
G01 X48.7336 Y14.4365 
G01 X48.6095 Y14.5606 
G01 X48.4675 Y14.6638 
G01 X48.3111 Y14.7435 
G01 X48.1441 Y14.7977 
G01 X47.9708 Y14.8252 
G01 X47.7952 Y14.8252 
G01 X47.6219 Y14.7977 
G01 X47.4549 Y14.7435 
G01 X47.2985 Y14.6638 
G01 X47.1565 Y14.5606 
G01 X47.0324 Y14.4365 
G01 X46.9292 Y14.2945 
G01 X46.8495 Y14.1381 
G01 X46.7953 Y13.9711 
G01 X46.7678 Y13.7978 
G01 X46.7678 Y13.6222 
G01 X46.7953 Y13.4489 
G01 X46.8495 Y13.2819 
G01 X46.9292 Y13.1255 
G01 X47.0165 Y13.0054 
G01 X44.5915 Y10.5804 
G01 X29.5675 Y10.5804 
G01 X27.2264 Y12.9215 
G01 X27.2264 Y16.8643 
G01 X27.1885 Y17.0058 
G01 X27.1152 Y17.1327 
G01 X23.0354 Y21.2125 
G01 X23.0354 Y22.1713 
G01 X22.9975 Y22.3128 
G01 X22.9242 Y22.4396 
G01 X22.0352 Y23.3286 
G01 X21.9316 Y23.4322 
G01 X21.8048 Y23.5055 
G01 X21.6633 Y23.5434 
G01 X19.9611 Y23.5434 
G01 X19.8619 Y23.6804 
G01 X19.7434 Y23.7989 
G01 X19.6079 Y23.8974 
G01 X19.4586 Y23.9734 
G01 X19.2992 Y24.0252 
G01 X19.1338 Y24.0514 
G01 X18.9662 Y24.0514 
G01 X18.8008 Y24.0252 
G01 X18.6414 Y23.9734 
G01 X18.4921 Y23.8974 
G01 X18.3566 Y23.7989 
G01 X18.2381 Y23.6804 
G01 X18.1396 Y23.5449 
G01 X18.0636 Y23.3956 
G01 X18.0118 Y23.2362 
G01 X17.9856 Y23.0708 
G01 X17.9856 Y22.9032 
G01 X18.0118 Y22.7378 
G01 X18.0636 Y22.5784 
G01 X18.1396 Y22.4291 
G01 X18.2381 Y22.2936 
G01 X18.3566 Y22.1751 
G01 X18.4921 Y22.0766 
G01 X18.6414 Y22.0006 
G01 X18.8008 Y21.9488 
G01 X18.9662 Y21.9226 
G01 X19.1338 Y21.9226 
G01 X19.2992 Y21.9488 
G01 X19.4586 Y22.0006 
G01 X19.6079 Y22.0766 
G01 X19.7434 Y22.1751 
G01 X19.8619 Y22.2936 
G01 X19.9604 Y22.4291 
G01 X21.3595 Y22.4306 
G01 X21.9226 Y21.8675 
G01 X21.9226 Y20.9088 
G01 X21.9605 Y20.7673 
G01 X22.0338 Y20.6404 
G01 X22.1374 Y20.5369 
G01 X26.1136 Y16.5606 
G01 X26.1136 Y12.6177 
G01 X26.1515 Y12.4762 
G01 X26.2248 Y12.3494 
G01 X28.9954 Y9.5788 
G01 X29.1222 Y9.5055 
G01 X29.2637 Y9.4676 
G01 X44.8953 Y9.4676 
G01 X45.0368 Y9.5055 
G01 X45.1636 Y9.5788 
G01 X48.2374 Y12.6526 
G01 X48.3111 Y12.6765 
G01 X48.4675 Y12.7562 
G01 X48.6095 Y12.8594 
G01 X48.7336 Y12.9835 
G01 X48.8368 Y13.1255 
G01 X48.9165 Y13.2819 
G01 X48.9707 Y13.4489 
G01 X48.9982 Y13.6222 
G00 Z2.4000 
G00 X36.2982 Y12.7353 
G01 Z-0.1000 F100.00 
G01 X36.2982 Y14.6847 F100.00 
G01 X36.2715 Y14.7492 
G01 X36.2222 Y14.7985 
G01 X36.1577 Y14.8252 
G01 X35.7394 Y14.8252 
G01 X35.7394 Y18.8652 
G01 X35.7015 Y19.0068 
G01 X35.6282 Y19.1336 
G01 X35.5246 Y19.2372 
G01 X24.3054 Y30.4565 
G01 X24.3054 Y33.9823 
G01 X24.2675 Y34.1238 
G01 X24.1942 Y34.2506 
G01 X24.0906 Y34.3542 
G01 X20.1107 Y38.3342 
G01 X20.0882 Y38.4762 
G01 X20.0364 Y38.6356 
G01 X19.9604 Y38.7849 
G01 X19.8619 Y38.9204 
G01 X19.7434 Y39.0389 
G01 X19.6079 Y39.1374 
G01 X19.4586 Y39.2134 
G01 X19.2992 Y39.2652 
G01 X19.1338 Y39.2914 
G01 X18.9662 Y39.2914 
G01 X18.8008 Y39.2652 
G01 X18.6414 Y39.2134 
G01 X18.4921 Y39.1374 
G01 X18.3566 Y39.0389 
G01 X18.2381 Y38.9204 
G01 X18.1396 Y38.7849 
G01 X18.0636 Y38.6356 
G01 X18.0118 Y38.4762 
G01 X17.9856 Y38.3108 
G01 X17.9856 Y38.1432 
G01 X18.0118 Y37.9778 
G01 X18.0636 Y37.8184 
G01 X18.1396 Y37.6691 
G01 X18.2381 Y37.5336 
G01 X18.3566 Y37.4151 
G01 X18.4921 Y37.3166 
G01 X18.6414 Y37.2406 
G01 X18.8008 Y37.1888 
G01 X18.9662 Y37.1626 
G01 X19.1338 Y37.1626 
G01 X19.2992 Y37.1888 
G01 X19.4586 Y37.2406 
G01 X19.5725 Y37.2986 
G01 X23.1926 Y33.6785 
G01 X23.1926 Y30.1527 
G01 X23.2305 Y30.0112 
G01 X23.3038 Y29.8844 
G01 X23.4074 Y29.7808 
G01 X34.6266 Y18.5615 
G01 X34.6266 Y14.8252 
G01 X34.2083 Y14.8252 
G01 X34.1438 Y14.7985 
G01 X34.0945 Y14.7492 
G01 X34.0678 Y14.6847 
G01 X34.0678 Y12.7353 
G01 X34.0945 Y12.6708 
G01 X34.1438 Y12.6215 
G01 X34.2083 Y12.5948 
G01 X36.1577 Y12.5948 
G01 X36.2222 Y12.6215 
G01 X36.2715 Y12.6708 
G01 X36.2982 Y12.7353 
G00 Z2.4000 
G00 X20.1144 Y10.2032 
G01 Z-0.1000 F100.00 
G01 X20.1144 Y10.3708 F100.00 
G01 X20.0882 Y10.5362 
G01 X20.0364 Y10.6956 
G01 X19.9604 Y10.8449 
G01 X19.8619 Y10.9804 
G01 X19.7434 Y11.0989 
G01 X19.6079 Y11.1974 
G01 X19.4586 Y11.2734 
G01 X19.2992 Y11.3252 
G01 X19.1338 Y11.3514 
G01 X18.9662 Y11.3514 
G01 X18.8008 Y11.3252 
G01 X18.6414 Y11.2734 
G01 X18.4921 Y11.1974 
G01 X18.3566 Y11.0989 
G01 X18.2381 Y10.9804 
G01 X18.1396 Y10.8449 
G01 X18.0636 Y10.6956 
G01 X18.0118 Y10.5362 
G01 X17.9856 Y10.3708 
G01 X17.9856 Y10.2032 
G01 X18.0118 Y10.0378 
G01 X18.0636 Y9.8784 
G01 X18.1396 Y9.7291 
G01 X18.2381 Y9.5936 
G01 X18.3566 Y9.4751 
G01 X18.4921 Y9.3766 
G01 X18.6414 Y9.3006 
G01 X18.8008 Y9.2488 
G01 X18.9662 Y9.2226 
G01 X19.1338 Y9.2226 
G01 X19.2992 Y9.2488 
G01 X19.4586 Y9.3006 
G01 X19.6079 Y9.3766 
G01 X19.7434 Y9.4751 
G01 X19.8619 Y9.5936 
G01 X19.9604 Y9.7291 
G01 X20.0364 Y9.8784 
G01 X20.0882 Y10.0378 
G01 X20.1144 Y10.2032 
G00 Z2.4000 
G00 X20.1144 Y12.7432 
G01 Z-0.1000 F100.00 
G01 X20.1144 Y12.9108 F100.00 
G01 X20.0882 Y13.0762 
G01 X20.0364 Y13.2356 
G01 X19.9604 Y13.3849 
G01 X19.8619 Y13.5204 
G01 X19.7434 Y13.6389 
G01 X19.6079 Y13.7374 
G01 X19.4586 Y13.8134 
G01 X19.2992 Y13.8652 
G01 X19.1338 Y13.8914 
G01 X18.9662 Y13.8914 
G01 X18.8008 Y13.8652 
G01 X18.6414 Y13.8134 
G01 X18.4921 Y13.7374 
G01 X18.3566 Y13.6389 
G01 X18.2381 Y13.5204 
G01 X18.1396 Y13.3849 
G01 X17.4527 Y13.3834 
G01 X17.3112 Y13.3455 
G01 X17.1844 Y13.2722 
G01 X17.0808 Y13.1686 
G01 X15.6604 Y11.7482 
G01 X15.5568 Y11.6446 
G01 X15.4835 Y11.5178 
G01 X15.4456 Y11.3763 
G01 X15.4456 Y7.4889 
G01 X15.4835 Y7.3473 
G01 X15.5568 Y7.2205 
G01 X15.6604 Y7.1169 
G01 X19.4125 Y3.3648 
G01 X19.5393 Y3.2915 
G01 X19.6809 Y3.2536 
G01 X60.9063 Y3.2536 
G01 X61.0478 Y3.2915 
G01 X61.1746 Y3.3648 
G01 X61.2782 Y3.4684 
G01 X68.6482 Y10.8384 
G01 X68.7215 Y10.9652 
G01 X68.7594 Y11.1067 
G01 X68.7594 Y12.7419 
G01 X68.7875 Y12.7562 
G01 X68.9295 Y12.8594 
G01 X69.0536 Y12.9835 
G01 X69.1568 Y13.1255 
G01 X69.2365 Y13.2819 
G01 X69.2907 Y13.4489 
G01 X69.3182 Y13.6222 
G01 X69.3182 Y13.7978 
G01 X69.2907 Y13.9711 
G01 X69.2365 Y14.1381 
G01 X69.1568 Y14.2945 
G01 X69.0536 Y14.4365 
G01 X68.9295 Y14.5606 
G01 X68.7875 Y14.6638 
G01 X68.6311 Y14.7435 
G01 X68.4641 Y14.7977 
G01 X68.2908 Y14.8252 
G01 X68.1152 Y14.8252 
G01 X67.9419 Y14.7977 
G01 X67.7749 Y14.7435 
G01 X67.6185 Y14.6638 
G01 X67.4765 Y14.5606 
G01 X67.3524 Y14.4365 
G01 X67.2492 Y14.2945 
G01 X67.1695 Y14.1381 
G01 X67.1153 Y13.9711 
G01 X67.0878 Y13.7978 
G01 X67.0878 Y13.6222 
G01 X67.1153 Y13.4489 
G01 X67.1695 Y13.2819 
G01 X67.2492 Y13.1255 
G01 X67.3524 Y12.9835 
G01 X67.4765 Y12.8594 
G01 X67.6185 Y12.7562 
G01 X67.6466 Y12.7419 
G01 X67.6466 Y11.4105 
G01 X60.6025 Y4.3664 
G01 X19.9846 Y4.3664 
G01 X16.5584 Y7.7926 
G01 X16.5584 Y11.0725 
G01 X17.7565 Y12.2706 
G01 X18.1389 Y12.2706 
G01 X18.2381 Y12.1336 
G01 X18.3566 Y12.0151 
G01 X18.4921 Y11.9166 
G01 X18.6414 Y11.8406 
G01 X18.8008 Y11.7888 
G01 X18.9662 Y11.7626 
G01 X19.1338 Y11.7626 
G01 X19.2992 Y11.7888 
G01 X19.4586 Y11.8406 
G01 X19.6079 Y11.9166 
G01 X19.7434 Y12.0151 
G01 X19.8619 Y12.1336 
G01 X19.9604 Y12.2691 
G01 X20.0364 Y12.4184 
G01 X20.0882 Y12.5777 
G01 X20.1144 Y12.7432 
G00 Z2.4000 
G00 X20.0364 Y15.7756 
G01 Z-0.1000 F100.00 
G01 X19.9604 Y15.9249 F100.00 
G01 X19.8619 Y16.0604 
G01 X19.7434 Y16.1789 
G01 X19.6079 Y16.2774 
G01 X19.4586 Y16.3534 
G01 X19.2992 Y16.4052 
G01 X19.1338 Y16.4314 
G01 X18.9662 Y16.4314 
G01 X18.8008 Y16.4052 
G01 X18.6414 Y16.3534 
G01 X18.4921 Y16.2774 
G01 X18.3566 Y16.1789 
G01 X18.2381 Y16.0604 
G01 X18.1396 Y15.9249 
G01 X18.0636 Y15.7756 
G01 X18.0118 Y15.6162 
G01 X17.9856 Y15.4508 
G01 X17.9856 Y15.2832 
G01 X18.0118 Y15.1178 
G01 X18.0636 Y14.9584 
G01 X18.1396 Y14.8091 
G01 X18.2381 Y14.6736 
G01 X18.3566 Y14.5551 
G01 X18.4921 Y14.4566 
G01 X18.6414 Y14.3806 
G01 X18.8008 Y14.3288 
G01 X18.9662 Y14.3026 
G01 X19.1338 Y14.3026 
G01 X19.2992 Y14.3288 
G01 X19.4586 Y14.3806 
G01 X19.6079 Y14.4566 
G01 X19.6662 Y14.4990 
G01 X20.7796 Y13.3856 
G01 X20.7796 Y9.8327 
G01 X20.8175 Y9.6912 
G01 X20.8908 Y9.5644 
G01 X20.9944 Y9.4608 
G01 X25.4484 Y5.0068 
G01 X25.5752 Y4.9335 
G01 X25.7167 Y4.8956 
G01 X60.0083 Y4.8956 
G01 X60.1498 Y4.9335 
G01 X60.2766 Y5.0068 
G01 X60.3802 Y5.1104 
G01 X66.1082 Y10.8384 
G01 X66.1815 Y10.9652 
G01 X66.2194 Y11.1067 
G01 X66.2194 Y12.7419 
G01 X66.2475 Y12.7562 
G01 X66.3895 Y12.8594 
G01 X66.5136 Y12.9835 
G01 X66.6168 Y13.1255 
G01 X66.6965 Y13.2819 
G01 X66.7507 Y13.4489 
G01 X66.7782 Y13.6222 
G01 X66.7782 Y13.7978 
G01 X66.7507 Y13.9711 
G01 X66.6965 Y14.1381 
G01 X66.6168 Y14.2945 
G01 X66.5136 Y14.4365 
G01 X66.3895 Y14.5606 
G01 X66.2475 Y14.6638 
G01 X66.0911 Y14.7435 
G01 X65.9241 Y14.7977 
G01 X65.7508 Y14.8252 
G01 X65.5752 Y14.8252 
G01 X65.4019 Y14.7977 
G01 X65.2349 Y14.7435 
G01 X65.0785 Y14.6638 
G01 X64.9365 Y14.5606 
G01 X64.8124 Y14.4365 
G01 X64.7092 Y14.2945 
G01 X64.6295 Y14.1381 
G01 X64.5753 Y13.9711 
G01 X64.5478 Y13.7978 
G01 X64.5478 Y13.6222 
G01 X64.5753 Y13.4489 
G01 X64.6295 Y13.2819 
G01 X64.7092 Y13.1255 
G01 X64.8124 Y12.9835 
G01 X64.9365 Y12.8594 
G01 X65.0785 Y12.7562 
G01 X65.1066 Y12.7419 
G01 X65.1066 Y11.4105 
G01 X59.7045 Y6.0084 
G01 X26.0205 Y6.0084 
G01 X21.8924 Y10.1365 
G01 X21.8924 Y13.6893 
G01 X21.8545 Y13.8308 
G01 X21.7812 Y13.9577 
G01 X20.0716 Y15.6674 
G01 X20.0364 Y15.7756 
G00 Z2.4000 
G00 X20.1144 Y27.9832 
G01 Z-0.1000 F100.00 
G01 X20.1144 Y28.1508 F100.00 
G01 X20.0882 Y28.3162 
G01 X20.0364 Y28.4756 
G01 X19.9604 Y28.6249 
G01 X19.8619 Y28.7604 
G01 X19.7434 Y28.8789 
G01 X19.6079 Y28.9774 
G01 X19.4586 Y29.0534 
G01 X19.2992 Y29.1052 
G01 X19.1338 Y29.1314 
G01 X18.9662 Y29.1314 
G01 X18.8008 Y29.1052 
G01 X18.6414 Y29.0534 
G01 X18.4921 Y28.9774 
G01 X18.3566 Y28.8789 
G01 X18.2381 Y28.7604 
G01 X18.1396 Y28.6249 
G01 X18.0636 Y28.4756 
G01 X18.0118 Y28.3162 
G01 X17.9856 Y28.1508 
G01 X17.9856 Y27.9832 
G01 X18.0118 Y27.8178 
G01 X18.0636 Y27.6584 
G01 X18.1396 Y27.5091 
G01 X18.2381 Y27.3736 
G01 X18.3566 Y27.2551 
G01 X18.4921 Y27.1566 
G01 X18.6414 Y27.0806 
G01 X18.8008 Y27.0288 
G01 X18.9662 Y27.0026 
G01 X19.1338 Y27.0026 
G01 X19.2992 Y27.0288 
G01 X19.4586 Y27.0806 
G01 X19.6079 Y27.1566 
G01 X19.7434 Y27.2551 
G01 X19.8619 Y27.3736 
G01 X19.9604 Y27.5091 
G01 X20.0364 Y27.6584 
G01 X20.0882 Y27.8178 
G01 X20.1144 Y27.9832 
G00 Z2.4000 
G00 X20.1144 Y30.5232 
G01 Z-0.1000 F100.00 
G01 X20.1144 Y30.6908 F100.00 
G01 X20.0882 Y30.8562 
G01 X20.0364 Y31.0156 
G01 X19.9604 Y31.1649 
G01 X19.8619 Y31.3004 
G01 X19.7434 Y31.4189 
G01 X19.6079 Y31.5174 
G01 X19.4586 Y31.5934 
G01 X19.2992 Y31.6452 
G01 X19.1338 Y31.6714 
G01 X18.9662 Y31.6714 
G01 X18.8008 Y31.6452 
G01 X18.6414 Y31.5934 
G01 X18.4921 Y31.5174 
G01 X18.3566 Y31.4189 
G01 X18.2381 Y31.3004 
G01 X18.1396 Y31.1649 
G01 X18.0636 Y31.0156 
G01 X18.0118 Y30.8562 
G01 X17.9856 Y30.6908 
G01 X17.9856 Y30.5232 
G01 X18.0118 Y30.3578 
G01 X18.0636 Y30.1984 
G01 X18.1396 Y30.0491 
G01 X18.2381 Y29.9136 
G01 X18.3566 Y29.7951 
G01 X18.4921 Y29.6966 
G01 X18.6414 Y29.6206 
G01 X18.8008 Y29.5688 
G01 X18.9662 Y29.5426 
G01 X19.1338 Y29.5426 
G01 X19.2992 Y29.5688 
G01 X19.4586 Y29.6206 
G01 X19.6079 Y29.6966 
G01 X19.7434 Y29.7951 
G01 X19.8619 Y29.9136 
G01 X19.9604 Y30.0491 
G01 X20.0364 Y30.1984 
G01 X20.0882 Y30.3578 
G01 X20.1144 Y30.5232 
G00 Z2.4000 
G00 X20.1144 Y33.0632 
G01 Z-0.1000 F100.00 
G01 X20.1144 Y33.2308 F100.00 
G01 X20.0882 Y33.3962 
G01 X20.0364 Y33.5556 
G01 X19.9604 Y33.7049 
G01 X19.8619 Y33.8404 
G01 X19.7434 Y33.9589 
G01 X19.6079 Y34.0574 
G01 X19.4586 Y34.1334 
G01 X19.2992 Y34.1852 
G01 X19.1338 Y34.2114 
G01 X18.9662 Y34.2114 
G01 X18.8008 Y34.1852 
G01 X18.6414 Y34.1334 
G01 X18.4921 Y34.0574 
G01 X18.3566 Y33.9589 
G01 X18.2381 Y33.8404 
G01 X18.1396 Y33.7049 
G01 X18.0636 Y33.5556 
G01 X18.0118 Y33.3962 
G01 X17.9856 Y33.2308 
G01 X17.9856 Y33.0632 
G01 X18.0118 Y32.8978 
G01 X18.0636 Y32.7384 
G01 X18.1396 Y32.5891 
G01 X18.2381 Y32.4536 
G01 X18.3566 Y32.3351 
G01 X18.4921 Y32.2366 
G01 X18.6414 Y32.1606 
G01 X18.8008 Y32.1088 
G01 X18.9662 Y32.0826 
G01 X19.1338 Y32.0826 
G01 X19.2992 Y32.1088 
G01 X19.4586 Y32.1606 
G01 X19.6079 Y32.2366 
G01 X19.7434 Y32.3351 
G01 X19.8619 Y32.4536 
G01 X19.9604 Y32.5891 
G01 X20.0364 Y32.7384 
G01 X20.0882 Y32.8978 
G01 X20.1144 Y33.0632 
G00 Z2.4000 
G00 X20.1144 Y35.6032 
G01 Z-0.1000 F100.00 
G01 X20.1144 Y35.7708 F100.00 
G01 X20.0882 Y35.9362 
G01 X20.0364 Y36.0956 
G01 X19.9604 Y36.2449 
G01 X19.8619 Y36.3804 
G01 X19.7434 Y36.4989 
G01 X19.6079 Y36.5974 
G01 X19.4586 Y36.6734 
G01 X19.2992 Y36.7252 
G01 X19.1338 Y36.7514 
G01 X18.9662 Y36.7514 
G01 X18.8008 Y36.7252 
G01 X18.6414 Y36.6734 
G01 X18.4921 Y36.5974 
G01 X18.3566 Y36.4989 
G01 X18.2381 Y36.3804 
G01 X18.1396 Y36.2449 
G01 X18.0636 Y36.0956 
G01 X18.0118 Y35.9362 
G01 X17.9856 Y35.7708 
G01 X17.9856 Y35.6032 
G01 X18.0118 Y35.4378 
G01 X18.0636 Y35.2784 
G01 X18.1396 Y35.1291 
G01 X18.2381 Y34.9936 
G01 X18.3566 Y34.8751 
G01 X18.4921 Y34.7766 
G01 X18.6414 Y34.7006 
G01 X18.8008 Y34.6488 
G01 X18.9662 Y34.6226 
G01 X19.1338 Y34.6226 
G01 X19.2992 Y34.6488 
G01 X19.4586 Y34.7006 
G01 X19.6079 Y34.7766 
G01 X19.7434 Y34.8751 
G01 X19.8619 Y34.9936 
G01 X19.9604 Y35.1291 
G01 X20.0364 Y35.2784 
G01 X20.0882 Y35.4378 
G01 X20.1144 Y35.6032 
G00 Z2.4000 
G00 X20.1144 Y40.6832 
G01 Z-0.1000 F100.00 
G01 X20.1144 Y40.8508 F100.00 
G01 X20.0882 Y41.0162 
G01 X20.0364 Y41.1756 
G01 X19.9604 Y41.3249 
G01 X19.8619 Y41.4604 
G01 X19.7434 Y41.5789 
G01 X19.6079 Y41.6774 
G01 X19.4586 Y41.7534 
G01 X19.2992 Y41.8052 
G01 X19.1338 Y41.8314 
G01 X18.9662 Y41.8314 
G01 X18.8008 Y41.8052 
G01 X18.6414 Y41.7534 
G01 X18.4921 Y41.6774 
G01 X18.3566 Y41.5789 
G01 X18.2381 Y41.4604 
G01 X18.1396 Y41.3249 
G01 X18.0636 Y41.1756 
G01 X18.0118 Y41.0162 
G01 X17.9856 Y40.8508 
G01 X17.9856 Y40.6832 
G01 X18.0118 Y40.5177 
G01 X18.0636 Y40.3584 
G01 X18.1396 Y40.2091 
G01 X18.2381 Y40.0736 
G01 X18.3566 Y39.9551 
G01 X18.4921 Y39.8566 
G01 X18.6414 Y39.7806 
G01 X18.8008 Y39.7288 
G01 X18.9662 Y39.7026 
G01 X19.1338 Y39.7026 
G01 X19.2992 Y39.7288 
G01 X19.4586 Y39.7806 
G01 X19.6079 Y39.8566 
G01 X19.7434 Y39.9551 
G01 X19.8619 Y40.0736 
G01 X19.9604 Y40.2091 
G01 X20.0364 Y40.3584 
G01 X20.0882 Y40.5177 
G01 X20.1144 Y40.6832 
G00 Z2.4000 
G00 X20.1144 Y43.2232 
G01 Z-0.1000 F100.00 
G01 X20.1144 Y43.3908 F100.00 
G01 X20.0882 Y43.5562 
G01 X20.0364 Y43.7156 
G01 X19.9604 Y43.8649 
G01 X19.8619 Y44.0004 
G01 X19.7434 Y44.1189 
G01 X19.6079 Y44.2174 
G01 X19.4586 Y44.2934 
G01 X19.2992 Y44.3452 
G01 X19.1338 Y44.3714 
G01 X18.9662 Y44.3714 
G01 X18.8008 Y44.3452 
G01 X18.6414 Y44.2934 
G01 X18.4921 Y44.2174 
G01 X18.3566 Y44.1189 
G01 X18.2381 Y44.0004 
G01 X18.1396 Y43.8649 
G01 X18.0636 Y43.7156 
G01 X18.0118 Y43.5562 
G01 X17.9856 Y43.3908 
G01 X17.9856 Y43.2232 
G01 X18.0118 Y43.0577 
G01 X18.0636 Y42.8984 
G01 X18.1396 Y42.7491 
G01 X18.2381 Y42.6136 
G01 X18.3566 Y42.4951 
G01 X18.4921 Y42.3966 
G01 X18.6414 Y42.3206 
G01 X18.8008 Y42.2688 
G01 X18.9662 Y42.2426 
G01 X19.1338 Y42.2426 
G01 X19.2992 Y42.2688 
G01 X19.4586 Y42.3206 
G01 X19.6079 Y42.3966 
G01 X19.7434 Y42.4951 
G01 X19.8619 Y42.6136 
G01 X19.9604 Y42.7491 
G01 X20.0364 Y42.8984 
G01 X20.0882 Y43.0577 
G01 X20.1144 Y43.2232 
G00 Z2.4000 
G00 X20.1144 Y45.7632 
G01 Z-0.1000 F100.00 
G01 X20.1144 Y45.9308 F100.00 
G01 X20.0882 Y46.0962 
G01 X20.0364 Y46.2556 
G01 X19.9604 Y46.4049 
G01 X19.8619 Y46.5404 
G01 X19.7434 Y46.6589 
G01 X19.6079 Y46.7574 
G01 X19.4586 Y46.8334 
G01 X19.2992 Y46.8852 
G01 X19.1338 Y46.9114 
G01 X18.9662 Y46.9114 
G01 X18.8008 Y46.8852 
G01 X18.6414 Y46.8334 
G01 X18.4921 Y46.7574 
G01 X18.3566 Y46.6589 
G01 X18.2381 Y46.5404 
G01 X18.1396 Y46.4049 
G01 X18.0636 Y46.2556 
G01 X18.0118 Y46.0962 
G01 X17.9856 Y45.9308 
G01 X17.9856 Y45.7632 
G01 X18.0118 Y45.5978 
G01 X18.0636 Y45.4384 
G01 X18.1396 Y45.2891 
G01 X18.2381 Y45.1536 
G01 X18.3566 Y45.0351 
G01 X18.4921 Y44.9366 
G01 X18.6414 Y44.8606 
G01 X18.8008 Y44.8088 
G01 X18.9662 Y44.7826 
G01 X19.1338 Y44.7826 
G01 X19.2992 Y44.8088 
G01 X19.4586 Y44.8606 
G01 X19.6079 Y44.9366 
G01 X19.7434 Y45.0351 
G01 X19.8619 Y45.1536 
G01 X19.9604 Y45.2891 
G01 X20.0364 Y45.4384 
G01 X20.0882 Y45.5978 
G01 X20.1144 Y45.7632 
G00 Z2.4000 
G00 X4.8744 Y40.6832 
G01 Z-0.1000 F100.00 
G01 X4.8744 Y40.8508 F100.00 
G01 X4.8482 Y41.0162 
G01 X4.7964 Y41.1756 
G01 X4.7204 Y41.3249 
G01 X4.6219 Y41.4604 
G01 X4.5034 Y41.5789 
G01 X4.3679 Y41.6774 
G01 X4.2186 Y41.7534 
G01 X4.0592 Y41.8052 
G01 X3.8938 Y41.8314 
G01 X3.7262 Y41.8314 
G01 X3.5608 Y41.8052 
G01 X3.4014 Y41.7534 
G01 X3.2521 Y41.6774 
G01 X3.1166 Y41.5789 
G01 X2.9981 Y41.4604 
G01 X2.8996 Y41.3249 
G01 X2.8236 Y41.1756 
G01 X2.7718 Y41.0162 
G01 X2.7456 Y40.8508 
G01 X2.7456 Y40.6832 
G01 X2.7718 Y40.5177 
G01 X2.8236 Y40.3584 
G01 X2.8996 Y40.2091 
G01 X2.9981 Y40.0736 
G01 X3.1166 Y39.9551 
G01 X3.2521 Y39.8566 
G01 X3.4014 Y39.7806 
G01 X3.5608 Y39.7288 
G01 X3.7262 Y39.7026 
G01 X3.8938 Y39.7026 
G01 X4.0592 Y39.7288 
G01 X4.2186 Y39.7806 
G01 X4.3679 Y39.8566 
G01 X4.5034 Y39.9551 
G01 X4.6219 Y40.0736 
G01 X4.7204 Y40.2091 
G01 X4.7964 Y40.3584 
G01 X4.8482 Y40.5177 
G01 X4.8744 Y40.6832 
G00 Z2.4000 
G00 X4.8744 Y35.6032 
G01 Z-0.1000 F100.00 
G01 X4.8744 Y35.7708 F100.00 
G01 X4.8482 Y35.9362 
G01 X4.7964 Y36.0956 
G01 X4.7204 Y36.2449 
G01 X4.6219 Y36.3804 
G01 X4.5034 Y36.4989 
G01 X4.3679 Y36.5974 
G01 X4.2186 Y36.6734 
G01 X4.0592 Y36.7252 
G01 X3.8938 Y36.7514 
G01 X3.7262 Y36.7514 
G01 X3.5608 Y36.7252 
G01 X3.4014 Y36.6734 
G01 X3.2521 Y36.5974 
G01 X3.1166 Y36.4989 
G01 X2.9981 Y36.3804 
G01 X2.8996 Y36.2449 
G01 X2.8236 Y36.0956 
G01 X2.7718 Y35.9362 
G01 X2.7456 Y35.7708 
G01 X2.7456 Y35.6032 
G01 X2.7718 Y35.4378 
G01 X2.8236 Y35.2784 
G01 X2.8996 Y35.1291 
G01 X2.9981 Y34.9936 
G01 X3.1166 Y34.8751 
G01 X3.2521 Y34.7766 
G01 X3.4014 Y34.7006 
G01 X3.5608 Y34.6488 
G01 X3.7262 Y34.6226 
G01 X3.8938 Y34.6226 
G01 X4.0592 Y34.6488 
G01 X4.2186 Y34.7006 
G01 X4.3679 Y34.7766 
G01 X4.5034 Y34.8751 
G01 X4.6219 Y34.9936 
G01 X4.7204 Y35.1291 
G01 X4.7964 Y35.2784 
G01 X4.8482 Y35.4378 
G01 X4.8744 Y35.6032 
G00 Z2.4000 
G00 X4.8744 Y33.0632 
G01 Z-0.1000 F100.00 
G01 X4.8744 Y33.2308 F100.00 
G01 X4.8482 Y33.3962 
G01 X4.7964 Y33.5556 
G01 X4.7204 Y33.7049 
G01 X4.6219 Y33.8404 
G01 X4.5034 Y33.9589 
G01 X4.3679 Y34.0574 
G01 X4.2186 Y34.1334 
G01 X4.0592 Y34.1852 
G01 X3.8938 Y34.2114 
G01 X3.7262 Y34.2114 
G01 X3.5608 Y34.1852 
G01 X3.4014 Y34.1334 
G01 X3.2521 Y34.0574 
G01 X3.1166 Y33.9589 
G01 X2.9981 Y33.8404 
G01 X2.8996 Y33.7049 
G01 X2.8236 Y33.5556 
G01 X2.7718 Y33.3962 
G01 X2.7456 Y33.2308 
G01 X2.7456 Y33.0632 
G01 X2.7718 Y32.8978 
G01 X2.8236 Y32.7384 
G01 X2.8996 Y32.5891 
G01 X2.9981 Y32.4536 
G01 X3.1166 Y32.3351 
G01 X3.2521 Y32.2366 
G01 X3.4014 Y32.1606 
G01 X3.5608 Y32.1088 
G01 X3.7262 Y32.0826 
G01 X3.8938 Y32.0826 
G01 X4.0592 Y32.1088 
G01 X4.2186 Y32.1606 
G01 X4.3679 Y32.2366 
G01 X4.5034 Y32.3351 
G01 X4.6219 Y32.4536 
G01 X4.7204 Y32.5891 
G01 X4.7964 Y32.7384 
G01 X4.8482 Y32.8978 
G01 X4.8744 Y33.0632 
G00 Z2.4000 
G00 X4.8744 Y30.5232 
G01 Z-0.1000 F100.00 
G01 X4.8744 Y30.6908 F100.00 
G01 X4.8482 Y30.8562 
G01 X4.7964 Y31.0156 
G01 X4.7204 Y31.1649 
G01 X4.6219 Y31.3004 
G01 X4.5034 Y31.4189 
G01 X4.3679 Y31.5174 
G01 X4.2186 Y31.5934 
G01 X4.0592 Y31.6452 
G01 X3.8938 Y31.6714 
G01 X3.7262 Y31.6714 
G01 X3.5608 Y31.6452 
G01 X3.4014 Y31.5934 
G01 X3.2521 Y31.5174 
G01 X3.1166 Y31.4189 
G01 X2.9981 Y31.3004 
G01 X2.8996 Y31.1649 
G01 X2.8236 Y31.0156 
G01 X2.7718 Y30.8562 
G01 X2.7456 Y30.6908 
G01 X2.7456 Y30.5232 
G01 X2.7718 Y30.3578 
G01 X2.8236 Y30.1984 
G01 X2.8996 Y30.0491 
G01 X2.9981 Y29.9136 
G01 X3.1166 Y29.7951 
G01 X3.2521 Y29.6966 
G01 X3.4014 Y29.6206 
G01 X3.5608 Y29.5688 
G01 X3.7262 Y29.5426 
G01 X3.8938 Y29.5426 
G01 X4.0592 Y29.5688 
G01 X4.2186 Y29.6206 
G01 X4.3679 Y29.6966 
G01 X4.5034 Y29.7951 
G01 X4.6219 Y29.9136 
G01 X4.7204 Y30.0491 
G01 X4.7964 Y30.1984 
G01 X4.8482 Y30.3578 
G01 X4.8744 Y30.5232 
G00 Z2.4000 
G00 X4.8744 Y27.9832 
G01 Z-0.1000 F100.00 
G01 X4.8744 Y28.1508 F100.00 
G01 X4.8482 Y28.3162 
G01 X4.7964 Y28.4756 
G01 X4.7204 Y28.6249 
G01 X4.6219 Y28.7604 
G01 X4.5034 Y28.8789 
G01 X4.3679 Y28.9774 
G01 X4.2186 Y29.0534 
G01 X4.0592 Y29.1052 
G01 X3.8938 Y29.1314 
G01 X3.7262 Y29.1314 
G01 X3.5608 Y29.1052 
G01 X3.4014 Y29.0534 
G01 X3.2521 Y28.9774 
G01 X3.1166 Y28.8789 
G01 X2.9981 Y28.7604 
G01 X2.8996 Y28.6249 
G01 X2.8236 Y28.4756 
G01 X2.7718 Y28.3162 
G01 X2.7456 Y28.1508 
G01 X2.7456 Y27.9832 
G01 X2.7718 Y27.8178 
G01 X2.8236 Y27.6584 
G01 X2.8996 Y27.5091 
G01 X2.9981 Y27.3736 
G01 X3.1166 Y27.2551 
G01 X3.2521 Y27.1566 
G01 X3.4014 Y27.0806 
G01 X3.5608 Y27.0288 
G01 X3.7262 Y27.0026 
G01 X3.8938 Y27.0026 
G01 X4.0592 Y27.0288 
G01 X4.2186 Y27.0806 
G01 X4.3679 Y27.1566 
G01 X4.5034 Y27.2551 
G01 X4.6219 Y27.3736 
G01 X4.7204 Y27.5091 
G01 X4.7964 Y27.6584 
G01 X4.8482 Y27.8178 
G01 X4.8744 Y27.9832 
G00 Z2.4000 
G00 X4.8744 Y22.9032 
G01 Z-0.1000 F100.00 
G01 X4.8744 Y23.0708 F100.00 
G01 X4.8482 Y23.2362 
G01 X4.7964 Y23.3956 
G01 X4.7204 Y23.5449 
G01 X4.6219 Y23.6804 
G01 X4.5034 Y23.7989 
G01 X4.3679 Y23.8974 
G01 X4.2186 Y23.9734 
G01 X4.0592 Y24.0252 
G01 X3.8938 Y24.0514 
G01 X3.7262 Y24.0514 
G01 X3.5608 Y24.0252 
G01 X3.4014 Y23.9734 
G01 X3.2521 Y23.8974 
G01 X3.1166 Y23.7989 
G01 X2.9981 Y23.6804 
G01 X2.8996 Y23.5449 
G01 X2.8236 Y23.3956 
G01 X2.7718 Y23.2362 
G01 X2.7456 Y23.0708 
G01 X2.7456 Y22.9032 
G01 X2.7718 Y22.7378 
G01 X2.8236 Y22.5784 
G01 X2.8996 Y22.4291 
G01 X2.9981 Y22.2936 
G01 X3.1166 Y22.1751 
G01 X3.2521 Y22.0766 
G01 X3.4014 Y22.0006 
G01 X3.5608 Y21.9488 
G01 X3.7262 Y21.9226 
G01 X3.8938 Y21.9226 
G01 X4.0592 Y21.9488 
G01 X4.2186 Y22.0006 
G01 X4.3679 Y22.0766 
G01 X4.5034 Y22.1751 
G01 X4.6219 Y22.2936 
G01 X4.7204 Y22.4291 
G01 X4.7964 Y22.5784 
G01 X4.8482 Y22.7378 
G01 X4.8744 Y22.9032 
G00 Z2.4000 
G00 X4.8744 Y20.3632 
G01 Z-0.1000 F100.00 
G01 X4.8744 Y20.5308 F100.00 
G01 X4.8482 Y20.6962 
G01 X4.7964 Y20.8556 
G01 X4.7204 Y21.0049 
G01 X4.6219 Y21.1404 
G01 X4.5034 Y21.2589 
G01 X4.3679 Y21.3574 
G01 X4.2186 Y21.4334 
G01 X4.0592 Y21.4852 
G01 X3.8938 Y21.5114 
G01 X3.7262 Y21.5114 
G01 X3.5608 Y21.4852 
G01 X3.4014 Y21.4334 
G01 X3.2521 Y21.3574 
G01 X3.1166 Y21.2589 
G01 X2.9981 Y21.1404 
G01 X2.8996 Y21.0049 
G01 X2.8236 Y20.8556 
G01 X2.7718 Y20.6962 
G01 X2.7456 Y20.5308 
G01 X2.7456 Y20.3632 
G01 X2.7718 Y20.1977 
G01 X2.8236 Y20.0384 
G01 X2.8996 Y19.8891 
G01 X2.9981 Y19.7536 
G01 X3.1166 Y19.6351 
G01 X3.2521 Y19.5366 
G01 X3.4014 Y19.4606 
G01 X3.5608 Y19.4088 
G01 X3.7262 Y19.3826 
G01 X3.8938 Y19.3826 
G01 X4.0592 Y19.4088 
G01 X4.2186 Y19.4606 
G01 X4.3679 Y19.5366 
G01 X4.5034 Y19.6351 
G01 X4.6219 Y19.7536 
G01 X4.7204 Y19.8891 
G01 X4.7964 Y20.0384 
G01 X4.8482 Y20.1977 
G01 X4.8744 Y20.3632 
G00 Z2.4000 
G00 X4.8744 Y17.8232 
G01 Z-0.1000 F100.00 
G01 X4.8744 Y17.9908 F100.00 
G01 X4.8482 Y18.1562 
G01 X4.7964 Y18.3156 
G01 X4.7204 Y18.4649 
G01 X4.6219 Y18.6004 
G01 X4.5034 Y18.7189 
G01 X4.3679 Y18.8174 
G01 X4.2186 Y18.8934 
G01 X4.0592 Y18.9452 
G01 X3.8938 Y18.9714 
G01 X3.7262 Y18.9714 
G01 X3.5608 Y18.9452 
G01 X3.4014 Y18.8934 
G01 X3.2521 Y18.8174 
G01 X3.1166 Y18.7189 
G01 X2.9981 Y18.6004 
G01 X2.8996 Y18.4649 
G01 X2.8236 Y18.3156 
G01 X2.7718 Y18.1562 
G01 X2.7456 Y17.9908 
G01 X2.7456 Y17.8232 
G01 X2.7718 Y17.6578 
G01 X2.8236 Y17.4984 
G01 X2.8996 Y17.3491 
G01 X2.9981 Y17.2136 
G01 X3.1166 Y17.0951 
G01 X3.2521 Y16.9966 
G01 X3.4014 Y16.9206 
G01 X3.5608 Y16.8688 
G01 X3.7262 Y16.8426 
G01 X3.8938 Y16.8426 
G01 X4.0592 Y16.8688 
G01 X4.2186 Y16.9206 
G01 X4.3679 Y16.9966 
G01 X4.5034 Y17.0951 
G01 X4.6219 Y17.2136 
G01 X4.7204 Y17.3491 
G01 X4.7964 Y17.4984 
G01 X4.8482 Y17.6578 
G01 X4.8744 Y17.8232 
G00 Z2.4000 
G00 X4.8744 Y15.2832 
G01 Z-0.1000 F100.00 
G01 X4.8744 Y15.4508 F100.00 
G01 X4.8482 Y15.6162 
G01 X4.7964 Y15.7756 
G01 X4.7204 Y15.9249 
G01 X4.6219 Y16.0604 
G01 X4.5034 Y16.1789 
G01 X4.3679 Y16.2774 
G01 X4.2186 Y16.3534 
G01 X4.0592 Y16.4052 
G01 X3.8938 Y16.4314 
G01 X3.7262 Y16.4314 
G01 X3.5608 Y16.4052 
G01 X3.4014 Y16.3534 
G01 X3.2521 Y16.2774 
G01 X3.1166 Y16.1789 
G01 X2.9981 Y16.0604 
G01 X2.8996 Y15.9249 
G01 X2.8236 Y15.7756 
G01 X2.7718 Y15.6162 
G01 X2.7456 Y15.4508 
G01 X2.7456 Y15.2832 
G01 X2.7718 Y15.1178 
G01 X2.8236 Y14.9584 
G01 X2.8996 Y14.8091 
G01 X2.9981 Y14.6736 
G01 X3.1166 Y14.5551 
G01 X3.2521 Y14.4566 
G01 X3.4014 Y14.3806 
G01 X3.5608 Y14.3288 
G01 X3.7262 Y14.3026 
G01 X3.8938 Y14.3026 
G01 X4.0592 Y14.3288 
G01 X4.2186 Y14.3806 
G01 X4.3679 Y14.4566 
G01 X4.5034 Y14.5551 
G01 X4.6219 Y14.6736 
G01 X4.7204 Y14.8091 
G01 X4.7964 Y14.9584 
G01 X4.8482 Y15.1178 
G01 X4.8744 Y15.2832 
G00 Z2.4000 
G00 X4.8744 Y12.7432 
G01 Z-0.1000 F100.00 
G01 X4.8744 Y12.9108 F100.00 
G01 X4.8482 Y13.0762 
G01 X4.7964 Y13.2356 
G01 X4.7204 Y13.3849 
G01 X4.6219 Y13.5204 
G01 X4.5034 Y13.6389 
G01 X4.3679 Y13.7374 
G01 X4.2186 Y13.8134 
G01 X4.0592 Y13.8652 
G01 X3.8938 Y13.8914 
G01 X3.7262 Y13.8914 
G01 X3.5608 Y13.8652 
G01 X3.4014 Y13.8134 
G01 X3.2521 Y13.7374 
G01 X3.1166 Y13.6389 
G01 X2.9981 Y13.5204 
G01 X2.8996 Y13.3849 
G01 X2.8236 Y13.2356 
G01 X2.7718 Y13.0762 
G01 X2.7456 Y12.9108 
G01 X2.7456 Y12.7432 
G01 X2.7718 Y12.5777 
G01 X2.8236 Y12.4184 
G01 X2.8996 Y12.2691 
G01 X2.9981 Y12.1336 
G01 X3.1166 Y12.0151 
G01 X3.2521 Y11.9166 
G01 X3.4014 Y11.8406 
G01 X3.5608 Y11.7888 
G01 X3.7262 Y11.7626 
G01 X3.8938 Y11.7626 
G01 X4.0592 Y11.7888 
G01 X4.2186 Y11.8406 
G01 X4.3679 Y11.9166 
G01 X4.5034 Y12.0151 
G01 X4.6219 Y12.1336 
G01 X4.7204 Y12.2691 
G01 X4.7964 Y12.4184 
G01 X4.8482 Y12.5777 
G01 X4.8744 Y12.7432 
G00 Z2.4000 
G00 X4.7339 Y11.3514 
G01 Z-0.1000 F100.00 
G01 X2.8861 Y11.3514 F100.00 
G01 X2.8216 Y11.3247 
G01 X2.7723 Y11.2754 
G01 X2.7456 Y11.2109 
G01 X2.7456 Y9.3631 
G01 X2.7723 Y9.2986 
G01 X2.8216 Y9.2493 
G01 X2.8861 Y9.2226 
G01 X4.7339 Y9.2226 
G01 X4.7984 Y9.2493 
G01 X4.8477 Y9.2986 
G01 X4.8744 Y9.3631 
G01 X4.8744 Y11.2109 
G01 X4.8477 Y11.2754 
G01 X4.7984 Y11.3247 
G01 X4.7339 Y11.3514 
G00 Z2.4000 
G00 X28.2424 Y22.0247 
G01 Z-0.1000 F100.00 
G01 X28.2424 Y22.1713 F100.00 
G01 X28.2045 Y22.3128 
G01 X28.1312 Y22.4396 
G01 X24.7022 Y25.8686 
G01 X24.5986 Y25.9722 
G01 X24.4718 Y26.0455 
G01 X24.3302 Y26.0834 
G01 X19.9611 Y26.0834 
G01 X19.8619 Y26.2204 
G01 X19.7434 Y26.3389 
G01 X19.6079 Y26.4374 
G01 X19.4586 Y26.5134 
G01 X19.2992 Y26.5652 
G01 X19.1338 Y26.5914 
G01 X18.9662 Y26.5914 
G01 X18.8008 Y26.5652 
G01 X18.6414 Y26.5134 
G01 X18.4921 Y26.4374 
G01 X18.3566 Y26.3389 
G01 X18.2381 Y26.2204 
G01 X18.1396 Y26.0849 
G01 X18.0636 Y25.9356 
G01 X18.0118 Y25.7762 
G01 X17.9856 Y25.6108 
G01 X17.9856 Y25.4432 
G01 X18.0118 Y25.2778 
G01 X18.0636 Y25.1184 
G01 X18.1396 Y24.9691 
G01 X18.2381 Y24.8336 
G01 X18.3566 Y24.7151 
G01 X18.4921 Y24.6166 
G01 X18.6414 Y24.5406 
G01 X18.8008 Y24.4888 
G01 X18.9662 Y24.4626 
G01 X19.1338 Y24.4626 
G01 X19.2992 Y24.4888 
G01 X19.4586 Y24.5406 
G01 X19.6079 Y24.6166 
G01 X19.7434 Y24.7151 
G01 X19.8619 Y24.8336 
G01 X19.9604 Y24.9691 
G01 X24.0265 Y24.9706 
G01 X27.1296 Y21.8675 
G01 X27.1296 Y19.8657 
G01 X27.1675 Y19.7242 
G01 X27.2408 Y19.5974 
G01 X32.0358 Y14.8023 
G01 X32.0358 Y12.6571 
G01 X32.0737 Y12.5156 
G01 X32.1470 Y12.3887 
G01 X33.3537 Y11.1820 
G01 X33.4806 Y11.1087 
G01 X33.6221 Y11.0708 
G01 X42.0354 Y11.0708 
G01 X42.1769 Y11.1087 
G01 X42.3038 Y11.1820 
G01 X42.4074 Y11.2856 
G01 X43.1446 Y12.0228 
G01 X43.2482 Y12.1264 
G01 X43.3215 Y12.2533 
G01 X43.3594 Y12.3948 
G01 X43.3594 Y12.7419 
G01 X43.3875 Y12.7562 
G01 X43.5295 Y12.8594 
G01 X43.6536 Y12.9835 
G01 X43.7568 Y13.1255 
G01 X43.8365 Y13.2819 
G01 X43.8907 Y13.4489 
G01 X43.9182 Y13.6222 
G01 X43.9182 Y13.7978 
G01 X43.8907 Y13.9711 
G01 X43.8365 Y14.1381 
G01 X43.7568 Y14.2945 
G01 X43.6536 Y14.4365 
G01 X43.5295 Y14.5606 
G01 X43.3875 Y14.6638 
G01 X43.2311 Y14.7435 
G01 X43.0641 Y14.7977 
G01 X42.8908 Y14.8252 
G01 X42.7152 Y14.8252 
G01 X42.5419 Y14.7977 
G01 X42.3749 Y14.7435 
G01 X42.2185 Y14.6638 
G01 X42.0765 Y14.5606 
G01 X41.9524 Y14.4365 
G01 X41.8492 Y14.2945 
G01 X41.7695 Y14.1381 
G01 X41.7153 Y13.9711 
G01 X41.6878 Y13.7978 
G01 X41.6878 Y13.6222 
G01 X41.7153 Y13.4489 
G01 X41.7695 Y13.2819 
G01 X41.8492 Y13.1255 
G01 X41.9524 Y12.9835 
G01 X42.0765 Y12.8594 
G01 X42.2185 Y12.7562 
G01 X42.2466 Y12.7419 
G01 X42.2466 Y12.6985 
G01 X41.7317 Y12.1836 
G01 X33.9258 Y12.1836 
G01 X33.1486 Y12.9608 
G01 X33.1486 Y15.1061 
G01 X33.1107 Y15.2476 
G01 X33.0374 Y15.3744 
G01 X28.2424 Y20.1695 
G01 X28.2424 Y22.0247 
G00 Z2.4000 
G00 X108.2595 Y1.6264 
G01 Z-0.1000 F100.00 
G01 X107.6264 Y2.2595 F100.00 
G01 X107.6264 Y12.3736 
G01 X117.3736 Y12.3736 
G01 X117.3736 Y1.6264 
G01 X108.2595 Y1.6264 
G00 Z2.4000 
G00 X116.0094 Y6.9336 
G01 Z-0.1000 F100.00 
G01 X116.0094 Y7.2524 F100.00 
G01 X115.9781 Y7.5698 
G01 X115.9159 Y7.8825 
G01 X115.8234 Y8.1877 
G01 X115.7013 Y8.4823 
G01 X115.5510 Y8.7635 
G01 X115.3739 Y9.0286 
G01 X115.1716 Y9.2751 
G01 X114.9461 Y9.5006 
G01 X114.6996 Y9.7029 
G01 X114.4345 Y9.8800 
G01 X114.1533 Y10.0303 
G01 X113.8587 Y10.1524 
G01 X113.5535 Y10.2449 
G01 X113.2408 Y10.3071 
G01 X112.9234 Y10.3384 
G01 X112.6046 Y10.3384 
G01 X112.2872 Y10.3071 
G01 X111.9745 Y10.2449 
G01 X111.6693 Y10.1524 
G01 X111.3747 Y10.0303 
G01 X111.0935 Y9.8800 
G01 X110.8284 Y9.7029 
G01 X110.5819 Y9.5006 
G01 X110.3564 Y9.2751 
G01 X110.1541 Y9.0286 
G01 X109.9770 Y8.7635 
G01 X109.8267 Y8.4823 
G01 X109.7046 Y8.1877 
G01 X109.6121 Y7.8825 
G01 X109.5499 Y7.5698 
G01 X109.5186 Y7.2524 
G01 X109.5186 Y6.9336 
G01 X109.5499 Y6.6162 
G01 X109.6121 Y6.3035 
G01 X109.7046 Y5.9983 
G01 X109.8267 Y5.7037 
G01 X109.9770 Y5.4225 
G01 X110.1541 Y5.1574 
G01 X110.3564 Y4.9109 
G01 X110.5819 Y4.6854 
G01 X110.8284 Y4.4831 
G01 X111.0935 Y4.3060 
G01 X111.3747 Y4.1557 
G01 X111.6693 Y4.0336 
G01 X111.9745 Y3.9411 
G01 X112.2872 Y3.8789 
G01 X112.6046 Y3.8476 
G01 X112.9234 Y3.8476 
G01 X113.2408 Y3.8789 
G01 X113.5535 Y3.9411 
G01 X113.8587 Y4.0336 
G01 X114.1533 Y4.1557 
G01 X114.4345 Y4.3060 
G01 X114.6996 Y4.4831 
G01 X114.9461 Y4.6854 
G01 X115.1716 Y4.9109 
G01 X115.3739 Y5.1574 
G01 X115.5510 Y5.4225 
G01 X115.7013 Y5.7037 
G01 X115.8234 Y5.9983 
G01 X115.9159 Y6.3035 
G01 X115.9781 Y6.6162 
G01 X116.0094 Y6.9336 
G00 Z2.4000 
G00 X127.3736 Y12.3736 
G01 Z-0.1000 F100.00 
G01 X127.3736 Y2.2595 F100.00 
G01 X126.7405 Y1.6264 
G01 X118.6264 Y1.6264 
G01 X118.6264 Y12.3736 
G01 X127.3736 Y12.3736 
G00 Z2.4000 
G00 X126.1094 Y6.9336 
G01 Z-0.1000 F100.00 
G01 X126.1094 Y7.2524 F100.00 
G01 X126.0781 Y7.5698 
G01 X126.0159 Y7.8825 
G01 X125.9234 Y8.1877 
G01 X125.8013 Y8.4823 
G01 X125.6510 Y8.7635 
G01 X125.4739 Y9.0286 
G01 X125.2716 Y9.2751 
G01 X125.0461 Y9.5006 
G01 X124.7996 Y9.7029 
G01 X124.5345 Y9.8800 
G01 X124.2533 Y10.0303 
G01 X123.9587 Y10.1524 
G01 X123.6535 Y10.2449 
G01 X123.3408 Y10.3071 
G01 X123.0234 Y10.3384 
G01 X122.7046 Y10.3384 
G01 X122.3872 Y10.3071 
G01 X122.0745 Y10.2449 
G01 X121.7693 Y10.1524 
G01 X121.4747 Y10.0303 
G01 X121.1935 Y9.8800 
G01 X120.9284 Y9.7029 
G01 X120.6819 Y9.5006 
G01 X120.4564 Y9.2751 
G01 X120.2541 Y9.0286 
G01 X120.0770 Y8.7635 
G01 X119.9267 Y8.4823 
G01 X119.8046 Y8.1877 
G01 X119.7121 Y7.8825 
G01 X119.6499 Y7.5698 
G01 X119.6186 Y7.2524 
G01 X119.6186 Y6.9336 
G01 X119.6499 Y6.6162 
G01 X119.7121 Y6.3035 
G01 X119.8046 Y5.9983 
G01 X119.9267 Y5.7037 
G01 X120.0770 Y5.4225 
G01 X120.2541 Y5.1574 
G01 X120.4564 Y4.9109 
G01 X120.6819 Y4.6854 
G01 X120.9284 Y4.4831 
G01 X121.1935 Y4.3060 
G01 X121.4747 Y4.1557 
G01 X121.7693 Y4.0336 
G01 X122.0745 Y3.9411 
G01 X122.3872 Y3.8789 
G01 X122.7046 Y3.8476 
G01 X123.0234 Y3.8476 
G01 X123.3408 Y3.8789 
G01 X123.6535 Y3.9411 
G01 X123.9587 Y4.0336 
G01 X124.2533 Y4.1557 
G01 X124.5345 Y4.3060 
G01 X124.7996 Y4.4831 
G01 X125.0461 Y4.6854 
G01 X125.2716 Y4.9109 
G01 X125.4739 Y5.1574 
G01 X125.6510 Y5.4225 
G01 X125.8013 Y5.7037 
G01 X125.9234 Y5.9983 
G01 X126.0159 Y6.3035 
G01 X126.0781 Y6.6162 
G01 X126.1094 Y6.9336 
G00 Z2.4000 
G00 X107.6007 Y0.5134 
G01 Z-0.1000 F100.00 
G01 X107.7033 Y0.4449 F100.00 
G01 X107.8173 Y0.3977 
G01 X107.9383 Y0.3736 
G01 X127.0617 Y0.3736 
G01 X127.1827 Y0.3977 
G01 X127.2967 Y0.4449 
G01 X127.3993 Y0.5134 
G01 X127.4866 Y0.6007 
G01 X128.4866 Y1.6007 
G01 X128.5551 Y1.7033 
G01 X128.6023 Y1.8173 
G01 X128.6264 Y1.9383 
G01 X128.6264 Y13.0617 
G01 X128.6023 Y13.1827 
G01 X128.5551 Y13.2967 
G01 X128.4866 Y13.3993 
G01 X128.3993 Y13.4866 
G01 X128.2967 Y13.5551 
G01 X128.1827 Y13.6023 
G01 X128.0617 Y13.6264 
G01 X106.9383 Y13.6264 
G01 X106.8173 Y13.6023 
G01 X106.7033 Y13.5551 
G01 X106.6007 Y13.4866 
G01 X106.5134 Y13.3993 
G01 X106.4449 Y13.2967 
G01 X106.3977 Y13.1827 
G01 X106.3736 Y13.0617 
G01 X106.3736 Y1.9383 
G01 X106.3977 Y1.8173 
G01 X106.4449 Y1.7033 
G01 X106.5134 Y1.6007 
G01 X106.6007 Y1.5134 
G01 X107.6007 Y0.5134 
G00 Z2.4000 
G00 X122.4933 Y48.6496 
G01 Z-0.1000 F100.00 
G01 X122.6167 Y48.6496 F100.00 
G01 X122.7377 Y48.6737 
G01 X122.8517 Y48.7209 
G01 X122.9543 Y48.7894 
G01 X123.8433 Y49.6784 
G01 X123.9306 Y49.7657 
G01 X123.9991 Y49.8683 
G01 X124.0463 Y49.9823 
G01 X124.0704 Y50.1033 
G01 X124.0704 Y50.5706 
G01 X124.4928 Y50.5706 
G01 X124.5830 Y50.6080 
G01 X124.6520 Y50.6770 
G01 X124.6894 Y50.7672 
G01 X124.6894 Y52.8648 
G01 X124.6520 Y52.9550 
G01 X124.5830 Y53.0240 
G01 X124.4928 Y53.0614 
G01 X122.3952 Y53.0614 
G01 X122.3050 Y53.0240 
G01 X122.2360 Y52.9550 
G01 X122.1986 Y52.8648 
G01 X122.1986 Y50.7672 
G01 X122.2360 Y50.6770 
G01 X122.3050 Y50.6080 
G01 X122.3952 Y50.5706 
G01 X122.8176 Y50.5706 
G01 X122.8176 Y50.4245 
G01 X122.2955 Y49.9024 
G01 X82.6261 Y49.9024 
G01 X77.0804 Y55.4481 
G01 X77.0804 Y57.5975 
G01 X77.0563 Y57.7185 
G01 X77.0091 Y57.8325 
G01 X76.9406 Y57.9351 
G01 X73.7704 Y61.1053 
G01 X73.6831 Y61.1926 
G01 X73.5805 Y61.2611 
G01 X73.4665 Y61.3083 
G01 X73.3455 Y61.3324 
G01 X57.8923 Y61.3324 
G01 X57.7713 Y61.3083 
G01 X57.6573 Y61.2611 
G01 X57.5547 Y61.1926 
G01 X49.4467 Y53.0846 
G01 X31.9498 Y53.0846 
G01 X27.5608 Y57.4736 
G01 X27.2311 Y57.8033 
G01 X27.1439 Y57.8906 
G01 X27.0413 Y57.9591 
G01 X26.9273 Y58.0063 
G01 X26.8062 Y58.0304 
G01 X14.3423 Y58.0304 
G01 X14.2213 Y58.0063 
G01 X14.1073 Y57.9591 
G01 X14.0047 Y57.8906 
G01 X13.9174 Y57.8033 
G01 X12.2405 Y56.1264 
G01 X9.3755 Y56.1264 
G01 X9.3688 Y56.1396 
G01 X9.2559 Y56.2950 
G01 X9.1200 Y56.4309 
G01 X8.9646 Y56.5438 
G01 X8.7935 Y56.6310 
G01 X8.6108 Y56.6903 
G01 X8.4210 Y56.7204 
G01 X6.2790 Y56.7204 
G01 X6.0892 Y56.6903 
G01 X5.9065 Y56.6310 
G01 X5.7354 Y56.5438 
G01 X5.5800 Y56.4309 
G01 X5.4441 Y56.2950 
G01 X5.3312 Y56.1396 
G01 X5.2440 Y55.9685 
G01 X5.1847 Y55.7858 
G01 X5.1546 Y55.5960 
G01 X5.1546 Y55.4040 
G01 X5.1847 Y55.2142 
G01 X5.2440 Y55.0315 
G01 X5.3312 Y54.8604 
G01 X5.4441 Y54.7050 
G01 X5.5800 Y54.5691 
G01 X5.7354 Y54.4562 
G01 X5.9065 Y54.3690 
G01 X6.0892 Y54.3097 
G01 X6.2790 Y54.2796 
G01 X8.4210 Y54.2796 
G01 X8.6108 Y54.3097 
G01 X8.7935 Y54.3690 
G01 X8.9646 Y54.4562 
G01 X9.1200 Y54.5691 
G01 X9.2559 Y54.7050 
G01 X9.3688 Y54.8604 
G01 X9.3755 Y54.8736 
G01 X12.5617 Y54.8736 
G01 X12.6827 Y54.8977 
G01 X12.7967 Y54.9449 
G01 X12.8993 Y55.0134 
G01 X14.6635 Y56.7776 
G01 X26.4851 Y56.7776 
G01 X26.6750 Y56.5877 
G01 X31.2038 Y52.0589 
G01 X31.2911 Y51.9716 
G01 X31.3937 Y51.9031 
G01 X31.5077 Y51.8558 
G01 X31.6287 Y51.8318 
G01 X49.7679 Y51.8318 
G01 X49.8889 Y51.8558 
G01 X50.0029 Y51.9031 
G01 X50.1055 Y51.9716 
G01 X50.1927 Y52.0589 
G01 X58.2135 Y60.0796 
G01 X73.0243 Y60.0796 
G01 X75.8276 Y57.2763 
G01 X75.8276 Y55.1270 
G01 X75.8517 Y55.0059 
G01 X75.8989 Y54.8920 
G01 X75.9674 Y54.7894 
G01 X76.0547 Y54.7021 
G01 X81.9674 Y48.7894 
G01 X82.0700 Y48.7209 
G01 X82.1839 Y48.6737 
G01 X82.3050 Y48.6496 
G01 X82.4284 Y48.6496 
G01 X122.4933 Y48.6496 
G00 Z2.4000 
G00 X93.1015 Y12.8344 
G01 Z-0.1000 F100.00 
G01 X75.0445 Y12.8344 F100.00 
G01 X74.4400 Y13.4388 
G01 X74.4682 Y13.6167 
G01 X74.4682 Y13.8033 
G01 X74.4390 Y13.9875 
G01 X74.3814 Y14.1650 
G01 X74.2967 Y14.3312 
G01 X74.1870 Y14.4821 
G01 X74.0551 Y14.6140 
G01 X73.9094 Y14.7199 
G01 X73.9094 Y15.4247 
G01 X73.8853 Y15.5457 
G01 X73.8381 Y15.6597 
G01 X73.7696 Y15.7623 
G01 X73.6823 Y15.8496 
G01 X72.4083 Y17.1236 
G01 X72.3057 Y17.1921 
G01 X72.1917 Y17.2393 
G01 X72.0707 Y17.2634 
G01 X46.6583 Y17.2634 
G01 X46.5373 Y17.2393 
G01 X46.4233 Y17.1921 
G01 X46.3207 Y17.1236 
G01 X44.8564 Y15.6593 
G01 X44.7879 Y15.5567 
G01 X44.7407 Y15.4427 
G01 X44.7166 Y15.3217 
G01 X44.7166 Y14.7199 
G01 X44.5709 Y14.6140 
G01 X44.4390 Y14.4821 
G01 X44.3293 Y14.3312 
G01 X44.2446 Y14.1650 
G01 X44.1870 Y13.9875 
G01 X44.1578 Y13.8033 
G01 X44.1578 Y13.6167 
G01 X44.1870 Y13.4325 
G01 X44.2446 Y13.2550 
G01 X44.3293 Y13.0888 
G01 X44.4390 Y12.9379 
G01 X44.5709 Y12.8060 
G01 X44.7218 Y12.6963 
G01 X44.8880 Y12.6116 
G01 X45.0655 Y12.5540 
G01 X45.2497 Y12.5248 
G01 X45.4363 Y12.5248 
G01 X45.6205 Y12.5540 
G01 X45.7980 Y12.6116 
G01 X45.9642 Y12.6963 
G01 X46.1151 Y12.8060 
G01 X46.2470 Y12.9379 
G01 X46.3567 Y13.0888 
G01 X46.4414 Y13.2550 
G01 X46.4990 Y13.4325 
G01 X46.5282 Y13.6167 
G01 X46.5282 Y13.8033 
G01 X46.4990 Y13.9875 
G01 X46.4414 Y14.1650 
G01 X46.3567 Y14.3312 
G01 X46.2470 Y14.4821 
G01 X46.1151 Y14.6140 
G01 X45.9694 Y14.7199 
G01 X45.9694 Y15.0005 
G01 X46.9795 Y16.0106 
G01 X71.7495 Y16.0106 
G01 X72.6566 Y15.1035 
G01 X72.6566 Y14.7199 
G01 X72.5109 Y14.6140 
G01 X72.3790 Y14.4821 
G01 X72.2693 Y14.3312 
G01 X72.1846 Y14.1650 
G01 X72.1270 Y13.9875 
G01 X72.0978 Y13.8033 
G01 X72.0978 Y13.6167 
G01 X72.1270 Y13.4325 
G01 X72.1846 Y13.2550 
G01 X72.2693 Y13.0888 
G01 X72.3790 Y12.9379 
G01 X72.5109 Y12.8060 
G01 X72.6618 Y12.6963 
G01 X72.8280 Y12.6116 
G01 X73.0055 Y12.5540 
G01 X73.1897 Y12.5248 
G01 X73.3763 Y12.5248 
G01 X73.5542 Y12.5530 
G01 X74.2984 Y11.8087 
G01 X74.3857 Y11.7214 
G01 X74.4883 Y11.6529 
G01 X74.6023 Y11.6057 
G01 X74.7233 Y11.5816 
G01 X93.4227 Y11.5816 
G01 X93.5437 Y11.6057 
G01 X93.6577 Y11.6529 
G01 X93.7603 Y11.7214 
G01 X93.8476 Y11.8087 
G01 X103.1423 Y21.1034 
G01 X103.2296 Y21.1907 
G01 X103.2981 Y21.2933 
G01 X103.3453 Y21.4073 
G01 X103.3694 Y21.5283 
G01 X103.3694 Y35.1876 
G01 X107.4365 Y35.1876 
G01 X109.0304 Y33.5937 
G01 X109.0213 Y33.5656 
G01 X108.9906 Y33.3720 
G01 X108.9906 Y33.1760 
G01 X109.0213 Y32.9824 
G01 X109.0818 Y32.7959 
G01 X109.1708 Y32.6213 
G01 X109.2861 Y32.4627 
G01 X109.4247 Y32.3241 
G01 X109.5833 Y32.2088 
G01 X109.6096 Y32.1954 
G01 X109.6096 Y31.7023 
G01 X109.6337 Y31.5813 
G01 X109.6809 Y31.4673 
G01 X109.7494 Y31.3647 
G01 X109.8367 Y31.2774 
G01 X111.6007 Y29.5134 
G01 X111.7033 Y29.4449 
G01 X111.8173 Y29.3977 
G01 X111.9383 Y29.3736 
G01 X115.7405 Y29.3736 
G01 X118.3736 Y26.7405 
G01 X118.3736 Y23.0893 
G01 X118.3977 Y22.9683 
G01 X118.4449 Y22.8543 
G01 X118.5134 Y22.7517 
G01 X118.6007 Y22.6644 
G01 X119.3086 Y21.9565 
G01 X119.3086 Y21.0402 
G01 X119.3460 Y20.9500 
G01 X119.4150 Y20.8810 
G01 X119.5052 Y20.8436 
G01 X121.1108 Y20.8436 
G01 X121.2010 Y20.8810 
G01 X121.2700 Y20.9500 
G01 X121.3074 Y21.0402 
G01 X121.3074 Y22.6458 
G01 X121.2700 Y22.7360 
G01 X121.2010 Y22.8050 
G01 X121.1108 Y22.8424 
G01 X120.1945 Y22.8424 
G01 X119.6264 Y23.4105 
G01 X119.6264 Y27.0617 
G01 X119.6023 Y27.1827 
G01 X119.5551 Y27.2967 
G01 X119.4866 Y27.3993 
G01 X116.4866 Y30.3993 
G01 X116.3993 Y30.4866 
G01 X116.2967 Y30.5551 
G01 X116.1827 Y30.6023 
G01 X116.0617 Y30.6264 
G01 X112.2595 Y30.6264 
G01 X110.8624 Y32.0235 
G01 X110.8624 Y32.1954 
G01 X110.8887 Y32.2088 
G01 X111.0473 Y32.3241 
G01 X111.1859 Y32.4627 
G01 X111.3012 Y32.6213 
G01 X111.3902 Y32.7959 
G01 X111.4507 Y32.9824 
G01 X111.4814 Y33.1760 
G01 X111.4814 Y33.3720 
G01 X111.4507 Y33.5656 
G01 X111.3902 Y33.7521 
G01 X111.3012 Y33.9267 
G01 X111.1859 Y34.0853 
G01 X111.0473 Y34.2239 
G01 X110.8887 Y34.3392 
G01 X110.7141 Y34.4282 
G01 X110.5276 Y34.4887 
G01 X110.3340 Y34.5194 
G01 X110.1380 Y34.5194 
G01 X109.9444 Y34.4887 
G01 X109.9163 Y34.4796 
G01 X108.0953 Y36.3006 
G01 X107.9927 Y36.3691 
G01 X107.8787 Y36.4163 
G01 X107.7577 Y36.4404 
G01 X102.8755 Y36.4404 
G01 X99.5466 Y39.7693 
G01 X99.4593 Y39.8566 
G01 X99.3567 Y39.9251 
G01 X99.2427 Y39.9723 
G01 X99.1217 Y39.9964 
G01 X84.7708 Y39.9964 
G01 X73.6076 Y51.1596 
G01 X73.5050 Y51.2281 
G01 X73.3911 Y51.2753 
G01 X73.2700 Y51.2994 
G01 X71.5373 Y51.2994 
G01 X71.3654 Y51.4713 
G01 X71.3654 Y54.9547 
G01 X71.7464 Y55.3357 
G01 X71.7464 Y56.1703 
G01 X71.1563 Y56.7604 
G01 X70.3217 Y56.7604 
G01 X69.9407 Y56.3794 
G01 X60.0093 Y56.3794 
G01 X59.8883 Y56.3553 
G01 X59.7743 Y56.3081 
G01 X59.6717 Y56.2396 
G01 X51.5565 Y48.1244 
G01 X30.2210 Y48.1244 
G01 X25.6221 Y52.7233 
G01 X25.5349 Y52.8106 
G01 X25.4323 Y52.8791 
G01 X25.3183 Y52.9263 
G01 X25.1973 Y52.9504 
G01 X17.4627 Y52.9504 
G01 X17.3417 Y52.9263 
G01 X17.2277 Y52.8791 
G01 X17.1251 Y52.8106 
G01 X17.0379 Y52.7233 
G01 X14.2057 Y49.8911 
G01 X14.1184 Y49.8039 
G01 X14.0499 Y49.7013 
G01 X14.0027 Y49.5873 
G01 X13.9786 Y49.4663 
G01 X13.9786 Y44.8365 
G01 X13.0755 Y43.9334 
G01 X4.7571 Y43.9334 
G01 X4.6753 Y44.0460 
G01 X4.5490 Y44.1723 
G01 X4.4046 Y44.2772 
G01 X4.2455 Y44.3583 
G01 X4.0756 Y44.4135 
G01 X3.8993 Y44.4414 
G01 X3.7207 Y44.4414 
G01 X3.5444 Y44.4135 
G01 X3.3745 Y44.3583 
G01 X3.2154 Y44.2772 
G01 X3.0710 Y44.1723 
G01 X2.9447 Y44.0460 
G01 X2.8398 Y43.9016 
G01 X2.7587 Y43.7425 
G01 X2.7035 Y43.5726 
G01 X2.6756 Y43.3963 
G01 X2.6756 Y43.2177 
G01 X2.7035 Y43.0414 
G01 X2.7587 Y42.8715 
G01 X2.8398 Y42.7124 
G01 X2.9447 Y42.5680 
G01 X3.0710 Y42.4417 
G01 X3.2154 Y42.3368 
G01 X3.3745 Y42.2557 
G01 X3.5444 Y42.2005 
G01 X3.7207 Y42.1726 
G01 X3.8993 Y42.1726 
G01 X4.0756 Y42.2005 
G01 X4.2455 Y42.2557 
G01 X4.4046 Y42.3368 
G01 X4.5490 Y42.4417 
G01 X4.6753 Y42.5680 
G01 X4.7571 Y42.6806 
G01 X13.3967 Y42.6806 
G01 X13.5177 Y42.7047 
G01 X13.6317 Y42.7519 
G01 X13.7343 Y42.8204 
G01 X15.0916 Y44.1777 
G01 X15.1601 Y44.2803 
G01 X15.2073 Y44.3943 
G01 X15.2314 Y44.5153 
G01 X15.2314 Y49.1451 
G01 X17.7839 Y51.6976 
G01 X24.8761 Y51.6976 
G01 X29.5622 Y47.0114 
G01 X29.6648 Y46.9429 
G01 X29.7788 Y46.8957 
G01 X29.8999 Y46.8716 
G01 X51.8777 Y46.8716 
G01 X51.9987 Y46.8957 
G01 X52.1127 Y46.9429 
G01 X52.2153 Y47.0114 
G01 X60.3305 Y55.1266 
G01 X69.9407 Y55.1266 
G01 X70.1126 Y54.9547 
G01 X70.1126 Y51.4713 
G01 X69.7316 Y51.0903 
G01 X69.7316 Y50.2557 
G01 X70.3217 Y49.6656 
G01 X71.1563 Y49.6656 
G01 X71.5373 Y50.0466 
G01 X72.9489 Y50.0466 
G01 X84.0248 Y38.9707 
G01 X84.1120 Y38.8834 
G01 X84.2146 Y38.8149 
G01 X84.3286 Y38.7677 
G01 X84.4496 Y38.7436 
G01 X98.8005 Y38.7436 
G01 X102.1166 Y35.4275 
G01 X102.1166 Y21.8495 
G01 X93.1015 Y12.8344 
G00 Z2.4000 
G00 X6.2790 Y59.2796 
G01 Z-0.1000 F100.00 
G01 X8.4210 Y59.2796 F100.00 
G01 X8.6108 Y59.3097 
G01 X8.7570 Y59.3572 
G01 X9.6727 Y58.4414 
G01 X9.7753 Y58.3729 
G01 X9.8893 Y58.3257 
G01 X10.0103 Y58.3016 
G01 X27.1163 Y58.3016 
G01 X31.8351 Y53.5829 
G01 X31.9223 Y53.4956 
G01 X32.0249 Y53.4271 
G01 X32.1389 Y53.3798 
G01 X32.2599 Y53.3558 
G01 X49.1366 Y53.3558 
G01 X49.2576 Y53.3798 
G01 X49.3716 Y53.4271 
G01 X49.4742 Y53.4956 
G01 X49.5615 Y53.5829 
G01 X57.5822 Y61.6036 
G01 X73.6556 Y61.6036 
G01 X77.3516 Y57.9076 
G01 X77.3516 Y55.7582 
G01 X77.3757 Y55.6372 
G01 X77.4229 Y55.5232 
G01 X77.4914 Y55.4206 
G01 X77.5787 Y55.3334 
G01 X81.6224 Y51.2897 
G01 X81.7096 Y51.2024 
G01 X81.8122 Y51.1339 
G01 X81.9262 Y51.0867 
G01 X82.0472 Y51.0626 
G01 X108.9007 Y51.0626 
G01 X109.0217 Y51.0867 
G01 X109.1357 Y51.1339 
G01 X109.1737 Y51.1593 
G01 X109.2861 Y51.0047 
G01 X109.4247 Y50.8661 
G01 X109.5833 Y50.7508 
G01 X109.7579 Y50.6618 
G01 X109.9444 Y50.6013 
G01 X110.1380 Y50.5706 
G01 X110.3340 Y50.5706 
G01 X110.5276 Y50.6013 
G01 X110.7141 Y50.6618 
G01 X110.8887 Y50.7508 
G01 X111.0473 Y50.8661 
G01 X111.1859 Y51.0047 
G01 X111.3012 Y51.1633 
G01 X111.3902 Y51.3379 
G01 X111.4507 Y51.5244 
G01 X111.4814 Y51.7180 
G01 X111.4814 Y51.9140 
G01 X111.4507 Y52.1076 
G01 X111.3902 Y52.2941 
G01 X111.3012 Y52.4687 
G01 X111.1859 Y52.6273 
G01 X111.0473 Y52.7659 
G01 X110.8887 Y52.8812 
G01 X110.7141 Y52.9702 
G01 X110.5276 Y53.0307 
G01 X110.3340 Y53.0614 
G01 X110.1380 Y53.0614 
G01 X109.9444 Y53.0307 
G01 X109.7579 Y52.9702 
G01 X109.5833 Y52.8812 
G01 X109.4247 Y52.7659 
G01 X109.2861 Y52.6273 
G01 X109.1708 Y52.4687 
G01 X109.1574 Y52.4424 
G01 X108.9043 Y52.4424 
G01 X108.7833 Y52.4183 
G01 X108.6693 Y52.3711 
G01 X108.5859 Y52.3154 
G01 X82.3684 Y52.3154 
G01 X78.6044 Y56.0794 
G01 X78.6044 Y58.2288 
G01 X78.5803 Y58.3498 
G01 X78.5331 Y58.4638 
G01 X78.4646 Y58.5664 
G01 X78.3773 Y58.6536 
G01 X74.4016 Y62.6293 
G01 X74.3144 Y62.7166 
G01 X74.2118 Y62.7851 
G01 X74.0978 Y62.8323 
G01 X73.9768 Y62.8564 
G01 X57.2611 Y62.8564 
G01 X57.1400 Y62.8323 
G01 X57.0260 Y62.7851 
G01 X56.9234 Y62.7166 
G01 X56.8362 Y62.6293 
G01 X48.8154 Y54.6086 
G01 X32.5811 Y54.6086 
G01 X27.8624 Y59.3273 
G01 X27.7751 Y59.4146 
G01 X27.6725 Y59.4831 
G01 X27.5585 Y59.5303 
G01 X27.4375 Y59.5544 
G01 X10.3315 Y59.5544 
G01 X9.5367 Y60.3491 
G01 X9.5454 Y60.4040 
G01 X9.5454 Y60.5960 
G01 X9.5153 Y60.7858 
G01 X9.4560 Y60.9685 
G01 X9.3688 Y61.1396 
G01 X9.2559 Y61.2950 
G01 X9.1200 Y61.4309 
G01 X8.9646 Y61.5438 
G01 X8.7935 Y61.6310 
G01 X8.6108 Y61.6903 
G01 X8.4210 Y61.7204 
G01 X6.2790 Y61.7204 
G01 X6.0892 Y61.6903 
G01 X5.9065 Y61.6310 
G01 X5.7354 Y61.5438 
G01 X5.5800 Y61.4309 
G01 X5.4441 Y61.2950 
G01 X5.3312 Y61.1396 
G01 X5.2440 Y60.9685 
G01 X5.1847 Y60.7858 
G01 X5.1546 Y60.5960 
G01 X5.1546 Y60.4040 
G01 X5.1847 Y60.2142 
G01 X5.2440 Y60.0315 
G01 X5.3312 Y59.8604 
G01 X5.4441 Y59.7050 
G01 X5.5800 Y59.5691 
G01 X5.7354 Y59.4562 
G01 X5.9065 Y59.3690 
G01 X6.0892 Y59.3097 
G01 X6.2790 Y59.2796 
G00 Z2.4000 
G00 X113.6734 Y21.6876 
G01 Z-0.1000 F100.00 
G01 X113.6734 Y21.8844 F100.00 
G01 X113.6350 Y22.0775 
G01 X113.5597 Y22.2594 
G01 X113.4503 Y22.4231 
G01 X113.3111 Y22.5623 
G01 X113.1474 Y22.6717 
G01 X112.9655 Y22.7470 
G01 X112.7724 Y22.7854 
G01 X112.5756 Y22.7854 
G01 X112.3825 Y22.7470 
G01 X112.2006 Y22.6717 
G01 X112.0369 Y22.5623 
G01 X111.8977 Y22.4231 
G01 X111.7883 Y22.2594 
G01 X111.7130 Y22.0775 
G01 X111.6746 Y21.8844 
G01 X111.6746 Y21.6876 
G01 X111.7130 Y21.4945 
G01 X111.7883 Y21.3126 
G01 X111.8977 Y21.1489 
G01 X112.0369 Y21.0097 
G01 X112.2006 Y20.9003 
G01 X112.3825 Y20.8250 
G01 X112.5756 Y20.7866 
G01 X112.7724 Y20.7866 
G01 X112.9655 Y20.8250 
G01 X113.1474 Y20.9003 
G01 X113.3111 Y21.0097 
G01 X113.4503 Y21.1489 
G01 X113.5597 Y21.3126 
G01 X113.6350 Y21.4945 
G01 X113.6734 Y21.6876 
G00 Z2.4000 
G00 X116.2134 Y21.6936 
G01 Z-0.1000 F100.00 
G01 X116.2134 Y21.8904 F100.00 
G01 X116.1750 Y22.0835 
G01 X116.0997 Y22.2654 
G01 X115.9903 Y22.4291 
G01 X115.8511 Y22.5683 
G01 X115.6874 Y22.6777 
G01 X115.5055 Y22.7530 
G01 X115.3124 Y22.7914 
G01 X115.1156 Y22.7914 
G01 X114.9225 Y22.7530 
G01 X114.7406 Y22.6777 
G01 X114.5769 Y22.5683 
G01 X114.4377 Y22.4291 
G01 X114.3283 Y22.2654 
G01 X114.2530 Y22.0835 
G01 X114.2146 Y21.8904 
G01 X114.2146 Y21.6936 
G01 X114.2530 Y21.5005 
G01 X114.3283 Y21.3186 
G01 X114.4377 Y21.1549 
G01 X114.5769 Y21.0157 
G01 X114.5876 Y21.0086 
G01 X114.5876 Y19.4735 
G01 X112.2505 Y17.1364 
G01 X103.0847 Y17.1364 
G01 X102.9637 Y17.1123 
G01 X102.8497 Y17.0651 
G01 X102.7471 Y16.9966 
G01 X102.6599 Y16.9093 
G01 X93.7430 Y7.9924 
G01 X66.8673 Y7.9924 
G01 X66.7463 Y7.9683 
G01 X66.6323 Y7.9211 
G01 X66.5297 Y7.8526 
G01 X66.4424 Y7.7653 
G01 X61.4625 Y2.7854 
G01 X4.9585 Y2.7854 
G01 X2.1504 Y5.5935 
G01 X2.1504 Y24.1245 
G01 X2.8897 Y24.8638 
G01 X2.9447 Y24.7880 
G01 X3.0710 Y24.6617 
G01 X3.2154 Y24.5568 
G01 X3.3745 Y24.4757 
G01 X3.5444 Y24.4205 
G01 X3.7207 Y24.3926 
G01 X3.8993 Y24.3926 
G01 X4.0756 Y24.4205 
G01 X4.2455 Y24.4757 
G01 X4.4046 Y24.5568 
G01 X4.5490 Y24.6617 
G01 X4.6753 Y24.7880 
G01 X4.7802 Y24.9324 
G01 X4.8613 Y25.0915 
G01 X4.9165 Y25.2614 
G01 X4.9444 Y25.4377 
G01 X4.9444 Y25.6163 
G01 X4.9165 Y25.7926 
G01 X4.8613 Y25.9625 
G01 X4.7802 Y26.1216 
G01 X4.6753 Y26.2660 
G01 X4.5490 Y26.3923 
G01 X4.4046 Y26.4972 
G01 X4.2455 Y26.5783 
G01 X4.0756 Y26.6335 
G01 X3.8993 Y26.6614 
G01 X3.7207 Y26.6614 
G01 X3.5444 Y26.6335 
G01 X3.3745 Y26.5783 
G01 X3.2154 Y26.4972 
G01 X3.0710 Y26.3923 
G01 X2.9447 Y26.2660 
G01 X2.8629 Y26.1534 
G01 X2.6053 Y26.1534 
G01 X2.4843 Y26.1293 
G01 X2.3703 Y26.0821 
G01 X2.2677 Y26.0136 
G01 X2.1804 Y25.9263 
G01 X1.0374 Y24.7833 
G01 X0.9689 Y24.6807 
G01 X0.9217 Y24.5667 
G01 X0.8976 Y24.4457 
G01 X0.8976 Y5.2723 
G01 X0.9217 Y5.1513 
G01 X0.9689 Y5.0373 
G01 X1.0374 Y4.9347 
G01 X4.2124 Y1.7597 
G01 X4.2997 Y1.6724 
G01 X4.4023 Y1.6039 
G01 X4.5163 Y1.5567 
G01 X4.6373 Y1.5326 
G01 X61.7837 Y1.5326 
G01 X61.9047 Y1.5567 
G01 X62.0187 Y1.6039 
G01 X62.1213 Y1.6724 
G01 X67.1885 Y6.7396 
G01 X94.0641 Y6.7396 
G01 X94.1852 Y6.7637 
G01 X94.2992 Y6.8109 
G01 X94.4018 Y6.8794 
G01 X103.4059 Y15.8836 
G01 X112.5717 Y15.8836 
G01 X112.6927 Y15.9077 
G01 X112.8067 Y15.9549 
G01 X112.9093 Y16.0234 
G01 X115.7006 Y18.8147 
G01 X115.7691 Y18.9173 
G01 X115.8163 Y19.0313 
G01 X115.8404 Y19.1523 
G01 X115.8404 Y21.0086 
G01 X115.8511 Y21.0157 
G01 X115.9903 Y21.1549 
G01 X116.0997 Y21.3186 
G01 X116.1750 Y21.5005 
G01 X116.2134 Y21.6936 
G00 Z2.4000 
G00 X118.7644 Y21.7616 
G01 Z-0.1000 F100.00 
G01 X118.7644 Y21.9584 F100.00 
G01 X118.7260 Y22.1515 
G01 X118.6507 Y22.3334 
G01 X118.5413 Y22.4971 
G01 X118.4021 Y22.6363 
G01 X118.2384 Y22.7457 
G01 X118.0565 Y22.8210 
G01 X117.8634 Y22.8594 
G01 X117.6666 Y22.8594 
G01 X117.6540 Y22.8569 
G01 X116.1643 Y24.3466 
G01 X116.0617 Y24.4151 
G01 X115.9477 Y24.4623 
G01 X115.8267 Y24.4864 
G01 X107.4913 Y24.4864 
G01 X107.3703 Y24.4623 
G01 X107.2563 Y24.4151 
G01 X107.1537 Y24.3466 
G01 X107.0664 Y24.2593 
G01 X92.4505 Y9.6434 
G01 X73.9195 Y9.6434 
G01 X71.3694 Y12.1935 
G01 X71.3694 Y12.7001 
G01 X71.5151 Y12.8060 
G01 X71.6470 Y12.9379 
G01 X71.7567 Y13.0888 
G01 X71.8414 Y13.2550 
G01 X71.8990 Y13.4325 
G01 X71.9282 Y13.6167 
G01 X71.9282 Y13.8033 
G01 X71.8990 Y13.9875 
G01 X71.8414 Y14.1650 
G01 X71.7567 Y14.3312 
G01 X71.6470 Y14.4821 
G01 X71.5151 Y14.6140 
G01 X71.3642 Y14.7237 
G01 X71.1980 Y14.8084 
G01 X71.0205 Y14.8660 
G01 X70.8363 Y14.8952 
G01 X70.6497 Y14.8952 
G01 X70.4655 Y14.8660 
G01 X70.2880 Y14.8084 
G01 X70.1218 Y14.7237 
G01 X69.9709 Y14.6140 
G01 X69.8390 Y14.4821 
G01 X69.7293 Y14.3312 
G01 X69.6446 Y14.1650 
G01 X69.5870 Y13.9875 
G01 X69.5578 Y13.8033 
G01 X69.5578 Y13.6167 
G01 X69.5870 Y13.4325 
G01 X69.6446 Y13.2550 
G01 X69.7293 Y13.0888 
G01 X69.8390 Y12.9379 
G01 X69.9709 Y12.8060 
G01 X70.1166 Y12.7001 
G01 X70.1166 Y11.8723 
G01 X70.1407 Y11.7513 
G01 X70.1879 Y11.6373 
G01 X70.2564 Y11.5347 
G01 X73.2607 Y8.5304 
G01 X73.3633 Y8.4619 
G01 X73.4773 Y8.4147 
G01 X73.5983 Y8.3906 
G01 X92.7717 Y8.3906 
G01 X92.8927 Y8.4147 
G01 X93.0067 Y8.4619 
G01 X93.1093 Y8.5304 
G01 X93.1966 Y8.6177 
G01 X107.8125 Y23.2336 
G01 X115.5055 Y23.2336 
G01 X116.7681 Y21.9710 
G01 X116.7656 Y21.9584 
G01 X116.7656 Y21.7616 
G01 X116.8040 Y21.5685 
G01 X116.8793 Y21.3866 
G01 X116.9887 Y21.2229 
G01 X117.1279 Y21.0837 
G01 X117.1386 Y21.0766 
G01 X117.1386 Y20.3109 
G01 X117.1378 Y20.2536 
G01 X117.1386 Y20.2493 
G01 X117.1386 Y20.2449 
G01 X117.1498 Y20.1887 
G01 X117.1602 Y20.1323 
G01 X117.1618 Y20.1282 
G01 X117.1627 Y20.1239 
G01 X117.1846 Y20.0709 
G01 X117.2058 Y20.0176 
G01 X117.2082 Y20.0139 
G01 X117.2099 Y20.0099 
G01 X117.2418 Y19.9622 
G01 X117.2729 Y19.9141 
G01 X117.2760 Y19.9109 
G01 X117.2784 Y19.9073 
G01 X117.3190 Y19.8667 
G01 X117.3589 Y19.8256 
G01 X117.3626 Y19.8231 
G01 X117.3657 Y19.8200 
G01 X117.4134 Y19.7882 
G01 X117.4606 Y19.7557 
G01 X117.4646 Y19.7539 
G01 X117.4683 Y19.7515 
G01 X117.5213 Y19.7295 
G01 X117.5623 Y19.7119 
G01 X119.9807 Y17.2934 
G01 X120.0833 Y17.2249 
G01 X120.1973 Y17.1777 
G01 X120.3183 Y17.1536 
G01 X124.5217 Y17.1536 
G01 X124.6427 Y17.1777 
G01 X124.7567 Y17.2249 
G01 X124.8593 Y17.2934 
G01 X124.9466 Y17.3807 
G01 X127.7406 Y20.1747 
G01 X127.8091 Y20.2773 
G01 X127.8563 Y20.3913 
G01 X127.8804 Y20.5123 
G01 X127.8804 Y41.3445 
G01 X127.8563 Y41.4656 
G01 X127.8091 Y41.5796 
G01 X127.7406 Y41.6822 
G01 X127.6533 Y41.7694 
G01 X127.0023 Y42.4204 
G01 X121.3984 Y48.0243 
G01 X121.3112 Y48.1116 
G01 X121.2086 Y48.1801 
G01 X121.0946 Y48.2273 
G01 X120.9735 Y48.2514 
G01 X81.6665 Y48.2514 
G01 X75.3024 Y54.6155 
G01 X75.3024 Y57.1378 
G01 X75.2783 Y57.2589 
G01 X75.2311 Y57.3728 
G01 X75.1626 Y57.4754 
G01 X73.0567 Y59.5813 
G01 X72.9694 Y59.6686 
G01 X72.8668 Y59.7371 
G01 X72.7529 Y59.7843 
G01 X72.6318 Y59.8084 
G01 X58.5980 Y59.8084 
G01 X58.4770 Y59.7843 
G01 X58.3630 Y59.7371 
G01 X58.2604 Y59.6686 
G01 X50.0254 Y51.4336 
G01 X31.3712 Y51.4336 
G01 X26.6524 Y56.1523 
G01 X26.5652 Y56.2396 
G01 X26.4626 Y56.3081 
G01 X26.3486 Y56.3553 
G01 X26.2276 Y56.3794 
G01 X16.1784 Y56.3794 
G01 X16.0574 Y56.3553 
G01 X15.9434 Y56.3081 
G01 X15.8408 Y56.2396 
G01 X10.9078 Y51.3066 
G01 X2.6125 Y51.3066 
G01 X2.4914 Y51.2825 
G01 X2.3775 Y51.2353 
G01 X2.2749 Y51.1667 
G01 X1.0374 Y49.9293 
G01 X0.9689 Y49.8267 
G01 X0.9217 Y49.7127 
G01 X0.8976 Y49.5917 
G01 X0.8976 Y39.3083 
G01 X0.9217 Y39.1873 
G01 X0.9689 Y39.0733 
G01 X1.0374 Y38.9707 
G01 X2.2677 Y37.7404 
G01 X2.3703 Y37.6719 
G01 X2.4843 Y37.6247 
G01 X2.6053 Y37.6006 
G01 X2.8629 Y37.6006 
G01 X2.9447 Y37.4880 
G01 X3.0710 Y37.3617 
G01 X3.2154 Y37.2568 
G01 X3.3745 Y37.1757 
G01 X3.5444 Y37.1205 
G01 X3.7207 Y37.0926 
G01 X3.8993 Y37.0926 
G01 X4.0756 Y37.1205 
G01 X4.2455 Y37.1757 
G01 X4.4046 Y37.2568 
G01 X4.5490 Y37.3617 
G01 X4.6753 Y37.4880 
G01 X4.7571 Y37.6006 
G01 X13.3967 Y37.6006 
G01 X13.5177 Y37.6247 
G01 X13.6317 Y37.6719 
G01 X13.7343 Y37.7404 
G01 X16.7426 Y40.7487 
G01 X16.8111 Y40.8513 
G01 X16.8583 Y40.9653 
G01 X16.8824 Y41.0863 
G01 X16.8824 Y48.5664 
G01 X18.3626 Y50.0466 
G01 X20.1875 Y50.0466 
G01 X21.7256 Y48.5085 
G01 X21.7256 Y40.6490 
G01 X21.7497 Y40.5279 
G01 X21.7969 Y40.4139 
G01 X21.8654 Y40.3114 
G01 X31.2506 Y30.9262 
G01 X31.2506 Y25.8463 
G01 X31.2747 Y25.7253 
G01 X31.3219 Y25.6113 
G01 X31.3904 Y25.5087 
G01 X31.4777 Y25.4214 
G01 X37.0966 Y19.8025 
G01 X37.0966 Y14.7199 
G01 X36.9509 Y14.6140 
G01 X36.8190 Y14.4821 
G01 X36.7093 Y14.3312 
G01 X36.6246 Y14.1650 
G01 X36.5670 Y13.9875 
G01 X36.5378 Y13.8033 
G01 X36.5378 Y13.6167 
G01 X36.5670 Y13.4325 
G01 X36.6246 Y13.2550 
G01 X36.7093 Y13.0888 
G01 X36.8190 Y12.9379 
G01 X36.9509 Y12.8060 
G01 X37.1018 Y12.6963 
G01 X37.2680 Y12.6116 
G01 X37.4455 Y12.5540 
G01 X37.6297 Y12.5248 
G01 X37.8163 Y12.5248 
G01 X38.0005 Y12.5540 
G01 X38.1780 Y12.6116 
G01 X38.3442 Y12.6963 
G01 X38.4951 Y12.8060 
G01 X38.6270 Y12.9379 
G01 X38.7367 Y13.0888 
G01 X38.8214 Y13.2550 
G01 X38.8790 Y13.4325 
G01 X38.9082 Y13.6167 
G01 X38.9082 Y13.8033 
G01 X38.8790 Y13.9875 
G01 X38.8214 Y14.1650 
G01 X38.7367 Y14.3312 
G01 X38.6270 Y14.4821 
G01 X38.4951 Y14.6140 
G01 X38.3494 Y14.7199 
G01 X38.3494 Y20.1237 
G01 X38.3253 Y20.2447 
G01 X38.2781 Y20.3587 
G01 X38.2096 Y20.4613 
G01 X32.5034 Y26.1675 
G01 X32.5034 Y31.2474 
G01 X32.4793 Y31.3684 
G01 X32.4321 Y31.4824 
G01 X32.3636 Y31.5850 
G01 X22.9784 Y40.9701 
G01 X22.9784 Y48.8297 
G01 X22.9543 Y48.9507 
G01 X22.9071 Y49.0647 
G01 X22.8386 Y49.1673 
G01 X20.8463 Y51.1596 
G01 X20.7437 Y51.2281 
G01 X20.6297 Y51.2753 
G01 X20.5087 Y51.2994 
G01 X18.0414 Y51.2994 
G01 X17.9204 Y51.2753 
G01 X17.8064 Y51.2281 
G01 X17.7038 Y51.1596 
G01 X15.7694 Y49.2252 
G01 X15.7009 Y49.1226 
G01 X15.6537 Y49.0086 
G01 X15.6296 Y48.8876 
G01 X15.6296 Y41.4075 
G01 X13.0755 Y38.8534 
G01 X4.7571 Y38.8534 
G01 X4.6753 Y38.9660 
G01 X4.5490 Y39.0923 
G01 X4.4046 Y39.1972 
G01 X4.2455 Y39.2783 
G01 X4.0756 Y39.3335 
G01 X3.8993 Y39.3614 
G01 X3.7207 Y39.3614 
G01 X3.5444 Y39.3335 
G01 X3.3745 Y39.2783 
G01 X3.2154 Y39.1972 
G01 X3.0710 Y39.0923 
G01 X2.9447 Y38.9660 
G01 X2.8897 Y38.8902 
G01 X2.1504 Y39.6295 
G01 X2.1504 Y49.2705 
G01 X2.9336 Y50.0538 
G01 X11.2290 Y50.0538 
G01 X11.3500 Y50.0778 
G01 X11.4640 Y50.1251 
G01 X11.5666 Y50.1936 
G01 X11.6538 Y50.2809 
G01 X16.4996 Y55.1266 
G01 X25.9064 Y55.1266 
G01 X30.7124 Y50.3206 
G01 X30.8150 Y50.2521 
G01 X30.9290 Y50.2048 
G01 X31.0500 Y50.1808 
