(.../pcb-gcode-3.6.0.4/pcb-gcode.ulp)
(Copyright 2005 - 2012 by John Johnson)
(See readme.txt for licensing terms.)
(This file generated from the board:)
(.../projects/Battery tester/trial.brd)
(Current profile is .../pcb-gcode-3.6.0.4/profiles/generic.pp  )
(This file generated 12/19/2018 2:20 PM)
(Settings from pcb-machine.h)
(  Tool Size)
(0.3000 )
(Z Axis Settings)
(  High     Up        Down     Drill)
(12.7000 	2.5400 	-0.1000 	-1.7000 )
(spindle on time = 3.0000)
(milling depth = -0.2540)
(text depth = -0.1270)
(tool change at 12.7000 15.2400 18.2400 )
(feed rate xy = F100.00 )
(feed rate z  = F100.00 )
(Settings from pcb-defaults.h)
(isolate min = 0.0254)
(isolate max = 0.3000)
(isolate step = 0.0700)
(Generated top outlines, top drill, )
(Unit of measure: mm)
(Metric Mode)
G21
(Absolute Coordinates)
G90
G00 X0.0000 Y0.0000 
M03
G04 P3.000000
G00 Z2.5400 
G00 X9.3324 Y15.2740 
G01 Z-0.1000 F100.00 
G01 X9.3324 Y15.5860 F100.00 
G01 X9.3018 Y15.8965 
G01 X9.2409 Y16.2025 
G01 X9.1504 Y16.5010 
G01 X9.0310 Y16.7893 
G01 X8.8839 Y17.0645 
G01 X8.7106 Y17.3239 
G01 X8.5127 Y17.5650 
G01 X8.2920 Y17.7857 
G01 X8.0509 Y17.9836 
G01 X7.7915 Y18.1569 
G01 X7.5163 Y18.3040 
G01 X7.2281 Y18.4234 
G01 X6.9295 Y18.5140 
G01 X6.6235 Y18.5748 
G01 X6.3130 Y18.6054 
G01 X6.0010 Y18.6054 
G01 X5.6905 Y18.5748 
G01 X5.3845 Y18.5140 
G01 X5.0859 Y18.4234 
G01 X4.7977 Y18.3040 
G01 X4.5225 Y18.1569 
G01 X4.2631 Y17.9836 
G01 X4.0220 Y17.7857 
G01 X3.8013 Y17.5650 
G01 X3.6034 Y17.3239 
G01 X3.4301 Y17.0645 
G01 X3.2830 Y16.7893 
G01 X3.1636 Y16.5010 
G01 X3.0730 Y16.2025 
G01 X3.0122 Y15.8965 
G01 X2.9816 Y15.5860 
G01 X2.9816 Y15.2740 
G01 X3.0122 Y14.9635 
G01 X3.0730 Y14.6575 
G01 X3.1636 Y14.3589 
G01 X3.2830 Y14.0707 
G01 X3.4301 Y13.7955 
G01 X3.6034 Y13.5361 
G01 X3.8013 Y13.2950 
G01 X4.0220 Y13.0743 
G01 X4.2631 Y12.8764 
G01 X4.5225 Y12.7031 
G01 X4.7977 Y12.5560 
G01 X5.0859 Y12.4366 
G01 X5.3845 Y12.3460 
G01 X5.6905 Y12.2852 
G01 X6.0010 Y12.2546 
G01 X6.3130 Y12.2546 
G01 X6.6235 Y12.2852 
G01 X6.9295 Y12.3460 
G01 X7.2281 Y12.4366 
G01 X7.5163 Y12.5560 
G01 X7.7915 Y12.7031 
G01 X8.0509 Y12.8764 
G01 X8.2920 Y13.0743 
G01 X8.5127 Y13.2950 
G01 X8.7106 Y13.5361 
G01 X8.8839 Y13.7955 
G01 X9.0310 Y14.0707 
G01 X9.1504 Y14.3589 
G01 X9.2409 Y14.6575 
G01 X9.3018 Y14.9635 
G01 X9.3324 Y15.2740 
G00 Z2.5400 
G00 X9.3324 Y5.1740 
G01 Z-0.1000 F100.00 
G01 X9.3324 Y5.4860 F100.00 
G01 X9.3018 Y5.7965 
G01 X9.2409 Y6.1025 
G01 X9.1504 Y6.4011 
G01 X9.0310 Y6.6893 
G01 X8.8839 Y6.9645 
G01 X8.7106 Y7.2239 
G01 X8.5127 Y7.4650 
G01 X8.2920 Y7.6857 
G01 X8.0509 Y7.8836 
G01 X7.7915 Y8.0569 
G01 X7.5163 Y8.2040 
G01 X7.2281 Y8.3234 
G01 X6.9295 Y8.4139 
G01 X6.6235 Y8.4748 
G01 X6.3130 Y8.5054 
G01 X6.0010 Y8.5054 
G01 X5.6905 Y8.4748 
G01 X5.3845 Y8.4139 
G01 X5.0859 Y8.3234 
G01 X4.7977 Y8.2040 
G01 X4.5225 Y8.0569 
G01 X4.2631 Y7.8836 
G01 X4.0220 Y7.6857 
G01 X3.8013 Y7.4650 
G01 X3.6034 Y7.2239 
G01 X3.4301 Y6.9645 
G01 X3.2830 Y6.6893 
G01 X3.1636 Y6.4011 
G01 X3.0730 Y6.1025 
G01 X3.0122 Y5.7965 
G01 X2.9816 Y5.4860 
G01 X2.9816 Y5.1740 
G01 X3.0122 Y4.8635 
G01 X3.0730 Y4.5575 
G01 X3.1636 Y4.2589 
G01 X3.2830 Y3.9707 
G01 X3.4301 Y3.6955 
G01 X3.6034 Y3.4361 
G01 X3.8013 Y3.1950 
G01 X4.0220 Y2.9743 
G01 X4.2631 Y2.7764 
G01 X4.5225 Y2.6031 
G01 X4.7977 Y2.4560 
G01 X5.0859 Y2.3366 
G01 X5.3845 Y2.2460 
G01 X5.6905 Y2.1852 
G01 X6.0010 Y2.1546 
G01 X6.3130 Y2.1546 
G01 X6.6235 Y2.1852 
G01 X6.9295 Y2.2460 
G01 X7.2281 Y2.3366 
G01 X7.5163 Y2.4560 
G01 X7.7915 Y2.6031 
G01 X8.0509 Y2.7764 
G01 X8.2920 Y2.9743 
G01 X8.5127 Y3.1950 
G01 X8.7106 Y3.4361 
G01 X8.8839 Y3.6955 
G01 X9.0310 Y3.9707 
G01 X9.1504 Y4.2589 
G01 X9.2409 Y4.5575 
G01 X9.3018 Y4.8635 
G01 X9.3324 Y5.1740 
G00 Z2.5400 
G00 X21.8364 Y14.6391 
G01 Z-0.1000 F100.00 
G01 X21.8364 Y16.2169 F100.00 
G01 X21.8097 Y16.2814 
G01 X21.7604 Y16.3307 
G01 X21.6959 Y16.3574 
G01 X20.1181 Y16.3574 
G01 X20.0536 Y16.3307 
G01 X20.0043 Y16.2814 
G01 X19.9776 Y16.2169 
G01 X19.9776 Y14.6391 
G01 X20.0043 Y14.5746 
G01 X20.0536 Y14.5253 
G01 X20.1181 Y14.4986 
G01 X21.6959 Y14.4986 
G01 X21.7604 Y14.5253 
G01 X21.8097 Y14.5746 
G01 X21.8364 Y14.6391 
G00 Z2.5400 
G00 X21.8364 Y12.0851 
G01 Z-0.1000 F100.00 
G01 X21.8364 Y13.6629 F100.00 
G01 X21.8097 Y13.7274 
G01 X21.7604 Y13.7767 
G01 X21.6959 Y13.8034 
G01 X20.1181 Y13.8034 
G01 X20.0536 Y13.7767 
G01 X20.0043 Y13.7274 
G01 X19.9776 Y13.6629 
G01 X19.9776 Y12.0851 
G01 X20.0043 Y12.0206 
G01 X20.0536 Y11.9713 
G01 X20.1181 Y11.9446 
G01 X21.6959 Y11.9446 
G01 X21.7604 Y11.9713 
G01 X21.8097 Y12.0206 
G01 X21.8364 Y12.0851 
G00 Z2.5400 
G00 X21.8534 Y10.2395 
G01 Z-0.1000 F100.00 
G01 X21.8534 Y10.4225 F100.00 
G01 X21.8177 Y10.6021 
G01 X21.7476 Y10.7712 
G01 X21.6459 Y10.9235 
G01 X21.5165 Y11.0529 
G01 X21.3642 Y11.1546 
G01 X21.1951 Y11.2247 
G01 X21.0155 Y11.2604 
G01 X20.8325 Y11.2604 
G01 X20.6529 Y11.2247 
G01 X20.4838 Y11.1546 
G01 X20.3315 Y11.0529 
G01 X20.2021 Y10.9235 
G01 X20.1004 Y10.7712 
G01 X20.0303 Y10.6021 
G01 X19.9946 Y10.4225 
G01 X19.9946 Y10.2395 
G01 X20.0303 Y10.0599 
G01 X20.1004 Y9.8908 
G01 X20.2021 Y9.7385 
G01 X20.3315 Y9.6091 
G01 X20.4838 Y9.5074 
G01 X20.6529 Y9.4373 
G01 X20.8325 Y9.4016 
G01 X21.0155 Y9.4016 
G01 X21.1951 Y9.4373 
G01 X21.3642 Y9.5074 
G01 X21.5165 Y9.6091 
G01 X21.6459 Y9.7385 
G01 X21.7476 Y9.8908 
G01 X21.8177 Y10.0599 
G01 X21.8534 Y10.2395 
G00 Z2.5400 
G00 X21.7854 Y7.6885 
G01 Z-0.1000 F100.00 
G01 X21.7854 Y7.8715 F100.00 
G01 X21.7497 Y8.0511 
G01 X21.6796 Y8.2202 
G01 X21.5779 Y8.3725 
G01 X21.4485 Y8.5019 
G01 X21.2962 Y8.6036 
G01 X21.1271 Y8.6737 
G01 X20.9475 Y8.7094 
G01 X20.7645 Y8.7094 
G01 X20.5849 Y8.6737 
G01 X20.4158 Y8.6036 
G01 X20.2635 Y8.5019 
G01 X20.1341 Y8.3725 
G01 X20.0324 Y8.2202 
G01 X19.9623 Y8.0511 
G01 X19.9266 Y7.8715 
G01 X19.9266 Y7.6885 
G01 X19.9623 Y7.5089 
G01 X20.0324 Y7.3398 
G01 X20.1341 Y7.1875 
G01 X20.2635 Y7.0581 
G01 X20.4158 Y6.9564 
G01 X20.5849 Y6.8863 
G01 X20.7645 Y6.8506 
G01 X20.9475 Y6.8506 
G01 X21.1271 Y6.8863 
G01 X21.2962 Y6.9564 
G01 X21.4485 Y7.0581 
G01 X21.5779 Y7.1875 
G01 X21.6796 Y7.3398 
G01 X21.7497 Y7.5089 
G01 X21.7854 Y7.6885 
G00 Z2.5400 
G00 X21.7794 Y5.1485 
G01 Z-0.1000 F100.00 
G01 X21.7794 Y5.3315 F100.00 
G01 X21.7437 Y5.5111 
G01 X21.6736 Y5.6802 
G01 X21.5719 Y5.8325 
G01 X21.4425 Y5.9619 
G01 X21.2902 Y6.0636 
G01 X21.1211 Y6.1337 
G01 X20.9415 Y6.1694 
G01 X20.7585 Y6.1694 
G01 X20.5789 Y6.1337 
G01 X20.4098 Y6.0636 
G01 X20.2575 Y5.9619 
G01 X20.1281 Y5.8325 
G01 X20.0264 Y5.6802 
G01 X19.9563 Y5.5111 
G01 X19.9206 Y5.3315 
G01 X19.9206 Y5.1485 
G01 X19.9563 Y4.9689 
G01 X20.0264 Y4.7998 
G01 X20.1281 Y4.6475 
G01 X20.2575 Y4.5181 
G01 X20.4098 Y4.4164 
G01 X20.5789 Y4.3463 
G01 X20.7585 Y4.3106 
G01 X20.9415 Y4.3106 
G01 X21.1211 Y4.3463 
G01 X21.2902 Y4.4164 
G01 X21.4425 Y4.5181 
G01 X21.5719 Y4.6475 
G01 X21.6736 Y4.7998 
G01 X21.7437 Y4.9689 
G01 X21.7794 Y5.1485 
G00 Z2.5400 
G00 X9.4024 Y15.2706 
G01 Z-0.1000 F100.00 
G01 X9.4024 Y15.5894 F100.00 
G01 X9.3711 Y15.9068 
G01 X9.3089 Y16.2195 
G01 X9.2164 Y16.5247 
G01 X9.0943 Y16.8193 
G01 X8.9440 Y17.1005 
G01 X8.7669 Y17.3656 
G01 X8.5646 Y17.6121 
G01 X8.3391 Y17.8376 
G01 X8.0926 Y18.0399 
G01 X7.8275 Y18.2170 
G01 X7.5463 Y18.3673 
G01 X7.2517 Y18.4894 
G01 X6.9465 Y18.5819 
G01 X6.6338 Y18.6441 
G01 X6.3164 Y18.6754 
G01 X5.9976 Y18.6754 
G01 X5.6802 Y18.6441 
G01 X5.3675 Y18.5819 
G01 X5.0623 Y18.4894 
G01 X4.7677 Y18.3673 
G01 X4.4865 Y18.2170 
G01 X4.2214 Y18.0399 
G01 X3.9749 Y17.8376 
G01 X3.7494 Y17.6121 
G01 X3.5471 Y17.3656 
G01 X3.3700 Y17.1005 
G01 X3.2197 Y16.8193 
G01 X3.0976 Y16.5247 
G01 X3.0051 Y16.2195 
G01 X2.9429 Y15.9068 
G01 X2.9116 Y15.5894 
G01 X2.9116 Y15.2706 
G01 X2.9429 Y14.9532 
G01 X3.0051 Y14.6405 
G01 X3.0976 Y14.3353 
G01 X3.2197 Y14.0407 
G01 X3.3700 Y13.7595 
G01 X3.5471 Y13.4944 
G01 X3.7494 Y13.2479 
G01 X3.9749 Y13.0224 
G01 X4.2214 Y12.8201 
G01 X4.4865 Y12.6430 
G01 X4.7677 Y12.4927 
G01 X5.0623 Y12.3706 
G01 X5.3675 Y12.2781 
G01 X5.6802 Y12.2159 
G01 X5.9976 Y12.1846 
G01 X6.3164 Y12.1846 
G01 X6.6338 Y12.2159 
G01 X6.9465 Y12.2781 
G01 X7.2517 Y12.3706 
G01 X7.5463 Y12.4927 
G01 X7.8275 Y12.6430 
G01 X8.0926 Y12.8201 
G01 X8.3391 Y13.0224 
G01 X8.5646 Y13.2479 
G01 X8.7669 Y13.4944 
G01 X8.9440 Y13.7595 
G01 X9.0943 Y14.0407 
G01 X9.2164 Y14.3353 
G01 X9.3089 Y14.6405 
G01 X9.3711 Y14.9532 
G01 X9.4024 Y15.2706 
G00 Z2.5400 
G00 X9.4024 Y5.1706 
G01 Z-0.1000 F100.00 
G01 X9.4024 Y5.4894 F100.00 
G01 X9.3711 Y5.8068 
G01 X9.3089 Y6.1195 
G01 X9.2164 Y6.4247 
G01 X9.0943 Y6.7193 
G01 X8.9440 Y7.0005 
G01 X8.7669 Y7.2656 
G01 X8.5646 Y7.5121 
G01 X8.3391 Y7.7376 
G01 X8.0926 Y7.9399 
G01 X7.8275 Y8.1170 
G01 X7.5463 Y8.2673 
G01 X7.2517 Y8.3894 
G01 X6.9465 Y8.4819 
G01 X6.6338 Y8.5441 
G01 X6.3164 Y8.5754 
G01 X5.9976 Y8.5754 
G01 X5.6802 Y8.5441 
G01 X5.3675 Y8.4819 
G01 X5.0623 Y8.3894 
G01 X4.7677 Y8.2673 
G01 X4.4865 Y8.1170 
G01 X4.2214 Y7.9399 
G01 X3.9749 Y7.7376 
G01 X3.7494 Y7.5121 
G01 X3.5471 Y7.2656 
G01 X3.3700 Y7.0005 
G01 X3.2197 Y6.7193 
G01 X3.0976 Y6.4247 
G01 X3.0051 Y6.1195 
G01 X2.9429 Y5.8068 
G01 X2.9116 Y5.4894 
G01 X2.9116 Y5.1706 
G01 X2.9429 Y4.8532 
G01 X3.0051 Y4.5405 
G01 X3.0976 Y4.2353 
G01 X3.2197 Y3.9407 
G01 X3.3700 Y3.6595 
G01 X3.5471 Y3.3944 
G01 X3.7494 Y3.1479 
G01 X3.9749 Y2.9224 
G01 X4.2214 Y2.7201 
G01 X4.4865 Y2.5430 
G01 X4.7677 Y2.3927 
G01 X5.0623 Y2.2706 
G01 X5.3675 Y2.1781 
G01 X5.6802 Y2.1159 
G01 X5.9976 Y2.0846 
G01 X6.3164 Y2.0846 
G01 X6.6338 Y2.1159 
G01 X6.9465 Y2.1781 
G01 X7.2517 Y2.2706 
G01 X7.5463 Y2.3927 
G01 X7.8275 Y2.5430 
G01 X8.0926 Y2.7201 
G01 X8.3391 Y2.9224 
G01 X8.5646 Y3.1479 
G01 X8.7669 Y3.3944 
G01 X8.9440 Y3.6595 
G01 X9.0943 Y3.9407 
G01 X9.2164 Y4.2353 
G01 X9.3089 Y4.5405 
G01 X9.3711 Y4.8532 
G01 X9.4024 Y5.1706 
G00 Z2.5400 
G00 X21.9064 Y14.6252 
G01 Z-0.1000 F100.00 
G01 X21.9064 Y16.2308 F100.00 
G01 X21.8690 Y16.3210 
G01 X21.8000 Y16.3900 
G01 X21.7098 Y16.4274 
G01 X20.1042 Y16.4274 
G01 X20.0140 Y16.3900 
G01 X19.9450 Y16.3210 
G01 X19.9076 Y16.2308 
G01 X19.9076 Y14.6252 
G01 X19.9450 Y14.5350 
G01 X20.0140 Y14.4660 
G01 X20.1042 Y14.4286 
G01 X21.7098 Y14.4286 
G01 X21.8000 Y14.4660 
G01 X21.8690 Y14.5350 
G01 X21.9064 Y14.6252 
G00 Z2.5400 
G00 X21.9064 Y12.0712 
G01 Z-0.1000 F100.00 
G01 X21.9064 Y13.6768 F100.00 
G01 X21.8690 Y13.7670 
G01 X21.8000 Y13.8360 
G01 X21.7098 Y13.8734 
G01 X20.1042 Y13.8734 
G01 X20.0140 Y13.8360 
G01 X19.9450 Y13.7670 
G01 X19.9076 Y13.6768 
G01 X19.9076 Y12.0712 
G01 X19.9450 Y11.9810 
G01 X20.0140 Y11.9120 
G01 X20.1042 Y11.8746 
G01 X21.7098 Y11.8746 
G01 X21.8000 Y11.9120 
G01 X21.8690 Y11.9810 
G01 X21.9064 Y12.0712 
G00 Z2.5400 
G00 X21.9234 Y10.2326 
G01 Z-0.1000 F100.00 
G01 X21.9234 Y10.4294 F100.00 
G01 X21.8850 Y10.6225 
G01 X21.8097 Y10.8044 
G01 X21.7003 Y10.9681 
G01 X21.5611 Y11.1073 
G01 X21.3974 Y11.2167 
G01 X21.2155 Y11.2920 
G01 X21.0224 Y11.3304 
G01 X20.8256 Y11.3304 
G01 X20.6325 Y11.2920 
G01 X20.4506 Y11.2167 
G01 X20.2869 Y11.1073 
G01 X20.1477 Y10.9681 
G01 X20.0383 Y10.8044 
G01 X19.9630 Y10.6225 
G01 X19.9246 Y10.4294 
G01 X19.9246 Y10.2326 
G01 X19.9630 Y10.0395 
G01 X20.0383 Y9.8576 
G01 X20.1477 Y9.6939 
G01 X20.2869 Y9.5547 
G01 X20.4506 Y9.4453 
G01 X20.6325 Y9.3700 
G01 X20.8256 Y9.3316 
G01 X21.0224 Y9.3316 
G01 X21.2155 Y9.3700 
G01 X21.3974 Y9.4453 
G01 X21.5611 Y9.5547 
G01 X21.7003 Y9.6939 
G01 X21.8097 Y9.8576 
G01 X21.8850 Y10.0395 
G01 X21.9234 Y10.2326 
G00 Z2.5400 
G00 X21.8554 Y7.6816 
G01 Z-0.1000 F100.00 
G01 X21.8554 Y7.8784 F100.00 
G01 X21.8170 Y8.0715 
G01 X21.7417 Y8.2534 
G01 X21.6323 Y8.4171 
G01 X21.4931 Y8.5563 
G01 X21.3294 Y8.6657 
G01 X21.1475 Y8.7410 
G01 X20.9544 Y8.7794 
G01 X20.7576 Y8.7794 
G01 X20.5645 Y8.7410 
G01 X20.3826 Y8.6657 
G01 X20.2189 Y8.5563 
G01 X20.0797 Y8.4171 
G01 X19.9703 Y8.2534 
G01 X19.8950 Y8.0715 
G01 X19.8566 Y7.8784 
G01 X19.8566 Y7.6816 
G01 X19.8950 Y7.4885 
G01 X19.9703 Y7.3066 
G01 X20.0797 Y7.1429 
G01 X20.2189 Y7.0037 
G01 X20.3826 Y6.8943 
G01 X20.5645 Y6.8190 
G01 X20.7576 Y6.7806 
G01 X20.9544 Y6.7806 
G01 X21.1475 Y6.8190 
G01 X21.3294 Y6.8943 
G01 X21.4931 Y7.0037 
G01 X21.6323 Y7.1429 
G01 X21.7417 Y7.3066 
G01 X21.8170 Y7.4885 
G01 X21.8554 Y7.6816 
G00 Z2.5400 
G00 X21.8494 Y5.1416 
G01 Z-0.1000 F100.00 
G01 X21.8494 Y5.3384 F100.00 
G01 X21.8110 Y5.5315 
G01 X21.7357 Y5.7134 
G01 X21.6263 Y5.8771 
G01 X21.4871 Y6.0163 
G01 X21.3234 Y6.1257 
G01 X21.1415 Y6.2010 
G01 X20.9484 Y6.2394 
G01 X20.7516 Y6.2394 
G01 X20.5585 Y6.2010 
G01 X20.3766 Y6.1257 
G01 X20.2129 Y6.0163 
G01 X20.0737 Y5.8771 
G01 X19.9643 Y5.7134 
G01 X19.8890 Y5.5315 
G01 X19.8506 Y5.3384 
G01 X19.8506 Y5.1416 
G01 X19.8890 Y4.9485 
G01 X19.9643 Y4.7666 
G01 X20.0737 Y4.6029 
G01 X20.2129 Y4.4637 
G01 X20.3766 Y4.3543 
G01 X20.5585 Y4.2790 
G01 X20.7516 Y4.2406 
G01 X20.9484 Y4.2406 
G01 X21.1415 Y4.2790 
G01 X21.3234 Y4.3543 
G01 X21.4871 Y4.4637 
G01 X21.6263 Y4.6029 
G01 X21.7357 Y4.7666 
G01 X21.8110 Y4.9485 
G01 X21.8494 Y5.1416 
G00 Z2.5400 
G00 X9.4724 Y15.2671 
G01 Z-0.1000 F100.00 
G01 X9.4724 Y15.5929 F100.00 
G01 X9.4405 Y15.9171 
G01 X9.3769 Y16.2365 
G01 X9.2824 Y16.5483 
G01 X9.1577 Y16.8492 
G01 X9.0041 Y17.1365 
G01 X8.8232 Y17.4074 
G01 X8.6165 Y17.6592 
G01 X8.3862 Y17.8895 
G01 X8.1344 Y18.0962 
G01 X7.8635 Y18.2771 
G01 X7.5762 Y18.4307 
G01 X7.2753 Y18.5554 
G01 X6.9635 Y18.6499 
G01 X6.6441 Y18.7135 
G01 X6.3199 Y18.7454 
G01 X5.9941 Y18.7454 
G01 X5.6699 Y18.7135 
G01 X5.3505 Y18.6499 
G01 X5.0387 Y18.5554 
G01 X4.7378 Y18.4307 
G01 X4.4505 Y18.2771 
G01 X4.1796 Y18.0962 
G01 X3.9278 Y17.8895 
G01 X3.6975 Y17.6592 
G01 X3.4908 Y17.4074 
G01 X3.3099 Y17.1365 
G01 X3.1563 Y16.8492 
G01 X3.0316 Y16.5483 
G01 X2.9371 Y16.2365 
G01 X2.8735 Y15.9171 
G01 X2.8416 Y15.5929 
G01 X2.8416 Y15.2671 
G01 X2.8735 Y14.9429 
G01 X2.9371 Y14.6235 
G01 X3.0316 Y14.3117 
G01 X3.1563 Y14.0108 
G01 X3.3099 Y13.7235 
G01 X3.4908 Y13.4526 
G01 X3.6975 Y13.2008 
G01 X3.9278 Y12.9705 
G01 X4.1796 Y12.7638 
G01 X4.4505 Y12.5829 
G01 X4.7378 Y12.4293 
G01 X5.0387 Y12.3046 
G01 X5.3505 Y12.2101 
G01 X5.6699 Y12.1465 
G01 X5.9941 Y12.1146 
G01 X6.3199 Y12.1146 
G01 X6.6441 Y12.1465 
G01 X6.9635 Y12.2101 
G01 X7.2753 Y12.3046 
G01 X7.5762 Y12.4293 
G01 X7.8635 Y12.5829 
G01 X8.1344 Y12.7638 
G01 X8.3862 Y12.9705 
G01 X8.6165 Y13.2008 
G01 X8.8232 Y13.4526 
G01 X9.0041 Y13.7235 
G01 X9.1577 Y14.0108 
G01 X9.2824 Y14.3117 
G01 X9.3769 Y14.6235 
G01 X9.4405 Y14.9429 
G01 X9.4724 Y15.2671 
G00 Z2.5400 
G00 X9.4724 Y5.1671 
G01 Z-0.1000 F100.00 
G01 X9.4724 Y5.4929 F100.00 
G01 X9.4405 Y5.8171 
G01 X9.3769 Y6.1365 
G01 X9.2824 Y6.4483 
G01 X9.1577 Y6.7492 
G01 X9.0041 Y7.0365 
G01 X8.8232 Y7.3074 
G01 X8.6165 Y7.5592 
G01 X8.3862 Y7.7895 
G01 X8.1344 Y7.9962 
G01 X7.8635 Y8.1771 
G01 X7.5762 Y8.3307 
G01 X7.2753 Y8.4554 
G01 X6.9635 Y8.5499 
G01 X6.6441 Y8.6135 
G01 X6.3199 Y8.6454 
G01 X5.9941 Y8.6454 
G01 X5.6699 Y8.6135 
G01 X5.3505 Y8.5499 
G01 X5.0387 Y8.4554 
G01 X4.7378 Y8.3307 
G01 X4.4505 Y8.1771 
G01 X4.1796 Y7.9962 
G01 X3.9278 Y7.7895 
G01 X3.6975 Y7.5592 
G01 X3.4908 Y7.3074 
G01 X3.3099 Y7.0365 
G01 X3.1563 Y6.7492 
G01 X3.0316 Y6.4483 
G01 X2.9371 Y6.1365 
G01 X2.8735 Y5.8171 
G01 X2.8416 Y5.4929 
G01 X2.8416 Y5.1671 
G01 X2.8735 Y4.8429 
G01 X2.9371 Y4.5235 
G01 X3.0316 Y4.2117 
G01 X3.1563 Y3.9108 
G01 X3.3099 Y3.6235 
G01 X3.4908 Y3.3526 
G01 X3.6975 Y3.1008 
G01 X3.9278 Y2.8705 
G01 X4.1796 Y2.6638 
G01 X4.4505 Y2.4829 
G01 X4.7378 Y2.3293 
G01 X5.0387 Y2.2046 
G01 X5.3505 Y2.1101 
G01 X5.6699 Y2.0465 
G01 X5.9941 Y2.0146 
G01 X6.3199 Y2.0146 
G01 X6.6441 Y2.0465 
G01 X6.9635 Y2.1101 
G01 X7.2753 Y2.2046 
G01 X7.5762 Y2.3293 
G01 X7.8635 Y2.4829 
G01 X8.1344 Y2.6638 
G01 X8.3862 Y2.8705 
G01 X8.6165 Y3.1008 
G01 X8.8232 Y3.3526 
G01 X9.0041 Y3.6235 
G01 X9.1577 Y3.9108 
G01 X9.2824 Y4.2117 
G01 X9.3769 Y4.5235 
G01 X9.4405 Y4.8429 
G01 X9.4724 Y5.1671 
G00 Z2.5400 
G00 X21.9764 Y14.6325 
G01 Z-0.1000 F100.00 
G01 X21.9764 Y16.2235 F100.00 
G01 X21.9549 Y16.3037 
G01 X21.9134 Y16.3757 
G01 X21.8547 Y16.4344 
G01 X21.7827 Y16.4759 
G01 X21.7025 Y16.4974 
G01 X20.1115 Y16.4974 
G01 X20.0313 Y16.4759 
G01 X19.9593 Y16.4344 
G01 X19.9006 Y16.3757 
G01 X19.8591 Y16.3037 
G01 X19.8376 Y16.2235 
G01 X19.8376 Y14.6325 
G01 X19.8591 Y14.5523 
G01 X19.9006 Y14.4803 
G01 X19.9593 Y14.4216 
G01 X20.0313 Y14.3801 
G01 X20.1115 Y14.3586 
G01 X21.7025 Y14.3586 
G01 X21.7827 Y14.3801 
G01 X21.8547 Y14.4216 
G01 X21.9134 Y14.4803 
G01 X21.9549 Y14.5523 
G01 X21.9764 Y14.6325 
G00 Z2.5400 
G00 X21.9764 Y12.0785 
G01 Z-0.1000 F100.00 
G01 X21.9764 Y13.6695 F100.00 
G01 X21.9549 Y13.7497 
G01 X21.9134 Y13.8217 
G01 X21.8547 Y13.8804 
G01 X21.7827 Y13.9219 
G01 X21.7025 Y13.9434 
G01 X20.1115 Y13.9434 
G01 X20.0313 Y13.9219 
G01 X19.9593 Y13.8804 
G01 X19.9006 Y13.8217 
G01 X19.8591 Y13.7497 
G01 X19.8376 Y13.6695 
G01 X19.8376 Y12.0785 
G01 X19.8591 Y11.9983 
G01 X19.9006 Y11.9263 
G01 X19.9593 Y11.8676 
G01 X20.0313 Y11.8261 
G01 X20.1115 Y11.8046 
G01 X21.7025 Y11.8046 
G01 X21.7827 Y11.8261 
G01 X21.8547 Y11.8676 
G01 X21.9134 Y11.9263 
G01 X21.9549 Y11.9983 
G01 X21.9764 Y12.0785 
G00 Z2.5400 
G00 X21.9934 Y10.2468 
G01 Z-0.1000 F100.00 
G01 X21.9934 Y10.4152 F100.00 
G01 X21.9671 Y10.5814 
G01 X21.9151 Y10.7415 
G01 X21.8386 Y10.8915 
G01 X21.7397 Y11.0277 
G01 X21.6207 Y11.1467 
G01 X21.4845 Y11.2456 
G01 X21.3345 Y11.3221 
G01 X21.1744 Y11.3741 
G01 X21.0082 Y11.4004 
G01 X20.8398 Y11.4004 
G01 X20.6736 Y11.3741 
G01 X20.5135 Y11.3221 
G01 X20.3635 Y11.2456 
G01 X20.2273 Y11.1467 
G01 X20.1083 Y11.0277 
G01 X20.0094 Y10.8915 
G01 X19.9329 Y10.7415 
G01 X19.8809 Y10.5814 
G01 X19.8546 Y10.4152 
G01 X19.8546 Y10.2468 
G01 X19.8809 Y10.0806 
G01 X19.9329 Y9.9205 
G01 X20.0094 Y9.7705 
G01 X20.1083 Y9.6343 
G01 X20.2273 Y9.5153 
G01 X20.3635 Y9.4164 
G01 X20.5135 Y9.3399 
G01 X20.6736 Y9.2879 
G01 X20.8398 Y9.2616 
G01 X21.0082 Y9.2616 
G01 X21.1744 Y9.2879 
G01 X21.3345 Y9.3399 
G01 X21.4845 Y9.4164 
G01 X21.6207 Y9.5153 
G01 X21.7397 Y9.6343 
G01 X21.8386 Y9.7705 
G01 X21.9151 Y9.9205 
G01 X21.9671 Y10.0806 
G01 X21.9934 Y10.2468 
G00 Z2.5400 
G00 X21.9254 Y7.6958 
G01 Z-0.1000 F100.00 
G01 X21.9254 Y7.8642 F100.00 
G01 X21.8991 Y8.0304 
G01 X21.8470 Y8.1905 
G01 X21.7706 Y8.3405 
G01 X21.6717 Y8.4767 
G01 X21.5527 Y8.5957 
G01 X21.4165 Y8.6946 
G01 X21.2665 Y8.7711 
G01 X21.1064 Y8.8231 
G01 X20.9402 Y8.8494 
G01 X20.7718 Y8.8494 
G01 X20.6056 Y8.8231 
G01 X20.4455 Y8.7711 
G01 X20.2955 Y8.6946 
G01 X20.1593 Y8.5957 
G01 X20.0403 Y8.4767 
G01 X19.9414 Y8.3405 
G01 X19.8649 Y8.1905 
G01 X19.8129 Y8.0304 
G01 X19.7866 Y7.8642 
G01 X19.7866 Y7.6958 
G01 X19.8129 Y7.5296 
G01 X19.8649 Y7.3695 
G01 X19.9414 Y7.2195 
G01 X20.0403 Y7.0833 
G01 X20.1593 Y6.9643 
G01 X20.2955 Y6.8654 
G01 X20.4455 Y6.7889 
G01 X20.6056 Y6.7369 
G01 X20.7718 Y6.7106 
G01 X20.9402 Y6.7106 
G01 X21.1064 Y6.7369 
G01 X21.2665 Y6.7889 
G01 X21.4165 Y6.8654 
G01 X21.5527 Y6.9643 
G01 X21.6717 Y7.0833 
G01 X21.7706 Y7.2195 
G01 X21.8470 Y7.3695 
G01 X21.8991 Y7.5296 
G01 X21.9254 Y7.6958 
G00 Z2.5400 
G00 X21.9194 Y5.1558 
G01 Z-0.1000 F100.00 
G01 X21.9194 Y5.3242 F100.00 
G01 X21.8931 Y5.4904 
G01 X21.8411 Y5.6505 
G01 X21.7646 Y5.8005 
G01 X21.6657 Y5.9367 
G01 X21.5467 Y6.0557 
G01 X21.4105 Y6.1546 
G01 X21.2605 Y6.2311 
G01 X21.1004 Y6.2831 
G01 X20.9342 Y6.3094 
G01 X20.7658 Y6.3094 
G01 X20.5996 Y6.2831 
G01 X20.4395 Y6.2311 
G01 X20.2895 Y6.1546 
G01 X20.1533 Y6.0557 
G01 X20.0343 Y5.9367 
G01 X19.9354 Y5.8005 
G01 X19.8589 Y5.6505 
G01 X19.8069 Y5.4904 
G01 X19.7806 Y5.3242 
G01 X19.7806 Y5.1558 
G01 X19.8069 Y4.9896 
G01 X19.8589 Y4.8295 
G01 X19.9354 Y4.6795 
G01 X20.0343 Y4.5433 
G01 X20.1533 Y4.4243 
G01 X20.2895 Y4.3254 
G01 X20.4395 Y4.2489 
G01 X20.5996 Y4.1969 
G01 X20.7658 Y4.1706 
G01 X20.9342 Y4.1706 
G01 X21.1004 Y4.1969 
G01 X21.2605 Y4.2489 
G01 X21.4105 Y4.3254 
G01 X21.5467 Y4.4243 
G01 X21.6657 Y4.5433 
G01 X21.7646 Y4.6795 
G01 X21.8411 Y4.8295 
G01 X21.8931 Y4.9896 
G01 X21.9194 Y5.1558 
G00 Z2.5400 
G00 X9.5424 Y15.2637 
G01 Z-0.1000 F100.00 
G01 X9.5424 Y15.5963 F100.00 
G01 X9.5098 Y15.9273 
G01 X9.4449 Y16.2536 
G01 X9.3483 Y16.5719 
G01 X9.2211 Y16.8792 
G01 X9.0643 Y17.1725 
G01 X8.8795 Y17.4491 
G01 X8.6684 Y17.7062 
G01 X8.4332 Y17.9414 
G01 X8.1761 Y18.1525 
G01 X7.8995 Y18.3373 
G01 X7.6062 Y18.4941 
G01 X7.2989 Y18.6213 
G01 X6.9806 Y18.7179 
G01 X6.6543 Y18.7828 
G01 X6.3233 Y18.8154 
G01 X5.9907 Y18.8154 
G01 X5.6597 Y18.7828 
G01 X5.3334 Y18.7179 
G01 X5.0151 Y18.6213 
G01 X4.7078 Y18.4941 
G01 X4.4145 Y18.3373 
G01 X4.1379 Y18.1525 
G01 X3.8808 Y17.9414 
G01 X3.6456 Y17.7062 
G01 X3.4345 Y17.4491 
G01 X3.2497 Y17.1725 
G01 X3.0929 Y16.8792 
G01 X2.9657 Y16.5719 
G01 X2.8691 Y16.2536 
G01 X2.8042 Y15.9273 
G01 X2.7716 Y15.5963 
G01 X2.7716 Y15.2637 
G01 X2.8042 Y14.9327 
G01 X2.8691 Y14.6064 
G01 X2.9657 Y14.2881 
G01 X3.0929 Y13.9808 
G01 X3.2497 Y13.6875 
G01 X3.4345 Y13.4109 
G01 X3.6456 Y13.1538 
G01 X3.8808 Y12.9186 
G01 X4.1379 Y12.7075 
G01 X4.4145 Y12.5227 
G01 X4.7078 Y12.3659 
G01 X5.0151 Y12.2387 
G01 X5.3334 Y12.1421 
G01 X5.6597 Y12.0772 
G01 X5.9907 Y12.0446 
G01 X6.3233 Y12.0446 
G01 X6.6543 Y12.0772 
G01 X6.9806 Y12.1421 
G01 X7.2989 Y12.2387 
G01 X7.6062 Y12.3659 
G01 X7.8995 Y12.5227 
G01 X8.1761 Y12.7075 
G01 X8.4332 Y12.9186 
G01 X8.6684 Y13.1538 
G01 X8.8795 Y13.4109 
G01 X9.0643 Y13.6875 
G01 X9.2211 Y13.9808 
G01 X9.3483 Y14.2881 
G01 X9.4449 Y14.6064 
G01 X9.5098 Y14.9327 
G01 X9.5424 Y15.2637 
G00 Z2.5400 
G00 X9.5424 Y5.1637 
G01 Z-0.1000 F100.00 
G01 X9.5424 Y5.4963 F100.00 
G01 X9.5098 Y5.8273 
G01 X9.4449 Y6.1536 
G01 X9.3483 Y6.4719 
G01 X9.2211 Y6.7792 
G01 X9.0643 Y7.0725 
G01 X8.8795 Y7.3491 
G01 X8.6684 Y7.6062 
G01 X8.4332 Y7.8414 
G01 X8.1761 Y8.0525 
G01 X7.8995 Y8.2373 
G01 X7.6062 Y8.3941 
G01 X7.2989 Y8.5213 
G01 X6.9806 Y8.6179 
G01 X6.6543 Y8.6828 
G01 X6.3233 Y8.7154 
G01 X5.9907 Y8.7154 
G01 X5.6597 Y8.6828 
G01 X5.3334 Y8.6179 
G01 X5.0151 Y8.5213 
G01 X4.7078 Y8.3941 
G01 X4.4145 Y8.2373 
G01 X4.1379 Y8.0525 
G01 X3.8808 Y7.8414 
G01 X3.6456 Y7.6062 
G01 X3.4345 Y7.3491 
G01 X3.2497 Y7.0725 
G01 X3.0929 Y6.7792 
G01 X2.9657 Y6.4719 
G01 X2.8691 Y6.1536 
G01 X2.8042 Y5.8273 
G01 X2.7716 Y5.4963 
G01 X2.7716 Y5.1637 
G01 X2.8042 Y4.8327 
G01 X2.8691 Y4.5064 
G01 X2.9657 Y4.1881 
G01 X3.0929 Y3.8808 
G01 X3.2497 Y3.5875 
G01 X3.4345 Y3.3109 
G01 X3.6456 Y3.0538 
G01 X3.8808 Y2.8186 
G01 X4.1379 Y2.6075 
G01 X4.4145 Y2.4227 
G01 X4.7078 Y2.2659 
G01 X5.0151 Y2.1387 
G01 X5.3334 Y2.0421 
G01 X5.6597 Y1.9772 
G01 X5.9907 Y1.9446 
G01 X6.3233 Y1.9446 
G01 X6.6543 Y1.9772 
G01 X6.9806 Y2.0421 
G01 X7.2989 Y2.1387 
G01 X7.6062 Y2.2659 
G01 X7.8995 Y2.4227 
G01 X8.1761 Y2.6075 
G01 X8.4332 Y2.8186 
G01 X8.6684 Y3.0538 
G01 X8.8795 Y3.3109 
G01 X9.0643 Y3.5875 
G01 X9.2211 Y3.8808 
G01 X9.3483 Y4.1881 
G01 X9.4449 Y4.5064 
G01 X9.5098 Y4.8327 
G01 X9.5424 Y5.1637 
G00 Z2.5400 
G00 X22.0464 Y14.6233 
G01 Z-0.1000 F100.00 
G01 X22.0464 Y16.2327 F100.00 
G01 X22.0201 Y16.3308 
G01 X21.9694 Y16.4186 
G01 X21.8976 Y16.4904 
G01 X21.8098 Y16.5411 
G01 X21.7117 Y16.5674 
G01 X20.1023 Y16.5674 
G01 X20.0042 Y16.5411 
G01 X19.9164 Y16.4904 
G01 X19.8446 Y16.4186 
G01 X19.7939 Y16.3308 
G01 X19.7676 Y16.2327 
G01 X19.7676 Y14.6233 
G01 X19.7939 Y14.5252 
G01 X19.8446 Y14.4374 
G01 X19.9164 Y14.3656 
G01 X20.0042 Y14.3149 
G01 X20.1023 Y14.2886 
G01 X21.7117 Y14.2886 
G01 X21.8098 Y14.3149 
G01 X21.8976 Y14.3656 
G01 X21.9694 Y14.4374 
G01 X22.0201 Y14.5252 
G01 X22.0464 Y14.6233 
G00 Z2.5400 
G00 X22.0464 Y12.0693 
G01 Z-0.1000 F100.00 
G01 X22.0464 Y13.6787 F100.00 
G01 X22.0201 Y13.7768 
G01 X21.9694 Y13.8646 
G01 X21.8976 Y13.9364 
G01 X21.8098 Y13.9871 
G01 X21.7117 Y14.0134 
G01 X20.1023 Y14.0134 
G01 X20.0042 Y13.9871 
G01 X19.9164 Y13.9364 
G01 X19.8446 Y13.8646 
G01 X19.7939 Y13.7768 
G01 X19.7676 Y13.6787 
G01 X19.7676 Y12.0693 
G01 X19.7939 Y11.9712 
G01 X19.8446 Y11.8834 
G01 X19.9164 Y11.8116 
G01 X20.0042 Y11.7609 
G01 X20.1023 Y11.7346 
G01 X21.7117 Y11.7346 
G01 X21.8098 Y11.7609 
G01 X21.8976 Y11.8116 
G01 X21.9694 Y11.8834 
G01 X22.0201 Y11.9712 
G01 X22.0464 Y12.0693 
G00 Z2.5400 
G00 X22.0634 Y10.2413 
G01 Z-0.1000 F100.00 
G01 X22.0634 Y10.4207 F100.00 
G01 X22.0353 Y10.5978 
G01 X21.9799 Y10.7684 
G01 X21.8985 Y10.9282 
G01 X21.7931 Y11.0733 
G01 X21.6663 Y11.2001 
G01 X21.5212 Y11.3055 
G01 X21.3614 Y11.3869 
G01 X21.1908 Y11.4423 
G01 X21.0137 Y11.4704 
G01 X20.8343 Y11.4704 
G01 X20.6572 Y11.4423 
G01 X20.4866 Y11.3869 
G01 X20.3268 Y11.3055 
G01 X20.1817 Y11.2001 
G01 X20.0549 Y11.0733 
G01 X19.9495 Y10.9282 
G01 X19.8681 Y10.7684 
G01 X19.8127 Y10.5978 
G01 X19.7846 Y10.4207 
G01 X19.7846 Y10.2413 
G01 X19.8127 Y10.0642 
G01 X19.8681 Y9.8936 
G01 X19.9495 Y9.7338 
G01 X20.0549 Y9.5887 
G01 X20.1817 Y9.4619 
G01 X20.3268 Y9.3565 
G01 X20.4866 Y9.2751 
G01 X20.6572 Y9.2197 
G01 X20.8343 Y9.1916 
G01 X21.0137 Y9.1916 
G01 X21.1908 Y9.2197 
G01 X21.3614 Y9.2751 
G01 X21.5212 Y9.3565 
G01 X21.6663 Y9.4619 
G01 X21.7931 Y9.5887 
G01 X21.8985 Y9.7338 
G01 X21.9799 Y9.8936 
G01 X22.0353 Y10.0642 
G01 X22.0634 Y10.2413 
G00 Z2.5400 
G00 X21.9954 Y7.6903 
G01 Z-0.1000 F100.00 
G01 X21.9954 Y7.8697 F100.00 
G01 X21.9673 Y8.0468 
G01 X21.9119 Y8.2174 
G01 X21.8305 Y8.3772 
G01 X21.7251 Y8.5223 
G01 X21.5983 Y8.6491 
G01 X21.4532 Y8.7545 
G01 X21.2934 Y8.8359 
G01 X21.1228 Y8.8913 
G01 X20.9457 Y8.9194 
G01 X20.7663 Y8.9194 
G01 X20.5892 Y8.8913 
G01 X20.4186 Y8.8359 
G01 X20.2588 Y8.7545 
G01 X20.1137 Y8.6491 
G01 X19.9869 Y8.5223 
G01 X19.8815 Y8.3772 
G01 X19.8001 Y8.2174 
G01 X19.7447 Y8.0468 
G01 X19.7166 Y7.8697 
G01 X19.7166 Y7.6903 
G01 X19.7447 Y7.5132 
G01 X19.8001 Y7.3426 
G01 X19.8815 Y7.1828 
G01 X19.9869 Y7.0377 
G01 X20.1137 Y6.9109 
G01 X20.2588 Y6.8055 
G01 X20.4186 Y6.7241 
G01 X20.5892 Y6.6687 
G01 X20.7663 Y6.6406 
G01 X20.9457 Y6.6406 
G01 X21.1228 Y6.6687 
G01 X21.2934 Y6.7241 
G01 X21.4532 Y6.8055 
G01 X21.5983 Y6.9109 
G01 X21.7251 Y7.0377 
G01 X21.8305 Y7.1828 
G01 X21.9119 Y7.3426 
G01 X21.9673 Y7.5132 
G01 X21.9954 Y7.6903 
G00 Z2.5400 
G00 X21.9894 Y5.1503 
G01 Z-0.1000 F100.00 
G01 X21.9894 Y5.3297 F100.00 
G01 X21.9613 Y5.5068 
G01 X21.9059 Y5.6774 
G01 X21.8245 Y5.8372 
G01 X21.7191 Y5.9823 
G01 X21.5923 Y6.1091 
G01 X21.4472 Y6.2145 
G01 X21.2874 Y6.2959 
G01 X21.1168 Y6.3513 
G01 X20.9397 Y6.3794 
G01 X20.7603 Y6.3794 
G01 X20.5832 Y6.3513 
G01 X20.4126 Y6.2959 
G01 X20.2528 Y6.2145 
G01 X20.1077 Y6.1091 
G01 X19.9809 Y5.9823 
G01 X19.8755 Y5.8372 
G01 X19.7941 Y5.6774 
G01 X19.7387 Y5.5068 
G01 X19.7106 Y5.3297 
G01 X19.7106 Y5.1503 
G01 X19.7387 Y4.9732 
G01 X19.7941 Y4.8026 
G01 X19.8755 Y4.6428 
G01 X19.9809 Y4.4977 
G01 X20.1077 Y4.3709 
G01 X20.2528 Y4.2655 
G01 X20.4126 Y4.1841 
G01 X20.5832 Y4.1287 
G01 X20.7603 Y4.1006 
G01 X20.9397 Y4.1006 
G01 X21.1168 Y4.1287 
G01 X21.2874 Y4.1841 
G01 X21.4472 Y4.2655 
G01 X21.5923 Y4.3709 
G01 X21.7191 Y4.4977 
G01 X21.8245 Y4.6428 
G01 X21.9059 Y4.8026 
G01 X21.9613 Y4.9732 
G01 X21.9894 Y5.1503 
G00 Z2.5400 
G00 X9.6124 Y15.2602 
G01 Z-0.1000 F100.00 
G01 X9.6124 Y15.5998 F100.00 
G01 X9.5791 Y15.9376 
G01 X9.5129 Y16.2706 
G01 X9.4143 Y16.5955 
G01 X9.2844 Y16.9092 
G01 X9.1244 Y17.2086 
G01 X8.9357 Y17.4909 
G01 X8.7204 Y17.7533 
G01 X8.4803 Y17.9934 
G01 X8.2179 Y18.2087 
G01 X7.9356 Y18.3974 
G01 X7.6362 Y18.5574 
G01 X7.3225 Y18.6873 
G01 X6.9976 Y18.7859 
G01 X6.6646 Y18.8521 
G01 X6.3268 Y18.8854 
G01 X5.9872 Y18.8854 
G01 X5.6494 Y18.8521 
G01 X5.3164 Y18.7859 
G01 X4.9915 Y18.6873 
G01 X4.6778 Y18.5574 
G01 X4.3784 Y18.3974 
G01 X4.0961 Y18.2087 
G01 X3.8337 Y17.9934 
G01 X3.5936 Y17.7533 
G01 X3.3782 Y17.4909 
G01 X3.1896 Y17.2086 
G01 X3.0296 Y16.9092 
G01 X2.8997 Y16.5955 
G01 X2.8011 Y16.2706 
G01 X2.7349 Y15.9376 
G01 X2.7016 Y15.5998 
G01 X2.7016 Y15.2602 
G01 X2.7349 Y14.9224 
G01 X2.8011 Y14.5894 
G01 X2.8997 Y14.2645 
G01 X3.0296 Y13.9508 
G01 X3.1896 Y13.6514 
G01 X3.3782 Y13.3691 
G01 X3.5936 Y13.1067 
G01 X3.8337 Y12.8666 
G01 X4.0961 Y12.6513 
G01 X4.3784 Y12.4626 
G01 X4.6778 Y12.3026 
G01 X4.9915 Y12.1727 
G01 X5.3164 Y12.0741 
G01 X5.6494 Y12.0079 
G01 X5.9872 Y11.9746 
G01 X6.3268 Y11.9746 
G01 X6.6646 Y12.0079 
G01 X6.9976 Y12.0741 
G01 X7.3225 Y12.1727 
G01 X7.6362 Y12.3026 
G01 X7.9356 Y12.4626 
G01 X8.2179 Y12.6513 
G01 X8.4803 Y12.8666 
G01 X8.7204 Y13.1067 
G01 X8.9357 Y13.3691 
G01 X9.1244 Y13.6514 
G01 X9.2844 Y13.9508 
G01 X9.4143 Y14.2645 
G01 X9.5129 Y14.5894 
G01 X9.5791 Y14.9224 
G01 X9.6124 Y15.2602 
G00 Z2.5400 
G00 X9.6124 Y5.1602 
G01 Z-0.1000 F100.00 
G01 X9.6124 Y5.4998 F100.00 
G01 X9.5791 Y5.8376 
G01 X9.5129 Y6.1706 
G01 X9.4143 Y6.4955 
G01 X9.2844 Y6.8092 
G01 X9.1244 Y7.1086 
G01 X8.9357 Y7.3909 
G01 X8.7204 Y7.6533 
G01 X8.4803 Y7.8934 
G01 X8.2179 Y8.1087 
G01 X7.9356 Y8.2974 
G01 X7.6362 Y8.4574 
G01 X7.3225 Y8.5873 
G01 X6.9976 Y8.6859 
G01 X6.6646 Y8.7521 
G01 X6.3268 Y8.7854 
G01 X5.9872 Y8.7854 
G01 X5.6494 Y8.7521 
G01 X5.3164 Y8.6859 
G01 X4.9915 Y8.5873 
G01 X4.6778 Y8.4574 
G01 X4.3784 Y8.2974 
G01 X4.0961 Y8.1087 
G01 X3.8337 Y7.8934 
G01 X3.5936 Y7.6533 
G01 X3.3782 Y7.3909 
G01 X3.1896 Y7.1086 
G01 X3.0296 Y6.8092 
G01 X2.8997 Y6.4955 
G01 X2.8011 Y6.1706 
G01 X2.7349 Y5.8376 
G01 X2.7016 Y5.4998 
G01 X2.7016 Y5.1602 
G01 X2.7349 Y4.8224 
G01 X2.8011 Y4.4894 
G01 X2.8997 Y4.1645 
G01 X3.0296 Y3.8508 
G01 X3.1896 Y3.5514 
G01 X3.3782 Y3.2691 
G01 X3.5936 Y3.0067 
G01 X3.8337 Y2.7666 
G01 X4.0961 Y2.5513 
G01 X4.3784 Y2.3626 
G01 X4.6778 Y2.2026 
G01 X4.9915 Y2.0727 
G01 X5.3164 Y1.9741 
G01 X5.6494 Y1.9079 
G01 X5.9872 Y1.8746 
G01 X6.3268 Y1.8746 
G01 X6.6646 Y1.9079 
G01 X6.9976 Y1.9741 
G01 X7.3225 Y2.0727 
G01 X7.6362 Y2.2026 
G01 X7.9356 Y2.3626 
G01 X8.2179 Y2.5513 
G01 X8.4803 Y2.7666 
G01 X8.7204 Y3.0067 
G01 X8.9357 Y3.2691 
G01 X9.1244 Y3.5514 
G01 X9.2844 Y3.8508 
G01 X9.4143 Y4.1645 
G01 X9.5129 Y4.4894 
G01 X9.5791 Y4.8224 
G01 X9.6124 Y5.1602 
G00 Z2.5400 
G00 X22.1164 Y14.6140 
G01 Z-0.1000 F100.00 
G01 X22.1164 Y16.2420 F100.00 
G01 X22.0854 Y16.3578 
G01 X22.0254 Y16.4616 
G01 X21.9406 Y16.5464 
G01 X21.8368 Y16.6064 
G01 X21.7210 Y16.6374 
G01 X20.0930 Y16.6374 
G01 X19.9772 Y16.6064 
G01 X19.8734 Y16.5464 
G01 X19.7886 Y16.4616 
G01 X19.7286 Y16.3578 
G01 X19.6976 Y16.2420 
G01 X19.6976 Y14.6140 
G01 X19.7286 Y14.4982 
G01 X19.7886 Y14.3944 
G01 X19.8734 Y14.3096 
G01 X19.9772 Y14.2496 
G01 X20.0930 Y14.2186 
G01 X21.7210 Y14.2186 
G01 X21.8368 Y14.2496 
G01 X21.9406 Y14.3096 
G01 X22.0254 Y14.3944 
G01 X22.0854 Y14.4982 
G01 X22.1164 Y14.6140 
G00 Z2.5400 
G00 X22.1164 Y12.0600 
G01 Z-0.1000 F100.00 
G01 X22.1164 Y13.6880 F100.00 
G01 X22.0854 Y13.8038 
G01 X22.0254 Y13.9076 
G01 X21.9406 Y13.9924 
G01 X21.8368 Y14.0524 
G01 X21.7210 Y14.0834 
G01 X20.0930 Y14.0834 
G01 X19.9772 Y14.0524 
G01 X19.8734 Y13.9924 
G01 X19.7886 Y13.9076 
G01 X19.7286 Y13.8038 
G01 X19.6976 Y13.6880 
G01 X19.6976 Y12.0600 
G01 X19.7286 Y11.9442 
G01 X19.7886 Y11.8404 
G01 X19.8734 Y11.7556 
G01 X19.9772 Y11.6956 
G01 X20.0930 Y11.6646 
G01 X21.7210 Y11.6646 
G01 X21.8368 Y11.6956 
G01 X21.9406 Y11.7556 
G01 X22.0254 Y11.8404 
G01 X22.0854 Y11.9442 
G01 X22.1164 Y12.0600 
G00 Z2.5400 
G00 X22.1334 Y10.2358 
G01 Z-0.1000 F100.00 
G01 X22.1334 Y10.4262 F100.00 
G01 X22.1036 Y10.6142 
G01 X22.0448 Y10.7952 
G01 X21.9584 Y10.9649 
G01 X21.8465 Y11.1189 
G01 X21.7119 Y11.2535 
G01 X21.5579 Y11.3654 
G01 X21.3882 Y11.4518 
G01 X21.2072 Y11.5106 
G01 X21.0192 Y11.5404 
G01 X20.8288 Y11.5404 
G01 X20.6408 Y11.5106 
G01 X20.4597 Y11.4518 
G01 X20.2901 Y11.3654 
G01 X20.1361 Y11.2535 
G01 X20.0015 Y11.1189 
G01 X19.8896 Y10.9649 
G01 X19.8032 Y10.7952 
G01 X19.7444 Y10.6142 
G01 X19.7146 Y10.4262 
G01 X19.7146 Y10.2358 
G01 X19.7444 Y10.0478 
G01 X19.8032 Y9.8667 
G01 X19.8896 Y9.6971 
G01 X20.0015 Y9.5431 
G01 X20.1361 Y9.4085 
G01 X20.2901 Y9.2966 
G01 X20.4597 Y9.2102 
G01 X20.6408 Y9.1514 
G01 X20.8288 Y9.1216 
G01 X21.0192 Y9.1216 
G01 X21.2072 Y9.1514 
G01 X21.3882 Y9.2102 
G01 X21.5579 Y9.2966 
G01 X21.7119 Y9.4085 
G01 X21.8465 Y9.5431 
G01 X21.9584 Y9.6971 
G01 X22.0448 Y9.8667 
G01 X22.1036 Y10.0478 
G01 X22.1334 Y10.2358 
G00 Z2.5400 
G00 X22.0654 Y7.6848 
G01 Z-0.1000 F100.00 
G01 X22.0654 Y7.8752 F100.00 
G01 X22.0356 Y8.0632 
G01 X21.9768 Y8.2442 
G01 X21.8904 Y8.4139 
G01 X21.7785 Y8.5679 
G01 X21.6439 Y8.7025 
G01 X21.4899 Y8.8144 
G01 X21.3202 Y8.9008 
G01 X21.1392 Y8.9596 
G01 X20.9512 Y8.9894 
G01 X20.7608 Y8.9894 
G01 X20.5728 Y8.9596 
G01 X20.3918 Y8.9008 
G01 X20.2221 Y8.8144 
G01 X20.0681 Y8.7025 
G01 X19.9335 Y8.5679 
G01 X19.8216 Y8.4139 
G01 X19.7352 Y8.2442 
G01 X19.6764 Y8.0632 
G01 X19.6466 Y7.8752 
G01 X19.6466 Y7.6848 
G01 X19.6764 Y7.4968 
G01 X19.7352 Y7.3158 
G01 X19.8216 Y7.1461 
G01 X19.9335 Y6.9921 
G01 X20.0681 Y6.8575 
G01 X20.2221 Y6.7456 
G01 X20.3918 Y6.6592 
G01 X20.5728 Y6.6004 
G01 X20.7608 Y6.5706 
G01 X20.9512 Y6.5706 
G01 X21.1392 Y6.6004 
G01 X21.3202 Y6.6592 
G01 X21.4899 Y6.7456 
G01 X21.6439 Y6.8575 
G01 X21.7785 Y6.9921 
G01 X21.8904 Y7.1461 
G01 X21.9768 Y7.3158 
G01 X22.0356 Y7.4968 
G01 X22.0654 Y7.6848 
G00 Z2.5400 
G00 X22.0594 Y5.1448 
G01 Z-0.1000 F100.00 
G01 X22.0594 Y5.3352 F100.00 
G01 X22.0296 Y5.5232 
G01 X21.9708 Y5.7042 
G01 X21.8844 Y5.8739 
G01 X21.7725 Y6.0279 
G01 X21.6379 Y6.1625 
G01 X21.4839 Y6.2744 
G01 X21.3142 Y6.3608 
G01 X21.1332 Y6.4196 
G01 X20.9452 Y6.4494 
G01 X20.7548 Y6.4494 
G01 X20.5668 Y6.4196 
G01 X20.3858 Y6.3608 
G01 X20.2161 Y6.2744 
G01 X20.0621 Y6.1625 
G01 X19.9275 Y6.0279 
G01 X19.8156 Y5.8739 
G01 X19.7292 Y5.7042 
G01 X19.6704 Y5.5232 
G01 X19.6406 Y5.3352 
G01 X19.6406 Y5.1448 
G01 X19.6704 Y4.9568 
G01 X19.7292 Y4.7758 
G01 X19.8156 Y4.6061 
G01 X19.9275 Y4.4521 
G01 X20.0621 Y4.3175 
G01 X20.2161 Y4.2056 
G01 X20.3858 Y4.1192 
G01 X20.5668 Y4.0604 
G01 X20.7548 Y4.0306 
G01 X20.9452 Y4.0306 
G01 X21.1332 Y4.0604 
G01 X21.3142 Y4.1192 
G01 X21.4839 Y4.2056 
G01 X21.6379 Y4.3175 
G01 X21.7725 Y4.4521 
G01 X21.8844 Y4.6061 
G01 X21.9708 Y4.7758 
G01 X22.0296 Y4.9568 
G01 X22.0594 Y5.1448 
G00 Z2.5400 
G00 Z2.540000
G00 X20.9070 Y15.4280 
G01 Z-0.2794 F100.00 
G01 Z2.540000
(R2.5400  P1.000000)
(G00 Z2.540000)
G00 X20.9070 Y12.8740 
G01 Z-1.700000
G01 Z2.540000
(G00 Z2.540000)
G00 X20.9240 Y10.3310 
G01 Z-1.700000
G01 Z2.540000
(G00 Z2.540000)
G00 X20.8560 Y7.7800 
G01 Z-1.700000
G01 Z2.540000
(G00 Z2.540000)
G00 X20.8500 Y5.2400 
G01 Z-1.700000
G01 Z2.540000
(G00 Z2.540000)
G00 X6.1570 Y15.4300 
G01 Z-1.700000
G01 Z2.540000
(G00 Z2.540000)
G00 X6.1570 Y5.3300 
G01 Z-1.700000
G01 Z2.540000
G00 Z12.7000 
M05
M02
